flutter_app/assets/lut/cameras/bw_hp5.cube
TITLE "BW Classic"
LUT_3D_SIZE 9
0.000000 0.000000 0.000000
0.000000 0.000000 0.000000
0.003887 0.003887 0.003887
0.041921 0.041921 0.041921
0.081498 0.081498 0.081498
0.122636 0.122636 0.122636
0.165351 0.165351 0.165351
0.209656 0.209656 0.209656
0.255562 0.255562 0.255562
0.002517 0.002517 0.002517
0.040495 0.040495 0.040495
0.080014 0.080014 0.080014
0.121095 0.121095 0.121095
0.163751 0.163751 0.163751
0.207998 0.207998 0.207998
0.253845 0.253845 0.253845
0.301298 0.301298 0.301298
0.350363 0.350363 0.350363
0.078533 0.078533 0.078533
0.119555 0.119555 0.119555
0.162154 0.162154 0.162154
0.206342 0.206342 0.206342
0.252129 0.252129 0.252129
0.299524 0.299524 0.299524
0.348529 0.348529 0.348529
0.399145 0.399145 0.399145
0.451366 0.451366 0.451366
0.160559 0.160559 0.160559
0.204688 0.204688 0.204688
0.250416 0.250416 0.250416
0.297752 0.297752 0.297752
0.346698 0.346698 0.346698
0.397254 0.397254 0.397254
0.449416 0.449416 0.449416
0.503174 0.503174 0.503174
0.549725 0.549725 0.549725
0.248706 0.248706 0.248706
0.295982 0.295982 0.295982
0.344869 0.344869 0.344869
0.395366 0.395366 0.395366
0.447469 0.447469 0.447469
0.501169 0.501169 0.501169
0.548306 0.548306 0.548306
0.586951 0.586951 0.586951
0.625720 0.625720 0.625720
0.343042 0.343042 0.343042
0.393479 0.393479 0.393479
0.445524 0.445524 0.445524
0.499165 0.499165 0.499165
0.546886 0.546886 0.546886
0.585527 0.585527 0.585527
0.624291 0.624291 0.624291
0.663167 0.663167 0.663167
0.702137 0.702137 0.702137
0.443581 0.443581 0.443581
0.497163 0.497163 0.497163
0.545468 0.545468 0.545468
0.584103 0.584103 0.584103
0.622863 0.622863 0.622863
0.661735 0.661735 0.661735
0.700702 0.700702 0.700702
0.739752 0.739752 0.739752
0.778868 0.778868 0.778868
0.544049 0.544049 0.544049
0.582679 0.582679 0.582679
0.621435 0.621435 0.621435
0.660303 0.660303 0.660303
0.699267 0.699267 0.699267
0.738314 0.738314 0.738314
0.777428 0.777428 0.777428
0.816595 0.816595 0.816595
0.855800 0.855800 0.855800
0.620007 0.620007 0.620007
0.658871 0.658871 0.658871
0.697832 0.697832 0.697832
0.736876 0.736876 0.736876
0.775988 0.775988 0.775988
0.815154 0.815154 0.815154
0.854357 0.854357 0.854357
0.893583 0.893583 0.893583
0.932817 0.932817 0.932817
0.000000 0.000000 0.000000
0.000000 0.000000 0.000000
0.018208 0.018208 0.018208
0.056827 0.056827 0.056827
0.096997 0.096997 0.096997
0.138735 0.138735 0.138735
0.182055 0.182055 0.182055
0.226969 0.226969 0.226969
0.273487 0.273487 0.273487
0.016816 0.016816 0.016816
0.055379 0.055379 0.055379
0.095492 0.095492 0.095492
0.137172 0.137172 0.137172
0.180433 0.180433 0.180433
0.225289 0.225289 0.225289
0.271747 0.271747 0.271747
0.319815 0.319815 0.319815
0.369494 0.369494 0.369494
0.093989 0.093989 0.093989
0.135610 0.135610 0.135610
0.178813 0.178813 0.178813
0.223610 0.223610 0.223610
0.270010 0.270010 0.270010
0.318018 0.318018 0.318018
0.367638 0.367638 0.367638
0.418866 0.418866 0.418866
0.471697 0.471697 0.471697
0.177196 0.177196 0.177196
0.221934 0.221934 0.221934
0.268274 0.268274 0.268274
0.316224 0.316224 0.316224
0.365784 0.365784 0.365784
0.416953 0.416953 0.416953
0.469725 0.469725 0.469725
0.524088 0.524088 0.524088
0.564446 0.564446 0.564446
0.266541 0.266541 0.266541
0.314431 0.314431 0.314431
0.363932 0.363932 0.363932
0.415042 0.415042 0.415042
0.467755 0.467755 0.467755
0.522060 0.522060 0.522060
0.563024 0.563024 0.563024
0.601718 0.601718 0.601718
0.640531 0.640531 0.640531
0.362082 0.362082 0.362082
0.413133 0.413133 0.413133
0.465788 0.465788 0.465788
0.520034 0.520034 0.520034
0.561603 0.561603 0.561603
0.600293 0.600293 0.600293
0.639101 0.639101 0.639101
0.678015 0.678015 0.678015
0.717018 0.717018 0.717018
0.463822 0.463822 0.463822
0.518011 0.518011 0.518011
0.560182 0.560182 0.560182
0.598867 0.598867 0.598867
0.637671 0.637671 0.637671
0.676581 0.676581 0.676581
0.715582 0.715582 0.715582
0.754659 0.754659 0.754659
0.793797 0.793797 0.793797
0.558762 0.558762 0.558762
0.597442 0.597442 0.597442
0.636242 0.636242 0.636242
0.675148 0.675148 0.675148
0.714146 0.714146 0.714146
0.753220 0.753220 0.753220
0.792356 0.792356 0.792356
0.831539 0.831539 0.831539
0.870754 0.870754 0.870754
0.634813 0.634813 0.634813
0.673715 0.673715 0.673715
0.712709 0.712709 0.712709
0.751781 0.751781 0.751781
0.790915 0.790915 0.790915
0.830097 0.830097 0.830097
0.869311 0.869311 0.869311
0.908542 0.908542 0.908542
0.947774 0.947774 0.947774
0.000000 0.000000 0.000000
0.000000 0.000000 0.000000
0.032751 0.032751 0.032751
0.071959 0.071959 0.071959
0.112725 0.112725 0.112725
0.155064 0.155064 0.155064
0.198991 0.198991 0.198991
0.244516 0.244516 0.244516
0.291647 0.291647 0.291647
0.031338 0.031338 0.031338
0.070489 0.070489 0.070489
0.111198 0.111198 0.111198
0.153479 0.153479 0.153479
0.197347 0.197347 0.197347
0.242813 0.242813 0.242813
0.289884 0.289884 0.289884
0.338566 0.338566 0.338566
0.388859 0.388859 0.388859
0.109672 0.109672 0.109672
0.151895 0.151895 0.151895
0.195705 0.195705 0.195705
0.241111 0.241111 0.241111
0.288124 0.288124 0.288124
0.336747 0.336747 0.336747
0.386980 0.386980 0.386980
0.438820 0.438820 0.438820
0.492259 0.492259 0.492259
0.194065 0.194065 0.194065
0.239413 0.239413 0.239413
0.286366 0.286366 0.286366
0.334929 0.334929 0.334929
0.385104 0.385104 0.385104
0.436885 0.436885 0.436885
0.490265 0.490265 0.490265
0.540567 0.540567 0.540567
0.579185 0.579185 0.579185
0.284610 0.284610 0.284610
0.333114 0.333114 0.333114
0.383229 0.383229 0.383229
0.434952 0.434952 0.434952
0.488273 0.488273 0.488273
0.539149 0.539149 0.539149
0.577762 0.577762 0.577762
0.616503 0.616503 0.616503
0.655357 0.655357 0.655357
0.381357 0.381357 0.381357
0.433020 0.433020 0.433020
0.486283 0.486283 0.486283
0.537731 0.537731 0.537731
0.576339 0.576339 0.576339
0.615076 0.615076 0.615076
0.653926 0.653926 0.653926
0.692876 0.692876 0.692876
0.731910 0.731910 0.731910
0.484296 0.484296 0.484296
0.536313 0.536313 0.536313
0.574917 0.574917 0.574917
0.613649 0.613649 0.613649
0.652495 0.652495 0.652495
0.691441 0.691441 0.691441
0.730473 0.730473 0.730473
0.769575 0.769575 0.769575
0.808732 0.808732 0.808732
0.573494 0.573494 0.573494
0.612222 0.612222 0.612222
0.651064 0.651064 0.651064
0.690007 0.690007 0.690007
0.729035 0.729035 0.729035
0.768135 0.768135 0.768135
0.807291 0.807291 0.807291
0.846488 0.846488 0.846488
0.885711 0.885711 0.885711
0.649633 0.649633 0.649633
0.688572 0.688572 0.688572
0.727598 0.727598 0.727598
0.766695 0.766695 0.766695
0.805849 0.805849 0.805849
0.845045 0.845045 0.845045
0.884268 0.884268 0.884268
0.923501 0.923501 0.923501
0.962730 0.962730 0.962730
0.000000 0.000000 0.000000
0.009263 0.009263 0.009263
0.047517 0.047517 0.047517
0.087317 0.087317 0.087317
0.128681 0.128681 0.128681
0.171624 0.171624 0.171624
0.216159 0.216159 0.216159
0.262296 0.262296 0.262296
0.310040 0.310040 0.310040
0.046083 0.046083 0.046083
0.085826 0.085826 0.085826
0.127132 0.127132 0.127132
0.170016 0.170016 0.170016
0.214492 0.214492 0.214492
0.260570 0.260570 0.260570
0.308255 0.308255 0.308255
0.357551 0.357551 0.357551
0.408457 0.408457 0.408457
0.125584 0.125584 0.125584
0.168411 0.168411 0.168411
0.212828 0.212828 0.212828
0.258846 0.258846 0.258846
0.306472 0.306472 0.306472
0.355709 0.355709 0.355709
0.406556 0.406556 0.406556
0.459007 0.459007 0.459007
0.513052 0.513052 0.513052
0.211166 0.211166 0.211166
0.257125 0.257125 0.257125
0.304692 0.304692 0.304692
0.353869 0.353869 0.353869
0.404657 0.404657 0.404657
0.457049 0.457049 0.457049
0.511036 0.511036 0.511036
0.555275 0.555275 0.555275
0.593944 0.593944 0.593944
0.302913 0.302913 0.302913
0.352032 0.352032 0.352032
0.402760 0.402760 0.402760
0.455093 0.455093 0.455093
0.509022 0.509022 0.509022
0.553855 0.553855 0.553855
0.592519 0.592519 0.592519
0.631305 0.631305 0.631305
0.670198 0.670198 0.670198
0.400865 0.400865 0.400865
0.453140 0.453140 0.453140
0.507010 0.507010 0.507010
0.552435 0.552435 0.552435
0.591094 0.591094 0.591094
0.629876 0.629876 0.629876
0.668765 0.668765 0.668765
0.707749 0.707749 0.707749
0.746812 0.746812 0.746812
0.505000 0.505000 0.505000
0.551016 0.551016 0.551016
0.589670 0.589670 0.589670
0.628447 0.628447 0.628447
0.667333 0.667333 0.667333
0.706313 0.706313 0.706313
0.745373 0.745373 0.745373
0.784498 0.784498 0.784498
0.823673 0.823673 0.823673
0.588245 0.588245 0.588245
0.627018 0.627018 0.627018
0.665901 0.665901 0.665901
0.704878 0.704878 0.704878
0.743935 0.743935 0.743935
0.783058 0.783058 0.783058
0.822231 0.822231 0.822231
0.861440 0.861440 0.861440
0.900669 0.900669 0.900669
0.664468 0.664468 0.664468
0.703442 0.703442 0.703442
0.742497 0.742497 0.742497
0.781618 0.781618 0.781618
0.820790 0.820790 0.820790
0.859997 0.859997 0.859997
0.899226 0.899226 0.899226
0.938459 0.938459 0.938459
0.977682 0.977682 0.977682
0.000000 0.000000 0.000000
0.023667 0.023667 0.023667
0.062509 0.062509 0.062509
0.102903 0.102903 0.102903
0.144867 0.144867 0.144867
0.188416 0.188416 0.188416
0.233560 0.233560 0.233560
0.280309 0.280309 0.280309
0.328668 0.328668 0.328668
0.061052 0.061052 0.061052
0.101389 0.101389 0.101389
0.143295 0.143295 0.143295
0.186786 0.186786 0.186786
0.231871 0.231871 0.231871
0.278561 0.278561 0.278561
0.326860 0.326860 0.326860
0.376771 0.376771 0.376771
0.428289 0.428289 0.428289
0.141726 0.141726 0.141726
0.185157 0.185157 0.185157
0.230184 0.230184 0.230184
0.276815 0.276815 0.276815
0.325055 0.325055 0.325055
0.374906 0.374906 0.374906
0.426365 0.426365 0.426365
0.479426 0.479426 0.479426
0.532834 0.532834 0.532834
0.228499 0.228499 0.228499
0.275071 0.275071 0.275071
0.323252 0.323252 0.323252
0.373044 0.373044 0.373044
0.424444 0.424444 0.424444
0.477445 0.477445 0.477445
0.531417 0.531417 0.531417
0.570003 0.570003 0.570003
0.608720 0.608720 0.608720
0.321451 0.321451 0.321451
0.371183 0.371183 0.371183
0.422524 0.422524 0.422524
0.475467 0.475467 0.475467
0.530000 0.530000 0.530000
0.568581 0.568581 0.568581
0.607293 0.607293 0.607293
0.646122 0.646122 0.646122
0.685052 0.685052 0.685052
0.420607 0.420607 0.420607
0.473491 0.473491 0.473491
0.527966 0.527966 0.527966
0.567159 0.567159 0.567159
0.605867 0.605867 0.605867
0.644691 0.644691 0.644691
0.683619 0.683619 0.683619
0.722634 0.722634 0.722634
0.761723 0.761723 0.761723
0.525934 0.525934 0.525934
0.565738 0.565738 0.565738
0.604441 0.604441 0.604441
0.643261 0.643261 0.643261
0.682185 0.682185 0.682185
0.721197 0.721197 0.721197
0.760284 0.760284 0.760284
0.799430 0.799430 0.799430
0.838620 0.838620 0.838620
0.603015 0.603015 0.603015
0.641831 0.641831 0.641831
0.680751 0.680751 0.680751
0.719761 0.719761 0.719761
0.758845 0.758845 0.758845
0.797989 0.797989 0.797989
0.837177 0.837177 0.837177
0.876396 0.876396 0.876396
0.915628 0.915628 0.915628
0.679318 0.679318 0.679318
0.718324 0.718324 0.718324
0.757406 0.757406 0.757406
0.796548 0.796548 0.796548
0.835735 0.835735 0.835735
0.874952 0.874952 0.874952
0.914184 0.914184 0.914184
0.953416 0.953416 0.953416
0.992630 0.992630 0.992630
0.000404 0.000404 0.000404
0.038294 0.038294 0.038294
0.077726 0.077726 0.077726
0.118717 0.118717 0.118717
0.161284 0.161284 0.161284
0.205439 0.205439 0.205439
0.251195 0.251195 0.251195
0.298557 0.298557 0.298557
0.347530 0.347530 0.347530
0.076247 0.076247 0.076247
0.117181 0.117181 0.117181
0.159689 0.159689 0.159689
0.203787 0.203787 0.203787
0.249483 0.249483 0.249483
0.296786 0.296786 0.296786
0.345700 0.345700 0.345700
0.396224 0.396224 0.396224
0.448354 0.448354 0.448354
0.158098 0.158098 0.158098
0.202136 0.202136 0.202136
0.247773 0.247773 0.247773
0.295017 0.295017 0.295017
0.343872 0.343872 0.343872
0.394337 0.394337 0.394337
0.446408 0.446408 0.446408
0.500075 0.500075 0.500075
0.547532 0.547532 0.547532
0.246066 0.246066 0.246066
0.293251 0.293251 0.293251
0.342046 0.342046 0.342046
0.392452 0.392452 0.392452
0.444463 0.444463 0.444463
0.498073 0.498073 0.498073
0.546112 0.546112 0.546112
0.584750 0.584750 0.584750
0.623512 0.623512 0.623512
0.340222 0.340222 0.340222
0.390569 0.390569 0.390569
0.442522 0.442522 0.442522
0.496072 0.496072 0.496072
0.544694 0.544694 0.544694
0.583326 0.583326 0.583326
0.622084 0.622084 0.622084
0.660954 0.660954 0.660954
0.699919 0.699919 0.699919
0.440582 0.440582 0.440582
0.494074 0.494074 0.494074
0.543275 0.543275 0.543275
0.581903 0.581903 0.581903
0.620656 0.620656 0.620656
0.659522 0.659522 0.659522
0.698484 0.698484 0.698484
0.737530 0.737530 0.737530
0.776643 0.776643 0.776643
0.541856 0.541856 0.541856
0.580479 0.580479 0.580479
0.619229 0.619229 0.619229
0.658090 0.658090 0.658090
0.697049 0.697049 0.697049
0.736092 0.736092 0.736092
0.775203 0.775203 0.775203
0.814367 0.814367 0.814367
0.853570 0.853570 0.853570
0.617801 0.617801 0.617801
0.656659 0.656659 0.656659
0.695615 0.695615 0.695615
0.734654 0.734654 0.734654
0.773763 0.773763 0.773763
0.812926 0.812926 0.812926
0.852127 0.852127 0.852127
0.891353 0.891353 0.891353
0.930587 0.930587 0.930587
0.694180 0.694180 0.694180
0.733217 0.733217 0.733217
0.772323 0.772323 0.772323
0.811484 0.811484 0.811484
0.850685 0.850685 0.850685
0.889910 0.889910 0.889910
0.929143 0.929143 0.929143
0.968370 0.968370 0.968370
1.000000 1.000000 1.000000
0.014670 0.014670 0.014670
0.053145 0.053145 0.053145
0.093169 0.093169 0.093169
0.134760 0.134760 0.134760
0.177931 0.177931 0.177931
0.222695 0.222695 0.222695
0.269063 0.269063 0.269063
0.317039 0.317039 0.317039
0.366626 0.366626 0.366626
0.091669 0.091669 0.091669
0.133202 0.133202 0.133202
0.176314 0.176314 0.176314
0.221020 0.221020 0.221020
0.267329 0.267329 0.267329
0.315245 0.315245 0.315245
0.364773 0.364773 0.364773
0.415910 0.415910 0.415910
0.468650 0.468650 0.468650
0.174700 0.174700 0.174700
0.219347 0.219347 0.219347
0.265596 0.265596 0.265596
0.313454 0.313454 0.313454
0.362923 0.362923 0.362923
0.414001 0.414001 0.414001
0.466682 0.466682 0.466682
0.520955 0.520955 0.520955
0.562249 0.562249 0.562249
0.263866 0.263866 0.263866
0.311665 0.311665 0.311665
0.361074 0.361074 0.361074
0.412093 0.412093 0.412093
0.464715 0.464715 0.464715
0.518930 0.518930 0.518930
0.560828 0.560828 0.560828
0.599515 0.599515 0.599515
0.638321 0.638321 0.638321
0.359228 0.359228 0.359228
0.410188 0.410188 0.410188
0.462751 0.462751 0.462751
0.516908 0.516908 0.516908
0.559407 0.559407 0.559407
0.598090 0.598090 0.598090
0.636892 0.636892 0.636892
0.675799 0.675799 0.675799
0.714798 0.714798 0.714798
0.460789 0.460789 0.460789
0.514887 0.514887 0.514887
0.557987 0.557987 0.557987
0.596664 0.596664 0.596664
0.635462 0.635462 0.635462
0.674366 0.674366 0.674366
0.713362 0.713362 0.713362
0.752435 0.752435 0.752435
0.791570 0.791570 0.791570
0.556566 0.556566 0.556566
0.595239 0.595239 0.595239
0.634033 0.634033 0.634033
0.672933 0.672933 0.672933
0.711926 0.711926 0.711926
0.750996 0.750996 0.750996
0.790130 0.790130 0.790130
0.829310 0.829310 0.829310
0.868524 0.868524 0.868524
0.632604 0.632604 0.632604
0.671501 0.671501 0.671501
0.710490 0.710490 0.710490
0.749558 0.749558 0.749558
0.788689 0.788689 0.788689
0.827868 0.827868 0.827868
0.867081 0.867081 0.867081
0.906311 0.906311 0.906311
0.945544 0.945544 0.945544
0.709054 0.709054 0.709054
0.748119 0.748119 0.748119
0.787248 0.787248 0.787248
0.826426 0.826426 0.826426
0.865638 0.865638 0.865638
0.904868 0.904868 0.904868
0.944101 0.944101 0.944101
0.983321 0.983321 0.983321
1.000000 1.000000 1.000000
0.029158 0.029158 0.029158
0.068222 0.068222 0.068222
0.108841 0.108841 0.108841
0.151032 0.151032 0.151032
0.194810 0.194810 0.194810
0.240185 0.240185 0.240185
0.287165 0.287165 0.287165
0.335755 0.335755 0.335755
0.385956 0.385956 0.385956
0.107319 0.107319 0.107319
0.149452 0.149452 0.149452
0.193171 0.193171 0.193171
0.238487 0.238487 0.238487
0.285408 0.285408 0.285408
0.333939 0.333939 0.333939
0.384081 0.384081 0.384081
0.435830 0.435830 0.435830
0.489178 0.489178 0.489178
0.191534 0.191534 0.191534
0.236791 0.236791 0.236791
0.283653 0.283653 0.283653
0.332125 0.332125 0.332125
0.382208 0.382208 0.382208
0.433898 0.433898 0.433898
0.487188 0.487188 0.487188
0.538375 0.538375 0.538375
0.576986 0.576986 0.576986
0.281901 0.281901 0.281901
0.330313 0.330313 0.330313
0.380337 0.380337 0.380337
0.431968 0.431968 0.431968
0.485199 0.485199 0.485199
0.536958 0.536958 0.536958
0.575563 0.575563 0.575563
0.614297 0.614297 0.614297
0.653145 0.653145 0.653145
0.378468 0.378468 0.378468
0.430040 0.430040 0.430040
0.483212 0.483212 0.483212
0.535540 0.535540 0.535540
0.574141 0.574141 0.574141
0.612870 0.612870 0.612870
0.651714 0.651714 0.651714
0.690659 0.690659 0.690659
0.729689 0.729689 0.729689
0.481228 0.481228 0.481228
0.534122 0.534122 0.534122
0.572718 0.572718 0.572718
0.611443 0.611443 0.611443
0.650284 0.650284 0.650284
0.689224 0.689224 0.689224
0.728251 0.728251 0.728251
0.767350 0.767350 0.767350
0.806505 0.806505 0.806505
0.571296 0.571296 0.571296
0.610017 0.610017 0.610017
0.648853 0.648853 0.648853
0.687790 0.687790 0.687790
0.726814 0.726814 0.726814
0.765910 0.765910 0.765910
0.805063 0.805063 0.805063
0.844258 0.844258 0.844258
0.883480 0.883480 0.883480
0.647422 0.647422 0.647422
0.686356 0.686356 0.686356
0.725377 0.725377 0.725377
0.764471 0.764471 0.764471
0.803622 0.803622 0.803622
0.842816 0.842816 0.842816
0.882037 0.882037 0.882037
0.921270 0.921270 0.921270
0.960500 0.960500 0.960500
0.723940 0.723940 0.723940
0.763031 0.763031 0.763031
0.802181 0.802181 0.802181
0.841373 0.841373 0.841373
0.880594 0.880594 0.880594
0.919827 0.919827 0.919827
0.959057 0.959057 0.959057
0.998268 0.998268 0.998268
1.000000 1.000000 1.000000
0.043870 0.043870 0.043870
0.083524 0.083524 0.083524
0.124741 0.124741 0.124741
0.167536 0.167536 0.167536
0.211921 0.211921 0.211921
0.257907 0.257907 0.257907
0.305501 0.305501 0.305501
0.354705 0.354705 0.354705
0.405520 0.405520 0.405520
0.123197 0.123197 0.123197
0.165933 0.165933 0.165933
0.210260 0.210260 0.210260
0.256187 0.256187 0.256187
0.303721 0.303721 0.303721
0.352867 0.352867 0.352867
0.403622 0.403622 0.403622
0.455982 0.455982 0.455982
0.509937 0.509937 0.509937
0.208601 0.208601 0.208601
0.254469 0.254469 0.254469
0.301944 0.301944 0.301944
0.351030 0.351030 0.351030
0.401726 0.401726 0.401726
0.454028 0.454028 0.454028
0.507924 0.507924 0.507924
0.553081 0.553081 0.553081
0.591742 0.591742 0.591742
0.300169 0.300169 0.300169
0.349196 0.349196 0.349196
0.399833 0.399833 0.399833
0.452075 0.452075 0.452075
0.505913 0.505913 0.505913
0.551661 0.551661 0.551661
0.590317 0.590317 0.590317
0.629096 0.629096 0.629096
0.667984 0.667984 0.667984
0.397941 0.397941 0.397941
0.450125 0.450125 0.450125
0.503904 0.503904 0.503904
0.550241 0.550241 0.550241
0.588893 0.588893 0.588893
0.627668 0.627668 0.627668
0.666552 0.666552 0.666552
0.705530 0.705530 0.705530
0.744589 0.744589 0.744589
0.501898 0.501898 0.501898
0.548822 0.548822 0.548822
0.587469 0.587469 0.587469
0.626239 0.626239 0.626239
0.665119 0.665119 0.665119
0.704095 0.704095 0.704095
0.743151 0.743151 0.743151
0.782272 0.782272 0.782272
0.821445 0.821445 0.821445
0.586045 0.586045 0.586045
0.624811 0.624811 0.624811
0.663687 0.663687 0.663687
0.702659 0.702659 0.702659
0.741713 0.741713 0.741713
0.780832 0.780832 0.780832
0.820003 0.820003 0.820003
0.859210 0.859210 0.859210
0.898438 0.898438 0.898438
0.662255 0.662255 0.662255
0.701224 0.701224 0.701224
0.740275 0.740275 0.740275
0.779392 0.779392 0.779392
0.818561 0.818561 0.818561
0.857767 0.857767 0.857767
0.896995 0.896995 0.896995
0.936229 0.936229 0.936229
0.975452 0.975452 0.975452
0.738837 0.738837 0.738837
0.777952 0.777952 0.777952
0.817120 0.817120 0.817120
0.856325 0.856325 0.856325
0.895552 0.895552 0.895552
0.934785 0.934785 0.934785
0.974010 0.974010 0.974010
1.000000 1.000000 1.000000
1.000000 1.000000 1.000000
