flutter_app/assets/lut/cameras/bw_hp5.cube
TITLE "BW Classic"
LUT_3D_SIZE 33
0.000000 0.000000 0.000000
0.000000 0.000000 0.000000
0.000000 0.000000 0.000000
0.000000 0.000000 0.000000
0.000000 0.000000 0.000000
0.000000 0.000000 0.000000
0.000000 0.000000 0.000000
0.000000 0.000000 0.000000
0.003887 0.003887 0.003887
0.013252 0.013252 0.013252
0.022713 0.022713 0.022713
0.032269 0.032269 0.032269
0.041921 0.041921 0.041921
0.051670 0.051670 0.051670
0.061515 0.061515 0.061515
0.071458 0.071458 0.071458
0.081498 0.081498 0.081498
0.091635 0.091635 0.091635
0.101871 0.101871 0.101871
0.112204 0.112204 0.112204
0.122636 0.122636 0.122636
0.133166 0.133166 0.133166
0.143795 0.143795 0.143795
0.154524 0.154524 0.154524
0.165351 0.165351 0.165351
0.176278 0.176278 0.176278
0.187304 0.187304 0.187304
0.198430 0.198430 0.198430
0.209656 0.209656 0.209656
0.220982 0.220982 0.220982
0.232408 0.232408 0.232408
0.243935 0.243935 0.243935
0.255562 0.255562 0.255562
0.000000 0.000000 0.000000
0.000000 0.000000 0.000000
0.000000 0.000000 0.000000
0.000000 0.000000 0.000000
0.000000 0.000000 0.000000
0.000000 0.000000 0.000000
0.003545 0.003545 0.003545
0.012906 0.012906 0.012906
0.022363 0.022363 0.022363
0.031915 0.031915 0.031915
0.041564 0.041564 0.041564
0.051309 0.051309 0.051309
0.061151 0.061151 0.061151
0.071090 0.071090 0.071090
0.081127 0.081127 0.081127
0.091261 0.091261 0.091261
0.101492 0.101492 0.101492
0.111822 0.111822 0.111822
0.122250 0.122250 0.122250
0.132777 0.132777 0.132777
0.143403 0.143403 0.143403
0.154127 0.154127 0.154127
0.164951 0.164951 0.164951
0.175874 0.175874 0.175874
0.186897 0.186897 0.186897
0.198019 0.198019 0.198019
0.209241 0.209241 0.209241
0.220564 0.220564 0.220564
0.231986 0.231986 0.231986
0.243509 0.243509 0.243509
0.255132 0.255132 0.255132
0.266856 0.266856 0.266856
0.278680 0.278680 0.278680
0.000000 0.000000 0.000000
0.000000 0.000000 0.000000
0.000000 0.000000 0.000000
0.000000 0.000000 0.000000
0.003202 0.003202 0.003202
0.012560 0.012560 0.012560
0.022013 0.022013 0.022013
0.031562 0.031562 0.031562
0.041208 0.041208 0.041208
0.050949 0.050949 0.050949
0.060788 0.060788 0.060788
0.070723 0.070723 0.070723
0.080756 0.080756 0.080756
0.090886 0.090886 0.090886
0.101114 0.101114 0.101114
0.111440 0.111440 0.111440
0.121865 0.121865 0.121865
0.132388 0.132388 0.132388
0.143010 0.143010 0.143010
0.153731 0.153731 0.153731
0.164551 0.164551 0.164551
0.175470 0.175470 0.175470
0.186489 0.186489 0.186489
0.197608 0.197608 0.197608
0.208827 0.208827 0.208827
0.220145 0.220145 0.220145
0.231564 0.231564 0.231564
0.243083 0.243083 0.243083
0.254703 0.254703 0.254703
0.266423 0.266423 0.266423
0.278243 0.278243 0.278243
0.290165 0.290165 0.290165
0.302186 0.302186 0.302186
0.000000 0.000000 0.000000
0.000000 0.000000 0.000000
0.002860 0.002860 0.002860
0.012214 0.012214 0.012214
0.021664 0.021664 0.021664
0.031209 0.031209 0.031209
0.040851 0.040851 0.040851
0.050589 0.050589 0.050589
0.060424 0.060424 0.060424
0.070356 0.070356 0.070356
0.080385 0.080385 0.080385
0.090512 0.090512 0.090512
0.100736 0.100736 0.100736
0.111059 0.111059 0.111059
0.121480 0.121480 0.121480
0.131999 0.131999 0.131999
0.142617 0.142617 0.142617
0.153335 0.153335 0.153335
0.164151 0.164151 0.164151
0.175067 0.175067 0.175067
0.186082 0.186082 0.186082
0.197197 0.197197 0.197197
0.208412 0.208412 0.208412
0.219727 0.219727 0.219727
0.231142 0.231142 0.231142
0.242658 0.242658 0.242658
0.254274 0.254274 0.254274
0.265990 0.265990 0.265990
0.277807 0.277807 0.277807
0.289724 0.289724 0.289724
0.301742 0.301742 0.301742
0.313861 0.313861 0.313861
0.326081 0.326081 0.326081
0.002517 0.002517 0.002517
0.011868 0.011868 0.011868
0.021314 0.021314 0.021314
0.030856 0.030856 0.030856
0.040495 0.040495 0.040495
0.050229 0.050229 0.050229
0.060060 0.060060 0.060060
0.069989 0.069989 0.069989
0.080014 0.080014 0.080014
0.090137 0.090137 0.090137
0.100358 0.100358 0.100358
0.110677 0.110677 0.110677
0.121095 0.121095 0.121095
0.131610 0.131610 0.131610
0.142225 0.142225 0.142225
0.152939 0.152939 0.152939
0.163751 0.163751 0.163751
0.174663 0.174663 0.174663
0.185675 0.185675 0.185675
0.196787 0.196787 0.196787
0.207998 0.207998 0.207998
0.219309 0.219309 0.219309
0.230721 0.230721 0.230721
0.242232 0.242232 0.242232
0.253845 0.253845 0.253845
0.265557 0.265557 0.265557
0.277370 0.277370 0.277370
0.289284 0.289284 0.289284
0.301298 0.301298 0.301298
0.313413 0.313413 0.313413
0.325629 0.325629 0.325629
0.337946 0.337946 0.337946
0.350363 0.350363 0.350363
0.020965 0.020965 0.020965
0.030504 0.030504 0.030504
0.040138 0.040138 0.040138
0.049869 0.049869 0.049869
0.059697 0.059697 0.059697
0.069622 0.069622 0.069622
0.079644 0.079644 0.079644
0.089763 0.089763 0.089763
0.099981 0.099981 0.099981
0.110296 0.110296 0.110296
0.120710 0.120710 0.120710
0.131222 0.131222 0.131222
0.141833 0.141833 0.141833
0.152543 0.152543 0.152543
0.163352 0.163352 0.163352
0.174260 0.174260 0.174260
0.185268 0.185268 0.185268
0.196376 0.196376 0.196376
0.207584 0.207584 0.207584
0.218891 0.218891 0.218891
0.230299 0.230299 0.230299
0.241807 0.241807 0.241807
0.253416 0.253416 0.253416
0.265124 0.265124 0.265124
0.276934 0.276934 0.276934
0.288844 0.288844 0.288844
0.300855 0.300855 0.300855
0.312966 0.312966 0.312966
0.325178 0.325178 0.325178
0.337491 0.337491 0.337491
0.349904 0.349904 0.349904
0.362418 0.362418 0.362418
0.375033 0.375033 0.375033
0.039782 0.039782 0.039782
0.049510 0.049510 0.049510
0.059334 0.059334 0.059334
0.069255 0.069255 0.069255
0.079273 0.079273 0.079273
0.089389 0.089389 0.089389
0.099603 0.099603 0.099603
0.109915 0.109915 0.109915
0.120325 0.120325 0.120325
0.130833 0.130833 0.130833
0.141441 0.141441 0.141441
0.152147 0.152147 0.152147
0.162952 0.162952 0.162952
0.173857 0.173857 0.173857
0.184862 0.184862 0.184862
0.195966 0.195966 0.195966
0.207170 0.207170 0.207170
0.218474 0.218474 0.218474
0.229878 0.229878 0.229878
0.241382 0.241382 0.241382
0.252987 0.252987 0.252987
0.264692 0.264692 0.264692
0.276498 0.276498 0.276498
0.288404 0.288404 0.288404
0.300411 0.300411 0.300411
0.312519 0.312519 0.312519
0.324727 0.324727 0.324727
0.337036 0.337036 0.337036
0.349446 0.349446 0.349446
0.361956 0.361956 0.361956
0.374567 0.374567 0.374567
0.387279 0.387279 0.387279
0.400091 0.400091 0.400091
0.058971 0.058971 0.058971
0.068888 0.068888 0.068888
0.078903 0.078903 0.078903
0.089015 0.089015 0.089015
0.099225 0.099225 0.099225
0.109534 0.109534 0.109534
0.119940 0.119940 0.119940
0.130445 0.130445 0.130445
0.141049 0.141049 0.141049
0.151751 0.151751 0.151751
0.162553 0.162553 0.162553
0.173454 0.173454 0.173454
0.184455 0.184455 0.184455
0.195555 0.195555 0.195555
0.206756 0.206756 0.206756
0.218056 0.218056 0.218056
0.229456 0.229456 0.229456
0.240957 0.240957 0.240957
0.252558 0.252558 0.252558
0.264259 0.264259 0.264259
0.276061 0.276061 0.276061
0.287964 0.287964 0.287964
0.299967 0.299967 0.299967
0.312071 0.312071 0.312071
0.324276 0.324276 0.324276
0.336581 0.336581 0.336581
0.348987 0.348987 0.348987
0.361494 0.361494 0.361494
0.374102 0.374102 0.374102
0.386809 0.386809 0.386809
0.399618 0.399618 0.399618
0.412526 0.412526 0.412526
0.425535 0.425535 0.425535
0.078533 0.078533 0.078533
0.088642 0.088642 0.088642
0.098848 0.098848 0.098848
0.109153 0.109153 0.109153
0.119555 0.119555 0.119555
0.130057 0.130057 0.130057
0.140657 0.140657 0.140657
0.151356 0.151356 0.151356
0.162154 0.162154 0.162154
0.173051 0.173051 0.173051
0.184048 0.184048 0.184048
0.195145 0.195145 0.195145
0.206342 0.206342 0.206342
0.217638 0.217638 0.217638
0.229035 0.229035 0.229035
0.240532 0.240532 0.240532
0.252129 0.252129 0.252129
0.263827 0.263827 0.263827
0.275626 0.275626 0.275626
0.287524 0.287524 0.287524
0.299524 0.299524 0.299524
0.311624 0.311624 0.311624
0.323825 0.323825 0.323825
0.336127 0.336127 0.336127
0.348529 0.348529 0.348529
0.361032 0.361032 0.361032
0.373636 0.373636 0.373636
0.386340 0.386340 0.386340
0.399145 0.399145 0.399145
0.412050 0.412050 0.412050
0.425055 0.425055 0.425055
0.438160 0.438160 0.438160
0.451366 0.451366 0.451366
0.098471 0.098471 0.098471
0.108772 0.108772 0.108772
0.119171 0.119171 0.119171
0.129669 0.129669 0.129669
0.140265 0.140265 0.140265
0.150960 0.150960 0.150960
0.161755 0.161755 0.161755
0.172649 0.172649 0.172649
0.183642 0.183642 0.183642
0.194735 0.194735 0.194735
0.205928 0.205928 0.205928
0.217221 0.217221 0.217221
0.228614 0.228614 0.228614
0.240107 0.240107 0.240107
0.251701 0.251701 0.251701
0.263395 0.263395 0.263395
0.275190 0.275190 0.275190
0.287085 0.287085 0.287085
0.299081 0.299081 0.299081
0.311177 0.311177 0.311177
0.323375 0.323375 0.323375
0.335673 0.335673 0.335673
0.348071 0.348071 0.348071
0.360571 0.360571 0.360571
0.373170 0.373170 0.373170
0.385871 0.385871 0.385871
0.398672 0.398672 0.398672
0.411573 0.411573 0.411573
0.424575 0.424575 0.424575
0.437676 0.437676 0.437676
0.450878 0.450878 0.450878
0.464179 0.464179 0.464179
0.477580 0.477580 0.477580
0.118787 0.118787 0.118787
0.129281 0.129281 0.129281
0.139873 0.139873 0.139873
0.150565 0.150565 0.150565
0.161356 0.161356 0.161356
0.172246 0.172246 0.172246
0.183236 0.183236 0.183236
0.194325 0.194325 0.194325
0.205515 0.205515 0.205515
0.216804 0.216804 0.216804
0.228193 0.228193 0.228193
0.239683 0.239683 0.239683
0.251273 0.251273 0.251273
0.262963 0.262963 0.262963
0.274754 0.274754 0.274754
0.286646 0.286646 0.286646
0.298638 0.298638 0.298638
0.310731 0.310731 0.310731
0.322924 0.322924 0.322924
0.335218 0.335218 0.335218
0.347613 0.347613 0.347613
0.360109 0.360109 0.360109
0.372705 0.372705 0.372705
0.385402 0.385402 0.385402
0.398199 0.398199 0.398199
0.411097 0.411097 0.411097
0.424095 0.424095 0.424095
0.437193 0.437193 0.437193
0.450391 0.450391 0.450391
0.463688 0.463688 0.463688
0.477086 0.477086 0.477086
0.490582 0.490582 0.490582
0.504178 0.504178 0.504178
0.139482 0.139482 0.139482
0.150170 0.150170 0.150170
0.160957 0.160957 0.160957
0.171844 0.171844 0.171844
0.182830 0.182830 0.182830
0.193916 0.193916 0.193916
0.205101 0.205101 0.205101
0.216387 0.216387 0.216387
0.227772 0.227772 0.227772
0.239258 0.239258 0.239258
0.250844 0.250844 0.250844
0.262531 0.262531 0.262531
0.274318 0.274318 0.274318
0.286206 0.286206 0.286206
0.298195 0.298195 0.298195
0.310284 0.310284 0.310284
0.322474 0.322474 0.322474
0.334764 0.334764 0.334764
0.347156 0.347156 0.347156
0.359647 0.359647 0.359647
0.372240 0.372240 0.372240
0.384933 0.384933 0.384933
0.397727 0.397727 0.397727
0.410621 0.410621 0.410621
0.423615 0.423615 0.423615
0.436709 0.436709 0.436709
0.449903 0.449903 0.449903
0.463197 0.463197 0.463197
0.476591 0.476591 0.476591
0.490084 0.490084 0.490084
0.503676 0.503676 0.503676
0.517367 0.517367 0.517367
0.530805 0.530805 0.530805
0.160559 0.160559 0.160559
0.171442 0.171442 0.171442
0.182424 0.182424 0.182424
0.193506 0.193506 0.193506
0.204688 0.204688 0.204688
0.215970 0.215970 0.215970
0.227352 0.227352 0.227352
0.238834 0.238834 0.238834
0.250416 0.250416 0.250416
0.262099 0.262099 0.262099
0.273883 0.273883 0.273883
0.285767 0.285767 0.285767
0.297752 0.297752 0.297752
0.309837 0.309837 0.309837
0.322023 0.322023 0.322023
0.334310 0.334310 0.334310
0.346698 0.346698 0.346698
0.359186 0.359186 0.359186
0.371775 0.371775 0.371775
0.384464 0.384464 0.384464
0.397254 0.397254 0.397254
0.410144 0.410144 0.410144
0.423135 0.423135 0.423135
0.436226 0.436226 0.436226
0.449416 0.449416 0.449416
0.462707 0.462707 0.462707
0.476097 0.476097 0.476097
0.489586 0.489586 0.489586
0.503174 0.503174 0.503174
0.516862 0.516862 0.516862
0.530451 0.530451 0.530451
0.540084 0.540084 0.540084
0.549725 0.549725 0.549725
0.182018 0.182018 0.182018
0.193096 0.193096 0.193096
0.204275 0.204275 0.204275
0.215553 0.215553 0.215553
0.226931 0.226931 0.226931
0.238410 0.238410 0.238410
0.249989 0.249989 0.249989
0.261668 0.261668 0.261668
0.273448 0.273448 0.273448
0.285328 0.285328 0.285328
0.297309 0.297309 0.297309
0.309391 0.309391 0.309391
0.321573 0.321573 0.321573
0.333857 0.333857 0.333857
0.346240 0.346240 0.346240
0.358725 0.358725 0.358725
0.371310 0.371310 0.371310
0.383996 0.383996 0.383996
0.396782 0.396782 0.396782
0.409668 0.409668 0.409668
0.422655 0.422655 0.422655
0.435742 0.435742 0.435742
0.448929 0.448929 0.448929
0.462216 0.462216 0.462216
0.475602 0.475602 0.475602
0.489088 0.489088 0.489088
0.502673 0.502673 0.502673
0.516356 0.516356 0.516356
0.530097 0.530097 0.530097
0.539729 0.539729 0.539729
0.549370 0.549370 0.549370
0.559020 0.559020 0.559020
0.568678 0.568678 0.568678
0.203862 0.203862 0.203862
0.215136 0.215136 0.215136
0.226511 0.226511 0.226511
0.237986 0.237986 0.237986
0.249561 0.249561 0.249561
0.261236 0.261236 0.261236
0.273013 0.273013 0.273013
0.284889 0.284889 0.284889
0.296867 0.296867 0.296867
0.308945 0.308945 0.308945
0.321123 0.321123 0.321123
0.333403 0.333403 0.333403
0.345783 0.345783 0.345783
0.358264 0.358264 0.358264
0.370845 0.370845 0.370845
0.383527 0.383527 0.383527
0.396310 0.396310 0.396310
0.409193 0.409193 0.409193
0.422176 0.422176 0.422176
0.435259 0.435259 0.435259
0.448442 0.448442 0.448442
0.461725 0.461725 0.461725
0.475108 0.475108 0.475108
0.488590 0.488590 0.488590
0.502171 0.502171 0.502171
0.515851 0.515851 0.515851
0.529630 0.529630 0.529630
0.539374 0.539374 0.539374
0.549015 0.549015 0.549015
0.558665 0.558665 0.558665
0.568323 0.568323 0.568323
0.577989 0.577989 0.577989
0.587663 0.587663 0.587663
0.226091 0.226091 0.226091
0.237562 0.237562 0.237562
0.249133 0.249133 0.249133
0.260805 0.260805 0.260805
0.272578 0.272578 0.272578
0.284451 0.284451 0.284451
0.296424 0.296424 0.296424
0.308499 0.308499 0.308499
0.320674 0.320674 0.320674
0.332949 0.332949 0.332949
0.345326 0.345326 0.345326
0.357803 0.357803 0.357803
0.370381 0.370381 0.370381
0.383059 0.383059 0.383059
0.395838 0.395838 0.395838
0.408717 0.408717 0.408717
0.421696 0.421696 0.421696
0.434776 0.434776 0.434776
0.447955 0.447955 0.447955
0.461235 0.461235 0.461235
0.474614 0.474614 0.474614
0.488092 0.488092 0.488092
0.501670 0.501670 0.501670
0.515346 0.515346 0.515346
0.529121 0.529121 0.529121
0.539020 0.539020 0.539020
0.548660 0.548660 0.548660
0.558310 0.558310 0.558310
0.567967 0.567967 0.567967
0.577633 0.577633 0.577633
0.587307 0.587307 0.587307
0.596988 0.596988 0.596988
0.606677 0.606677 0.606677
0.248706 0.248706 0.248706
0.260374 0.260374 0.260374
0.272143 0.272143 0.272143
0.284012 0.284012 0.284012
0.295982 0.295982 0.295982
0.308053 0.308053 0.308053
0.320224 0.320224 0.320224
0.332496 0.332496 0.332496
0.344869 0.344869 0.344869
0.357342 0.357342 0.357342
0.369916 0.369916 0.369916
0.382591 0.382591 0.382591
0.395366 0.395366 0.395366
0.408241 0.408241 0.408241
0.421217 0.421217 0.421217
0.434293 0.434293 0.434293
0.447469 0.447469 0.447469
0.460745 0.460745 0.460745
0.474120 0.474120 0.474120
0.487595 0.487595 0.487595
0.501169 0.501169 0.501169
0.514841 0.514841 0.514841
0.528613 0.528613 0.528613
0.538665 0.538665 0.538665
0.548306 0.548306 0.548306
0.557955 0.557955 0.557955
0.567612 0.567612 0.567612
0.577277 0.577277 0.577277
0.586951 0.586951 0.586951
0.596632 0.596632 0.596632
0.606321 0.606321 0.606321
0.616017 0.616017 0.616017
0.625720 0.625720 0.625720
0.271708 0.271708 0.271708
0.283574 0.283574 0.283574
0.295540 0.295540 0.295540
0.307607 0.307607 0.307607
0.319774 0.319774 0.319774
0.332043 0.332043 0.332043
0.344412 0.344412 0.344412
0.356881 0.356881 0.356881
0.369452 0.369452 0.369452
0.382123 0.382123 0.382123
0.394894 0.394894 0.394894
0.407766 0.407766 0.407766
0.420738 0.420738 0.420738
0.433810 0.433810 0.433810
0.446982 0.446982 0.446982
0.460254 0.460254 0.460254
0.473626 0.473626 0.473626
0.487097 0.487097 0.487097
0.500667 0.500667 0.500667
0.514337 0.514337 0.514337
0.528104 0.528104 0.528104
0.538311 0.538311 0.538311
0.547951 0.547951 0.547951
0.557599 0.557599 0.557599
0.567256 0.567256 0.567256
0.576922 0.576922 0.576922
0.586595 0.586595 0.586595
0.596276 0.596276 0.596276
0.605964 0.605964 0.605964
0.615660 0.615660 0.615660
0.625363 0.625363 0.625363
0.635072 0.635072 0.635072
0.644789 0.644789 0.644789
0.295098 0.295098 0.295098
0.307161 0.307161 0.307161
0.319325 0.319325 0.319325
0.331590 0.331590 0.331590
0.343955 0.343955 0.343955
0.356421 0.356421 0.356421
0.368987 0.368987 0.368987
0.381655 0.381655 0.381655
0.394422 0.394422 0.394422
0.407290 0.407290 0.407290
0.420259 0.420259 0.420259
0.433327 0.433327 0.433327
0.446496 0.446496 0.446496
0.459764 0.459764 0.459764
0.473132 0.473132 0.473132
0.486600 0.486600 0.486600
0.500166 0.500166 0.500166
0.513832 0.513832 0.513832
0.527596 0.527596 0.527596
0.537956 0.537956 0.537956
0.547596 0.547596 0.547596
0.557244 0.557244 0.557244
0.566901 0.566901 0.566901
0.576566 0.576566 0.576566
0.586239 0.586239 0.586239
0.595919 0.595919 0.595919
0.605608 0.605608 0.605608
0.615303 0.615303 0.615303
0.625006 0.625006 0.625006
0.634715 0.634715 0.634715
0.644431 0.644431 0.644431
0.654154 0.654154 0.654154
0.663883 0.663883 0.663883
0.318876 0.318876 0.318876
0.331137 0.331137 0.331137
0.343498 0.343498 0.343498
0.355960 0.355960 0.355960
0.368523 0.368523 0.368523
0.381187 0.381187 0.381187
0.393951 0.393951 0.393951
0.406815 0.406815 0.406815
0.419780 0.419780 0.419780
0.432845 0.432845 0.432845
0.446010 0.446010 0.446010
0.459274 0.459274 0.459274
0.472639 0.472639 0.472639
0.486103 0.486103 0.486103
0.499666 0.499666 0.499666
0.513327 0.513327 0.513327
0.527088 0.527088 0.527088
0.537602 0.537602 0.537602
0.547241 0.547241 0.547241
0.556889 0.556889 0.556889
0.566546 0.566546 0.566546
0.576210 0.576210 0.576210
0.585883 0.585883 0.585883
0.595563 0.595563 0.595563
0.605251 0.605251 0.605251
0.614946 0.614946 0.614946
0.624649 0.624649 0.624649
0.634358 0.634358 0.634358
0.644074 0.644074 0.644074
0.653796 0.653796 0.653796
0.663525 0.663525 0.663525
0.673259 0.673259 0.673259
0.682999 0.682999 0.682999
0.343042 0.343042 0.343042
0.355500 0.355500 0.355500
0.368059 0.368059 0.368059
0.380719 0.380719 0.380719
0.393479 0.393479 0.393479
0.406340 0.406340 0.406340
0.419301 0.419301 0.419301
0.432362 0.432362 0.432362
0.445524 0.445524 0.445524
0.458785 0.458785 0.458785
0.472145 0.472145 0.472145
0.485605 0.485605 0.485605
0.499165 0.499165 0.499165
0.512823 0.512823 0.512823
0.526580 0.526580 0.526580
0.537248 0.537248 0.537248
0.546886 0.546886 0.546886
0.556534 0.556534 0.556534
0.566190 0.566190 0.566190
0.575854 0.575854 0.575854
0.585527 0.585527 0.585527
0.595207 0.595207 0.595207
0.604894 0.604894 0.604894
0.614589 0.614589 0.614589
0.624291 0.624291 0.624291
0.634000 0.634000 0.634000
0.643716 0.643716 0.643716
0.653438 0.653438 0.653438
0.663167 0.663167 0.663167
0.672901 0.672901 0.672901
0.682641 0.682641 0.682641
0.692387 0.692387 0.692387
0.702137 0.702137 0.702137
0.367596 0.367596 0.367596
0.380252 0.380252 0.380252
0.393008 0.393008 0.393008
0.405865 0.405865 0.405865
0.418823 0.418823 0.418823
0.431880 0.431880 0.431880
0.445038 0.445038 0.445038
0.458295 0.458295 0.458295
0.471652 0.471652 0.471652
0.485109 0.485109 0.485109
0.498664 0.498664 0.498664
0.512319 0.512319 0.512319
0.526072 0.526072 0.526072
0.536893 0.536893 0.536893
0.546532 0.546532 0.546532
0.556179 0.556179 0.556179
0.565835 0.565835 0.565835
0.575499 0.575499 0.575499
0.585171 0.585171 0.585171
0.594851 0.594851 0.594851
0.604538 0.604538 0.604538
0.614233 0.614233 0.614233
0.623934 0.623934 0.623934
0.633643 0.633643 0.633643
0.643359 0.643359 0.643359
0.653080 0.653080 0.653080
0.662809 0.662809 0.662809
0.672543 0.672543 0.672543
0.682283 0.682283 0.682283
0.692028 0.692028 0.692028
0.701779 0.701779 0.701779
0.711535 0.711535 0.711535
0.721295 0.721295 0.721295
0.392537 0.392537 0.392537
0.405391 0.405391 0.405391
0.418344 0.418344 0.418344
0.431398 0.431398 0.431398
0.444552 0.444552 0.444552
0.457806 0.457806 0.457806
0.471159 0.471159 0.471159
0.484612 0.484612 0.484612
0.498164 0.498164 0.498164
0.511815 0.511815 0.511815
0.525564 0.525564 0.525564
0.536539 0.536539 0.536539
0.546177 0.546177 0.546177
0.555824 0.555824 0.555824
0.565479 0.565479 0.565479
0.575143 0.575143 0.575143
0.584815 0.584815 0.584815
0.594494 0.594494 0.594494
0.604181 0.604181 0.604181
0.613876 0.613876 0.613876
0.623577 0.623577 0.623577
0.633286 0.633286 0.633286
0.643001 0.643001 0.643001
0.652723 0.652723 0.652723
0.662451 0.662451 0.662451
0.672184 0.672184 0.672184
0.681924 0.681924 0.681924
0.691669 0.691669 0.691669
0.701420 0.701420 0.701420
0.711176 0.711176 0.711176
0.720936 0.720936 0.720936
0.730701 0.730701 0.730701
0.740471 0.740471 0.740471
0.417866 0.417866 0.417866
0.430916 0.430916 0.430916
0.444066 0.444066 0.444066
0.457316 0.457316 0.457316
0.470666 0.470666 0.470666
0.484115 0.484115 0.484115
0.497663 0.497663 0.497663
0.511311 0.511311 0.511311
0.525057 0.525057 0.525057
0.536184 0.536184 0.536184
0.545822 0.545822 0.545822
0.555469 0.555469 0.555469
0.565124 0.565124 0.565124
0.574787 0.574787 0.574787
0.584459 0.584459 0.584459
0.594138 0.594138 0.594138
0.603825 0.603825 0.603825
0.613519 0.613519 0.613519
0.623220 0.623220 0.623220
0.632929 0.632929 0.632929
0.642644 0.642644 0.642644
0.652365 0.652365 0.652365
0.662093 0.662093 0.662093
0.671826 0.671826 0.671826
0.681566 0.681566 0.681566
0.691311 0.691311 0.691311
0.701061 0.701061 0.701061
0.710817 0.710817 0.710817
0.720577 0.720577 0.720577
0.730342 0.730342 0.730342
0.740111 0.740111 0.740111
0.749885 0.749885 0.749885
0.759662 0.759662 0.759662
0.443581 0.443581 0.443581
0.456827 0.456827 0.456827
0.470173 0.470173 0.470173
0.483618 0.483618 0.483618
0.497163 0.497163 0.497163
0.510807 0.510807 0.510807
0.524549 0.524549 0.524549
0.535830 0.535830 0.535830
0.545468 0.545468 0.545468
0.555114 0.555114 0.555114
0.564769 0.564769 0.564769
0.574432 0.574432 0.574432
0.584103 0.584103 0.584103
0.593782 0.593782 0.593782
0.603468 0.603468 0.603468
0.613162 0.613162 0.613162
0.622863 0.622863 0.622863
0.632571 0.632571 0.632571
0.642286 0.642286 0.642286
0.652007 0.652007 0.652007
0.661735 0.661735 0.661735
0.671468 0.671468 0.671468
0.681207 0.681207 0.681207
0.690952 0.690952 0.690952
0.700702 0.700702 0.700702
0.710458 0.710458 0.710458
0.720218 0.720218 0.720218
0.729983 0.729983 0.729983
0.739752 0.739752 0.739752
0.749525 0.749525 0.749525
0.759303 0.759303 0.759303
0.769084 0.769084 0.769084
0.778868 0.778868 0.778868
0.469680 0.469680 0.469680
0.483122 0.483122 0.483122
0.496663 0.496663 0.496663
0.510303 0.510303 0.510303
0.524042 0.524042 0.524042
0.535475 0.535475 0.535475
0.545113 0.545113 0.545113
0.554759 0.554759 0.554759
0.564413 0.564413 0.564413
0.574076 0.574076 0.574076
0.583747 0.583747 0.583747
0.593426 0.593426 0.593426
0.603112 0.603112 0.603112
0.612805 0.612805 0.612805
0.622506 0.622506 0.622506
0.632214 0.632214 0.632214
0.641928 0.641928 0.641928
0.651649 0.651649 0.651649
0.661377 0.661377 0.661377
0.671110 0.671110 0.671110
0.680849 0.680849 0.680849
0.690593 0.690593 0.690593
0.700343 0.700343 0.700343
0.710099 0.710099 0.710099
0.719859 0.719859 0.719859
0.729623 0.729623 0.729623
0.739392 0.739392 0.739392
0.749166 0.749166 0.749166
0.758943 0.758943 0.758943
0.768724 0.768724 0.768724
0.778508 0.778508 0.778508
0.788296 0.788296 0.788296
0.798087 0.798087 0.798087
0.496163 0.496163 0.496163
0.509800 0.509800 0.509800
0.523535 0.523535 0.523535
0.535121 0.535121 0.535121
0.544758 0.544758 0.544758
0.554404 0.554404 0.554404
0.564058 0.564058 0.564058
0.573720 0.573720 0.573720
0.583391 0.583391 0.583391
0.593069 0.593069 0.593069
0.602755 0.602755 0.602755
0.612449 0.612449 0.612449
0.622149 0.622149 0.622149
0.631857 0.631857 0.631857
0.641571 0.641571 0.641571
0.651292 0.651292 0.651292
0.661019 0.661019 0.661019
0.670752 0.670752 0.670752
0.680490 0.680490 0.680490
0.690235 0.690235 0.690235
0.699985 0.699985 0.699985
0.709740 0.709740 0.709740
0.719499 0.719499 0.719499
0.729264 0.729264 0.729264
0.739033 0.739033 0.739033
0.748806 0.748806 0.748806
0.758583 0.758583 0.758583
0.768364 0.768364 0.768364
0.778148 0.778148 0.778148
