flutter_app/assets/lut/cameras/bw_hp5.cube
TITLE "BW Classic"
LUT_3D_SIZE 5
0.000000 0.000000 0.000000
0.003887 0.003887 0.003887
0.081498 0.081498 0.081498
0.165351 0.165351 0.165351
0.255562 0.255562 0.255562
0.078533 0.078533 0.078533
0.162154 0.162154 0.162154
0.252129 0.252129 0.252129
0.348529 0.348529 0.348529
0.451366 0.451366 0.451366
0.248706 0.248706 0.248706
0.344869 0.344869 0.344869
0.447469 0.447469 0.447469
0.548306 0.548306 0.548306
0.625720 0.625720 0.625720
0.443581 0.443581 0.443581
0.545468 0.545468 0.545468
0.622863 0.622863 0.622863
0.700702 0.700702 0.700702
0.778868 0.778868 0.778868
0.620007 0.620007 0.620007
0.697832 0.697832 0.697832
0.775988 0.775988 0.775988
0.854357 0.854357 0.854357
0.932817 0.932817 0.932817
0.000000 0.000000 0.000000
0.032751 0.032751 0.032751
0.112725 0.112725 0.112725
0.198991 0.198991 0.198991
0.291647 0.291647 0.291647
0.109672 0.109672 0.109672
0.195705 0.195705 0.195705
0.288124 0.288124 0.288124
0.386980 0.386980 0.386980
0.492259 0.492259 0.492259
0.284610 0.284610 0.284610
0.383229 0.383229 0.383229
0.488273 0.488273 0.488273
0.577762 0.577762 0.577762
0.655357 0.655357 0.655357
0.484296 0.484296 0.484296
0.574917 0.574917 0.574917
0.652495 0.652495 0.652495
0.730473 0.730473 0.730473
0.808732 0.808732 0.808732
0.649633 0.649633 0.649633
0.727598 0.727598 0.727598
0.805849 0.805849 0.805849
0.884268 0.884268 0.884268
0.962730 0.962730 0.962730
0.000000 0.000000 0.000000
0.062509 0.062509 0.062509
0.144867 0.144867 0.144867
0.233560 0.233560 0.233560
0.328668 0.328668 0.328668
0.141726 0.141726 0.141726
0.230184 0.230184 0.230184
0.325055 0.325055 0.325055
0.426365 0.426365 0.426365
0.532834 0.532834 0.532834
0.321451 0.321451 0.321451
0.422524 0.422524 0.422524
0.530000 0.530000 0.530000
0.607293 0.607293 0.607293
0.685052 0.685052 0.685052
0.525934 0.525934 0.525934
0.604441 0.604441 0.604441
0.682185 0.682185 0.682185
0.760284 0.760284 0.760284
0.838620 0.838620 0.838620
0.679318 0.679318 0.679318
0.757406 0.757406 0.757406
0.835735 0.835735 0.835735
0.914184 0.914184 0.914184
0.992630 0.992630 0.992630
0.014670 0.014670 0.014670
0.093169 0.093169 0.093169
0.177931 0.177931 0.177931
0.269063 0.269063 0.269063
0.366626 0.366626 0.366626
0.174700 0.174700 0.174700
0.265596 0.265596 0.265596
0.362923 0.362923 0.362923
0.466682 0.466682 0.466682
0.562249 0.562249 0.562249
0.359228 0.359228 0.359228
0.462751 0.462751 0.462751
0.559407 0.559407 0.559407
0.636892 0.636892 0.636892
0.714798 0.714798 0.714798
0.556566 0.556566 0.556566
0.634033 0.634033 0.634033
0.711926 0.711926 0.711926
0.790130 0.790130 0.790130
0.868524 0.868524 0.868524
0.709054 0.709054 0.709054
0.787248 0.787248 0.787248
0.865638 0.865638 0.865638
0.944101 0.944101 0.944101
1.000000 1.000000 1.000000
0.043870 0.043870 0.043870
0.124741 0.124741 0.124741
0.211921 0.211921 0.211921
0.305501 0.305501 0.305501
0.405520 0.405520 0.405520
0.208601 0.208601 0.208601
0.301944 0.301944 0.301944
0.401726 0.401726 0.401726
0.507924 0.507924 0.507924
0.591742 0.591742 0.591742
0.397941 0.397941 0.397941
0.503904 0.503904 0.503904
0.588893 0.588893 0.588893
0.666552 0.666552 0.666552
0.744589 0.744589 0.744589
0.586045 0.586045 0.586045
0.663687 0.663687 0.663687
0.741713 0.741713 0.741713
0.820003 0.820003 0.820003
0.898438 0.898438 0.898438
0.738837 0.738837 0.738837
0.817120 0.817120 0.817120
0.895552 0.895552 0.895552
0.974010 0.974010 0.974010
1.000000 1.000000 1.000000
