flutter_app/assets/lut/cameras/bw_trix400.cube
TITLE "BW Classic"
LUT_3D_SIZE 9
0.000000 0.000000 0.000000
0.000000 0.000000 0.000000
0.000000 0.000000 0.000000
0.000000 0.000000 0.000000
0.000000 0.000000 0.000000
0.034615 0.034615 0.034615
0.083352 0.083352 0.083352
0.135163 0.135163 0.135163
0.190100 0.190100 0.190100
0.000000 0.000000 0.000000
0.000000 0.000000 0.000000
0.000000 0.000000 0.000000
0.032880 0.032880 0.032880
0.081505 0.081505 0.081505
0.133201 0.133201 0.133201
0.188023 0.188023 0.188023
0.246011 0.246011 0.246011
0.307189 0.307189 0.307189
0.000000 0.000000 0.000000
0.031149 0.031149 0.031149
0.079662 0.079662 0.079662
0.131244 0.131244 0.131244
0.185951 0.185951 0.185951
0.243822 0.243822 0.243822
0.304882 0.304882 0.304882
0.369136 0.369136 0.369136
0.436567 0.436567 0.436567
0.077823 0.077823 0.077823
0.129292 0.129292 0.129292
0.183882 0.183882 0.183882
0.241636 0.241636 0.241636
0.302579 0.302579 0.302579
0.366716 0.366716 0.366716
0.434031 0.434031 0.434031
0.504481 0.504481 0.504481
0.561580 0.561580 0.561580
0.181818 0.181818 0.181818
0.239455 0.239455 0.239455
0.300280 0.300280 0.300280
0.364300 0.364300 0.364300
0.431498 0.431498 0.431498
0.501834 0.501834 0.501834
0.560026 0.560026 0.560026
0.602391 0.602391 0.602391
0.644995 0.644995 0.644995
0.297986 0.297986 0.297986
0.361888 0.361888 0.361888
0.428970 0.428970 0.428970
0.499192 0.499192 0.499192
0.558472 0.558472 0.558472
0.600828 0.600828 0.600828
0.643424 0.643424 0.643424
0.686224 0.686224 0.686224
0.729192 0.729192 0.729192
0.426446 0.426446 0.426446
0.496553 0.496553 0.496553
0.556919 0.556919 0.556919
0.599265 0.599265 0.599265
0.641853 0.641853 0.641853
0.684646 0.684646 0.684646
0.727608 0.727608 0.727608
0.770702 0.770702 0.770702
0.813890 0.813890 0.813890
0.555366 0.555366 0.555366
0.597703 0.597703 0.597703
0.640282 0.640282 0.640282
0.683068 0.683068 0.683068
0.726025 0.726025 0.726025
0.769115 0.769115 0.769115
0.812299 0.812299 0.812299
0.855540 0.855540 0.855540
0.898797 0.898797 0.898797
0.638712 0.638712 0.638712
0.681491 0.681491 0.681491
0.724442 0.724442 0.724442
0.767528 0.767528 0.767528
0.810710 0.810710 0.810710
0.853949 0.853949 0.853949
0.897206 0.897206 0.897206
0.940440 0.940440 0.940440
0.983612 0.983612 0.983612
0.000000 0.000000 0.000000
0.000000 0.000000 0.000000
0.000000 0.000000 0.000000
0.000000 0.000000 0.000000
0.005971 0.005971 0.005971
0.052838 0.052838 0.052838
0.102740 0.102740 0.102740
0.155737 0.155737 0.155737
0.211879 0.211879 0.211879
0.000000 0.000000 0.000000
0.000000 0.000000 0.000000
0.004304 0.004304 0.004304
0.051061 0.051061 0.051061
0.100850 0.100850 0.100850
0.153732 0.153732 0.153732
0.209757 0.209757 0.209757
0.268960 0.268960 0.268960
0.331356 0.331356 0.331356
0.002641 0.002641 0.002641
0.049287 0.049287 0.049287
0.098964 0.098964 0.098964
0.151731 0.151731 0.151731
0.207640 0.207640 0.207640
0.266725 0.266725 0.266725
0.329004 0.329004 0.329004
0.394473 0.394473 0.394473
0.463105 0.463105 0.463105
0.097082 0.097082 0.097082
0.149735 0.149735 0.149735
0.205527 0.205527 0.205527
0.264495 0.264495 0.264495
0.326656 0.326656 0.326656
0.392008 0.392008 0.392008
0.460525 0.460525 0.460525
0.532153 0.532153 0.532153
0.577706 0.577706 0.577706
0.203419 0.203419 0.203419
0.262269 0.262269 0.262269
0.324313 0.324313 0.324313
0.389547 0.389547 0.389547
0.457949 0.457949 0.457949
0.529464 0.529464 0.529464
0.576148 0.576148 0.576148
0.618608 0.618608 0.618608
0.661294 0.661294 0.661294
0.321973 0.321973 0.321973
0.387091 0.387091 0.387091
0.455377 0.455377 0.455377
0.526778 0.526778 0.526778
0.574591 0.574591 0.574591
0.617042 0.617042 0.617042
0.659720 0.659720 0.659720
0.702588 0.702588 0.702588
0.745610 0.745610 0.745610
0.452809 0.452809 0.452809
0.524097 0.524097 0.524097
0.573034 0.573034 0.573034
0.615476 0.615476 0.615476
0.658146 0.658146 0.658146
0.701008 0.701008 0.701008
0.744025 0.744025 0.744025
0.787159 0.787159 0.787159
0.830372 0.830372 0.830372
0.571477 0.571477 0.571477
0.613910 0.613910 0.613910
0.656573 0.656573 0.656573
0.699429 0.699429 0.699429
0.742441 0.742441 0.742441
0.785571 0.785571 0.785571
0.828781 0.828781 0.828781
0.872033 0.872033 0.872033
0.915285 0.915285 0.915285
0.655000 0.655000 0.655000
0.697849 0.697849 0.697849
0.740856 0.740856 0.740856
0.783983 0.783983 0.783983
0.827191 0.827191 0.827191
0.870441 0.870441 0.870441
0.913695 0.913695 0.913695
0.956910 0.956910 0.956910
1.000000 1.000000 1.000000
0.000000 0.000000 0.000000
0.000000 0.000000 0.000000
0.000000 0.000000 0.000000
0.000000 0.000000 0.000000
0.023487 0.023487 0.023487
0.071503 0.071503 0.071503
0.122578 0.122578 0.122578
0.176769 0.176769 0.176769
0.234120 0.234120 0.234120
0.000000 0.000000 0.000000
0.000000 0.000000 0.000000
0.021778 0.021778 0.021778
0.069683 0.069683 0.069683
0.120644 0.120644 0.120644
0.174720 0.174720 0.174720
0.231953 0.231953 0.231953
0.292373 0.292373 0.292373
0.355987 0.355987 0.355987
0.020073 0.020073 0.020073
0.067867 0.067867 0.067867
0.118715 0.118715 0.118715
0.172675 0.172675 0.172675
0.229792 0.229792 0.229792
0.290093 0.290093 0.290093
0.353590 0.353590 0.353590
0.420270 0.420270 0.420270
0.490095 0.490095 0.490095
0.116789 0.116789 0.116789
0.170634 0.170634 0.170634
0.227634 0.227634 0.227634
0.287818 0.287818 0.287818
0.351197 0.351197 0.351197
0.417760 0.417760 0.417760
0.487471 0.487471 0.487471
0.551556 0.551556 0.551556
0.593869 0.593869 0.593869
0.225481 0.225481 0.225481
0.285547 0.285547 0.285547
0.348809 0.348809 0.348809
0.415256 0.415256 0.415256
0.484852 0.484852 0.484852
0.550005 0.550005 0.550005
0.592308 0.592308 0.592308
0.634858 0.634858 0.634858
0.677621 0.677621 0.677621
0.346425 0.346425 0.346425
0.412755 0.412755 0.412755
0.482236 0.482236 0.482236
0.548454 0.548454 0.548454
0.590747 0.590747 0.590747
0.633289 0.633289 0.633289
0.676044 0.676044 0.676044
0.718975 0.718975 0.718975
0.762046 0.762046 0.762046
0.479625 0.479625 0.479625
0.546903 0.546903 0.546903
0.589186 0.589186 0.589186
0.631720 0.631720 0.631720
0.674468 0.674468 0.674468
0.717393 0.717393 0.717393
0.760459 0.760459 0.760459
0.803628 0.803628 0.803628
0.846860 0.846860 0.846860
0.587626 0.587626 0.587626
0.630151 0.630151 0.630151
0.672892 0.672892 0.672892
0.715811 0.715811 0.715811
0.758873 0.758873 0.758873
0.802038 0.802038 0.802038
0.845269 0.845269 0.845269
0.888526 0.888526 0.888526
0.931768 0.931768 0.931768
0.671316 0.671316 0.671316
0.714230 0.714230 0.714230
0.757287 0.757287 0.757287
0.800449 0.800449 0.800449
0.843678 0.843678 0.843678
0.886934 0.886934 0.886934
0.930178 0.930178 0.930178
0.973368 0.973368 0.973368
1.000000 1.000000 1.000000
0.000000 0.000000 0.000000
0.000000 0.000000 0.000000
0.000000 0.000000 0.000000
0.000000 0.000000 0.000000
0.041437 0.041437 0.041437
0.090612 0.090612 0.090612
0.142870 0.142870 0.142870
0.198261 0.198261 0.198261
0.256824 0.256824 0.256824
0.000000 0.000000 0.000000
0.000000 0.000000 0.000000
0.039686 0.039686 0.039686
0.088749 0.088749 0.088749
0.140892 0.140892 0.140892
0.196167 0.196167 0.196167
0.254613 0.254613 0.254613
0.316250 0.316250 0.316250
0.381080 0.381080 0.381080
0.037939 0.037939 0.037939
0.086890 0.086890 0.086890
0.138918 0.138918 0.138918
0.194078 0.194078 0.194078
0.252406 0.252406 0.252406
0.313926 0.313926 0.313926
0.378639 0.378639 0.378639
0.446524 0.446524 0.446524
0.517533 0.517533 0.517533
0.136949 0.136949 0.136949
0.191992 0.191992 0.191992
0.250204 0.250204 0.250204
0.311606 0.311606 0.311606
0.376202 0.376202 0.376202
0.443971 0.443971 0.443971
0.514867 0.514867 0.514867
0.567658 0.567658 0.567658
0.610068 0.610068 0.610068
0.248006 0.248006 0.248006
0.309290 0.309290 0.309290
0.373769 0.373769 0.373769
0.441422 0.441422 0.441422
0.512204 0.512204 0.512204
0.566102 0.566102 0.566102
0.608504 0.608504 0.608504
0.651139 0.651139 0.651139
0.693973 0.693973 0.693973
0.371340 0.371340 0.371340
0.438877 0.438877 0.438877
0.509545 0.509545 0.509545
0.564547 0.564547 0.564547
0.606940 0.606940 0.606940
0.649567 0.649567 0.649567
0.692394 0.692394 0.692394
0.735383 0.735383 0.735383
0.778496 0.778496 0.778496
0.506891 0.506891 0.506891
0.562993 0.562993 0.562993
0.605376 0.605376 0.605376
0.647995 0.647995 0.647995
0.690815 0.690815 0.690815
0.733799 0.733799 0.733799
0.776908 0.776908 0.776908
0.820106 0.820106 0.820106
0.863352 0.863352 0.863352
0.603812 0.603812 0.603812
0.646423 0.646423 0.646423
0.689237 0.689237 0.689237
0.732215 0.732215 0.732215
0.775321 0.775321 0.775321
0.818515 0.818515 0.818515
0.861761 0.861761 0.861761
0.905017 0.905017 0.905017
0.948243 0.948243 0.948243
0.687658 0.687658 0.687658
0.730631 0.730631 0.730631
0.773733 0.773733 0.773733
0.816925 0.816925 0.816925
0.860169 0.860169 0.860169
0.903426 0.903426 0.903426
0.946654 0.946654 0.946654
0.989813 0.989813 0.989813
1.000000 1.000000 1.000000
0.000000 0.000000 0.000000
0.000000 0.000000 0.000000
0.000000 0.000000 0.000000
0.012527 0.012527 0.012527
0.059827 0.059827 0.059827
0.110170 0.110170 0.110170
0.163617 0.163617 0.163617
0.220214 0.220214 0.220214
0.279992 0.279992 0.279992
0.000000 0.000000 0.000000
0.010844 0.010844 0.010844
0.058033 0.058033 0.058033
0.108263 0.108263 0.108263
0.161595 0.161595 0.161595
0.218075 0.218075 0.218075
0.277736 0.277736 0.277736
0.340592 0.340592 0.340592
0.406635 0.406635 0.406635
0.056243 0.056243 0.056243
0.106361 0.106361 0.106361
0.159577 0.159577 0.159577
0.215941 0.215941 0.215941
0.275485 0.275485 0.275485
0.338223 0.338223 0.338223
0.404149 0.404149 0.404149
0.473233 0.473233 0.473233
0.543098 0.543098 0.543098
0.157564 0.157564 0.157564
0.213811 0.213811 0.213811
0.273238 0.273238 0.273238
0.335858 0.335858 0.335858
0.401668 0.401668 0.401668
0.470636 0.470636 0.470636
0.541549 0.541549 0.541549
0.583798 0.583798 0.583798
0.626302 0.626302 0.626302
0.270995 0.270995 0.270995
0.333498 0.333498 0.333498
0.399190 0.399190 0.399190
0.468043 0.468043 0.468043
0.540000 0.540000 0.540000
0.582239 0.582239 0.582239
0.624734 0.624734 0.624734
0.667449 0.667449 0.667449
0.710348 0.710348 0.710348
0.396717 0.396717 0.396717
0.465455 0.465455 0.465455
0.537299 0.537299 0.537299
0.580680 0.580680 0.580680
0.623166 0.623166 0.623166
0.665874 0.665874 0.665874
0.708767 0.708767 0.708767
0.751808 0.751808 0.751808
0.794959 0.794959 0.794959
0.534601 0.534601 0.534601
0.579122 0.579122 0.579122
0.621599 0.621599 0.621599
0.664299 0.664299 0.664299
0.707186 0.707186 0.707186
0.750222 0.750222 0.750222
0.793370 0.793370 0.793370
0.836591 0.836591 0.836591
0.879845 0.879845 0.879845
0.620032 0.620032 0.620032
0.662725 0.662725 0.662725
0.705606 0.705606 0.705606
0.748637 0.748637 0.748637
0.791781 0.791781 0.791781
0.835000 0.835000 0.835000
0.878254 0.878254 0.878254
0.921503 0.921503 0.921503
0.964707 0.964707 0.964707
0.704025 0.704025 0.704025
0.747051 0.747051 0.747051
0.790192 0.790192 0.790192
0.833409 0.833409 0.833409
0.876662 0.876662 0.876662
0.919913 0.919913 0.919913
0.963119 0.963119 0.963119
1.000000 1.000000 1.000000
1.000000 1.000000 1.000000
0.000000 0.000000 0.000000
0.000000 0.000000 0.000000
0.000000 0.000000 0.000000
0.030206 0.030206 0.030206
0.078659 0.078659 0.078659
0.130179 0.130179 0.130179
0.184822 0.184822 0.184822
0.242629 0.242629 0.242629
0.303625 0.303625 0.303625
0.000000 0.000000 0.000000
0.028481 0.028481 0.028481
0.076822 0.076822 0.076822
0.128228 0.128228 0.128228
0.182756 0.182756 0.182756
0.240446 0.240446 0.240446
0.301324 0.301324 0.301324
0.365398 0.365398 0.365398
0.432649 0.432649 0.432649
0.074990 0.074990 0.074990
0.126282 0.126282 0.126282
0.180694 0.180694 0.180694
0.238267 0.238267 0.238267
0.299028 0.299028 0.299028
0.362984 0.362984 0.362984
0.430119 0.430119 0.430119
0.500392 0.500392 0.500392
0.559178 0.559178 0.559178
0.178636 0.178636 0.178636
0.236093 0.236093 0.236093
0.296736 0.296736 0.296736
0.360574 0.360574 0.360574
0.427593 0.427593 0.427593
0.497752 0.497752 0.497752
0.557625 0.557625 0.557625
0.599975 0.599975 0.599975
0.642567 0.642567 0.642567
0.294449 0.294449 0.294449
0.358169 0.358169 0.358169
0.425072 0.425072 0.425072
0.495116 0.495116 0.495116
0.556072 0.556072 0.556072
0.598413 0.598413 0.598413
0.640996 0.640996 0.640996
0.683786 0.683786 0.683786
0.726745 0.726745 0.726745
0.422554 0.422554 0.422554
0.492484 0.492484 0.492484
0.554519 0.554519 0.554519
0.596851 0.596851 0.596851
0.639425 0.639425 0.639425
0.682208 0.682208 0.682208
0.725162 0.725162 0.725162
0.768249 0.768249 0.768249
0.811432 0.811432 0.811432
0.552967 0.552967 0.552967
0.595289 0.595289 0.595289
0.637855 0.637855 0.637855
0.680631 0.680631 0.680631
0.723579 0.723579 0.723579
0.766662 0.766662 0.766662
0.809842 0.809842 0.809842
0.853081 0.853081 0.853081
0.896338 0.896338 0.896338
0.636285 0.636285 0.636285
0.679054 0.679054 0.679054
0.721996 0.721996 0.721996
0.765075 0.765075 0.765075
0.808252 0.808252 0.808252
0.851489 0.851489 0.851489
0.894746 0.894746 0.894746
0.937983 0.937983 0.937983
0.981159 0.981159 0.981159
0.720414 0.720414 0.720414
0.763488 0.763488 0.763488
0.806663 0.806663 0.806663
0.849898 0.849898 0.849898
0.893155 0.893155 0.893155
0.936394 0.936394 0.936394
0.979573 0.979573 0.979573
1.000000 1.000000 1.000000
1.000000 1.000000 1.000000
0.000000 0.000000 0.000000
0.000000 0.000000 0.000000
0.001735 0.001735 0.001735
0.048322 0.048322 0.048322
0.097937 0.097937 0.097937
0.150642 0.150642 0.150642
0.206487 0.206487 0.206487
0.265508 0.265508 0.265508
0.327723 0.327723 0.327723
0.000078 0.000078 0.000078
0.046555 0.046555 0.046555
0.096057 0.096057 0.096057
0.148647 0.148647 0.148647
0.204376 0.204376 0.204376
0.263280 0.263280 0.263280
0.325377 0.325377 0.325377
0.390665 0.390665 0.390665
0.459119 0.459119 0.459119
0.094181 0.094181 0.094181
0.146657 0.146657 0.146657
0.202270 0.202270 0.202270
0.261057 0.261057 0.261057
0.323036 0.323036 0.323036
0.388207 0.388207 0.388207
0.456545 0.456545 0.456545
0.527998 0.527998 0.527998
0.575298 0.575298 0.575298
0.200168 0.200168 0.200168
0.258837 0.258837 0.258837
0.320699 0.320699 0.320699
0.385753 0.385753 0.385753
0.453975 0.453975 0.453975
0.525315 0.525315 0.525315
0.573741 0.573741 0.573741
0.616188 0.616188 0.616188
0.658862 0.658862 0.658862
0.318367 0.318367 0.318367
0.383304 0.383304 0.383304
0.451410 0.451410 0.451410
0.522636 0.522636 0.522636
0.572184 0.572184 0.572184
0.614622 0.614622 0.614622
0.657288 0.657288 0.657288
0.700147 0.700147 0.700147
0.743161 0.743161 0.743161
0.448849 0.448849 0.448849
0.519962 0.519962 0.519962
0.570628 0.570628 0.570628
0.613056 0.613056 0.613056
0.655715 0.655715 0.655715
0.698567 0.698567 0.698567
0.741576 0.741576 0.741576
0.784704 0.784704 0.784704
0.827914 0.827914 0.827914
0.569072 0.569072 0.569072
0.611491 0.611491 0.611491
0.654142 0.654142 0.654142
0.696987 0.696987 0.696987
0.739991 0.739991 0.739991
0.783116 0.783116 0.783116
0.826323 0.826323 0.826323
0.869573 0.869573 0.869573
0.912827 0.912827 0.912827
0.652569 0.652569 0.652569
0.695408 0.695408 0.695408
0.738407 0.738407 0.738407
0.781528 0.781528 0.781528
0.824733 0.824733 0.824733
0.867982 0.867982 0.867982
0.911236 0.911236 0.911236
0.954455 0.954455 0.954455
0.997597 0.997597 0.997597
0.736823 0.736823 0.736823
0.779940 0.779940 0.779940
0.823142 0.823142 0.823142
0.866390 0.866390 0.866390
0.909645 0.909645 0.909645
0.952866 0.952866 0.952866
0.996011 0.996011 0.996011
1.000000 1.000000 1.000000
1.000000 1.000000 1.000000
0.000000 0.000000 0.000000
0.000000 0.000000 0.000000
0.019144 0.019144 0.019144
0.066878 0.066878 0.066878
0.117664 0.117664 0.117664
0.171561 0.171561 0.171561
0.228614 0.228614 0.228614
0.288852 0.288852 0.288852
0.352284 0.352284 0.352284
0.017446 0.017446 0.017446
0.065068 0.065068 0.065068
0.115741 0.115741 0.115741
0.169523 0.169523 0.169523
0.226459 0.226459 0.226459
0.286579 0.286579 0.286579
0.349894 0.349894 0.349894
0.416394 0.416394 0.416394
0.486042 0.486042 0.486042
0.113822 0.113822 0.113822
0.167488 0.167488 0.167488
0.224308 0.224308 0.224308
0.284311 0.284311 0.284311
0.347508 0.347508 0.347508
0.413891 0.413891 0.413891
0.483424 0.483424 0.483424
0.549159 0.549159 0.549159
0.591456 0.591456 0.591456
0.222161 0.222161 0.222161
0.282047 0.282047 0.282047
0.345127 0.345127 0.345127
0.411393 0.411393 0.411393
0.480811 0.480811 0.480811
0.547608 0.547608 0.547608
0.589896 0.589896 0.589896
0.632433 0.632433 0.632433
0.675184 0.675184 0.675184
0.342749 0.342749 0.342749
0.408899 0.408899 0.408899
0.478202 0.478202 0.478202
0.546057 0.546057 0.546057
0.588335 0.588335 0.588335
0.630864 0.630864 0.630864
0.673608 0.673608 0.673608
0.716530 0.716530 0.716530
0.759594 0.759594 0.759594
0.475597 0.475597 0.475597
0.544507 0.544507 0.544507
0.586775 0.586775 0.586775
0.629296 0.629296 0.629296
0.672032 0.672032 0.672032
0.714949 0.714949 0.714949
0.758008 0.758008 0.758008
0.801171 0.801171 0.801171
0.844401 0.844401 0.844401
0.585216 0.585216 0.585216
0.627727 0.627727 0.627727
0.670456 0.670456 0.670456
0.713367 0.713367 0.713367
0.756422 0.756422 0.756422
0.799582 0.799582 0.799582
0.842810 0.842810 0.842810
0.886066 0.886066 0.886066
0.929311 0.929311 0.929311
0.668881 0.668881 0.668881
0.711786 0.711786 0.711786
0.754835 0.754835 0.754835
0.797993 0.797993 0.797993
0.841219 0.841219 0.841219
0.884475 0.884475 0.884475
0.927720 0.927720 0.927720
0.970915 0.970915 0.970915
1.000000 1.000000 1.000000
0.753250 0.753250 0.753250
0.796404 0.796404 0.796404
0.839628 0.839628 0.839628
0.882884 0.882884 0.882884
0.926130 0.926130 0.926130
0.969327 0.969327 0.969327
1.000000 1.000000 1.000000
1.000000 1.000000 1.000000
1.000000 1.000000 1.000000
0.000000 0.000000 0.000000
0.000000 0.000000 0.000000
0.036988 0.036988 0.036988
0.085877 0.085877 0.085877
0.137844 0.137844 0.137844
0.192940 0.192940 0.192940
0.251204 0.251204 0.251204
0.312660 0.312660 0.312660
0.377309 0.377309 0.377309
0.035247 0.035247 0.035247
0.084025 0.084025 0.084025
0.135877 0.135877 0.135877
0.190857 0.190857 0.190857
0.249004 0.249004 0.249004
0.310342 0.310342 0.310342
0.374874 0.374874 0.374874
0.442580 0.442580 0.442580
0.513414 0.513414 0.513414
0.133914 0.133914 0.133914
0.188778 0.188778 0.188778
0.246809 0.246809 0.246809
0.308029 0.308029 0.308029
0.372444 0.372444 0.372444
0.440033 0.440033 0.440033
0.510753 0.510753 0.510753
0.565254 0.565254 0.565254
0.607651 0.607651 0.607651
0.244617 0.244617 0.244617
0.305720 0.305720 0.305720
0.370017 0.370017 0.370017
0.437491 0.437491 0.437491
0.508097 0.508097 0.508097
0.563699 0.563699 0.563699
0.606086 0.606086 0.606086
0.648710 0.648710 0.648710
0.691533 0.691533 0.691533
0.367596 0.367596 0.367596
0.434953 0.434953 0.434953
0.505444 0.505444 0.505444
0.562145 0.562145 0.562145
0.604523 0.604523 0.604523
0.647138 0.647138 0.647138
0.689954 0.689954 0.689954
0.732935 0.732935 0.732935
0.776042 0.776042 0.776042
0.502796 0.502796 0.502796
0.560591 0.560591 0.560591
0.602959 0.602959 0.602959
0.645566 0.645566 0.645566
0.688376 0.688376 0.688376
0.731351 0.731351 0.731351
0.774455 0.774455 0.774455
0.817648 0.817648 0.817648
0.860893 0.860893 0.860893
0.601396 0.601396 0.601396
0.643995 0.643995 0.643995
0.686798 0.686798 0.686798
0.729767 0.729767 0.729767
0.772867 0.772867 0.772867
0.816058 0.816058 0.816058
0.859301 0.859301 0.859301
0.902558 0.902558 0.902558
0.945787 0.945787 0.945787
0.685220 0.685220 0.685220
0.728184 0.728184 0.728184
0.771280 0.771280 0.771280
0.814468 0.814468 0.814468
0.857710 0.857710 0.857710
0.900967 0.900967 0.900967
0.944197 0.944197 0.944197
0.987361 0.987361 0.987361
1.000000 1.000000 1.000000
0.769692 0.769692 0.769692
0.812878 0.812878 0.812878
0.856119 0.856119 0.856119
0.899375 0.899375 0.899375
0.942608 0.942608 0.942608
0.985775 0.985775 0.985775
1.000000 1.000000 1.000000
1.000000 1.000000 1.000000
1.000000 1.000000 1.000000
