flutter_app/assets/lut/cameras/bw_trix400.cube
TITLE "BW Classic"
LUT_3D_SIZE 33
0.000000 0.000000 0.000000
0.000000 0.000000 0.000000
0.000000 0.000000 0.000000
0.000000 0.000000 0.000000
0.000000 0.000000 0.000000
0.000000 0.000000 0.000000
0.000000 0.000000 0.000000
0.000000 0.000000 0.000000
0.000000 0.000000 0.000000
0.000000 0.000000 0.000000
0.000000 0.000000 0.000000
0.000000 0.000000 0.000000
0.000000 0.000000 0.000000
0.000000 0.000000 0.000000
0.000000 0.000000 0.000000
0.000000 0.000000 0.000000
0.000000 0.000000 0.000000
0.000040 0.000040 0.000040
0.011379 0.011379 0.011379
0.022904 0.022904 0.022904
0.034615 0.034615 0.034615
0.046515 0.046515 0.046515
0.058603 0.058603 0.058603
0.070882 0.070882 0.070882
0.083352 0.083352 0.083352
0.096014 0.096014 0.096014
0.108869 0.108869 0.108869
0.121919 0.121919 0.121919
0.135163 0.135163 0.135163
0.148602 0.148602 0.148602
0.162238 0.162238 0.162238
0.176070 0.176070 0.176070
0.190100 0.190100 0.190100
0.000000 0.000000 0.000000
0.000000 0.000000 0.000000
0.000000 0.000000 0.000000
0.000000 0.000000 0.000000
0.000000 0.000000 0.000000
0.000000 0.000000 0.000000
0.000000 0.000000 0.000000
0.000000 0.000000 0.000000
0.000000 0.000000 0.000000
0.000000 0.000000 0.000000
0.000000 0.000000 0.000000
0.000000 0.000000 0.000000
0.000000 0.000000 0.000000
0.000000 0.000000 0.000000
0.000000 0.000000 0.000000
0.000000 0.000000 0.000000
0.010959 0.010959 0.010959
0.022476 0.022476 0.022476
0.034181 0.034181 0.034181
0.046073 0.046073 0.046073
0.058155 0.058155 0.058155
0.070427 0.070427 0.070427
0.082890 0.082890 0.082890
0.095545 0.095545 0.095545
0.108393 0.108393 0.108393
0.121435 0.121435 0.121435
0.134672 0.134672 0.134672
0.148104 0.148104 0.148104
0.161733 0.161733 0.161733
0.175558 0.175558 0.175558
0.189581 0.189581 0.189581
0.203802 0.203802 0.203802
0.218221 0.218221 0.218221
0.000000 0.000000 0.000000
0.000000 0.000000 0.000000
0.000000 0.000000 0.000000
0.000000 0.000000 0.000000
0.000000 0.000000 0.000000
0.000000 0.000000 0.000000
0.000000 0.000000 0.000000
0.000000 0.000000 0.000000
0.000000 0.000000 0.000000
0.000000 0.000000 0.000000
0.000000 0.000000 0.000000
0.000000 0.000000 0.000000
0.000000 0.000000 0.000000
0.000000 0.000000 0.000000
0.010539 0.010539 0.010539
0.022049 0.022049 0.022049
0.033747 0.033747 0.033747
0.045633 0.045633 0.045633
0.057707 0.057707 0.057707
0.069972 0.069972 0.069972
0.082428 0.082428 0.082428
0.095076 0.095076 0.095076
0.107917 0.107917 0.107917
0.120952 0.120952 0.120952
0.134181 0.134181 0.134181
0.147606 0.147606 0.147606
0.161228 0.161228 0.161228
0.175046 0.175046 0.175046
0.189061 0.189061 0.189061
0.203275 0.203275 0.203275
0.217687 0.217687 0.217687
0.232298 0.232298 0.232298
0.247108 0.247108 0.247108
0.000000 0.000000 0.000000
0.000000 0.000000 0.000000
0.000000 0.000000 0.000000
0.000000 0.000000 0.000000
0.000000 0.000000 0.000000
0.000000 0.000000 0.000000
0.000000 0.000000 0.000000
0.000000 0.000000 0.000000
0.000000 0.000000 0.000000
0.000000 0.000000 0.000000
0.000000 0.000000 0.000000
0.000000 0.000000 0.000000
0.010119 0.010119 0.010119
0.021623 0.021623 0.021623
0.033313 0.033313 0.033313
0.045192 0.045192 0.045192
0.057260 0.057260 0.057260
0.069517 0.069517 0.069517
0.081966 0.081966 0.081966
0.094607 0.094607 0.094607
0.107441 0.107441 0.107441
0.120469 0.120469 0.120469
0.133691 0.133691 0.133691
0.147109 0.147109 0.147109
0.160723 0.160723 0.160723
0.174534 0.174534 0.174534
0.188542 0.188542 0.188542
0.202748 0.202748 0.202748
0.217153 0.217153 0.217153
0.231757 0.231757 0.231757
0.246559 0.246559 0.246559
0.261562 0.261562 0.261562
0.276764 0.276764 0.276764
0.000000 0.000000 0.000000
0.000000 0.000000 0.000000
0.000000 0.000000 0.000000
0.000000 0.000000 0.000000
0.000000 0.000000 0.000000
0.000000 0.000000 0.000000
0.000000 0.000000 0.000000
0.000000 0.000000 0.000000
0.000000 0.000000 0.000000
0.000000 0.000000 0.000000
0.009699 0.009699 0.009699
0.021196 0.021196 0.021196
0.032880 0.032880 0.032880
0.044752 0.044752 0.044752
0.056812 0.056812 0.056812
0.069063 0.069063 0.069063
0.081505 0.081505 0.081505
0.094139 0.094139 0.094139
0.106966 0.106966 0.106966
0.119986 0.119986 0.119986
0.133201 0.133201 0.133201
0.146612 0.146612 0.146612
0.160219 0.160219 0.160219
0.174022 0.174022 0.174022
0.188023 0.188023 0.188023
0.202222 0.202222 0.202222
0.216620 0.216620 0.216620
0.231216 0.231216 0.231216
0.246011 0.246011 0.246011
0.261006 0.261006 0.261006
0.276201 0.276201 0.276201
0.291595 0.291595 0.291595
0.307189 0.307189 0.307189
0.000000 0.000000 0.000000
0.000000 0.000000 0.000000
0.000000 0.000000 0.000000
0.000000 0.000000 0.000000
0.000000 0.000000 0.000000
0.000000 0.000000 0.000000
0.000000 0.000000 0.000000
0.000000 0.000000 0.000000
0.009280 0.009280 0.009280
0.020770 0.020770 0.020770
0.032447 0.032447 0.032447
0.044312 0.044312 0.044312
0.056365 0.056365 0.056365
0.068609 0.068609 0.068609
0.081044 0.081044 0.081044
0.093671 0.093671 0.093671
0.106490 0.106490 0.106490
0.119504 0.119504 0.119504
0.132712 0.132712 0.132712
0.146115 0.146115 0.146115
0.159715 0.159715 0.159715
0.173511 0.173511 0.173511
0.187505 0.187505 0.187505
0.201696 0.201696 0.201696
0.216087 0.216087 0.216087
0.230675 0.230675 0.230675
0.245464 0.245464 0.245464
0.260451 0.260451 0.260451
0.275638 0.275638 0.275638
0.291025 0.291025 0.291025
0.306612 0.306612 0.306612
0.322398 0.322398 0.322398
0.338384 0.338384 0.338384
0.000000 0.000000 0.000000
0.000000 0.000000 0.000000
0.000000 0.000000 0.000000
0.000000 0.000000 0.000000
0.000000 0.000000 0.000000
0.000000 0.000000 0.000000
0.008860 0.008860 0.008860
0.020344 0.020344 0.020344
0.032014 0.032014 0.032014
0.043872 0.043872 0.043872
0.055918 0.055918 0.055918
0.068155 0.068155 0.068155
0.080583 0.080583 0.080583
0.093203 0.093203 0.093203
0.106015 0.106015 0.106015
0.119021 0.119021 0.119021
0.132222 0.132222 0.132222
0.145619 0.145619 0.145619
0.159211 0.159211 0.159211
0.173000 0.173000 0.173000
0.186986 0.186986 0.186986
0.201171 0.201171 0.201171
0.215554 0.215554 0.215554
0.230135 0.230135 0.230135
0.244916 0.244916 0.244916
0.259896 0.259896 0.259896
0.275076 0.275076 0.275076
0.290456 0.290456 0.290456
0.306035 0.306035 0.306035
0.321814 0.321814 0.321814
0.337793 0.337793 0.337793
0.353971 0.353971 0.353971
0.370348 0.370348 0.370348
0.000000 0.000000 0.000000
0.000000 0.000000 0.000000
0.000000 0.000000 0.000000
0.000000 0.000000 0.000000
0.008441 0.008441 0.008441
0.019918 0.019918 0.019918
0.031581 0.031581 0.031581
0.043432 0.043432 0.043432
0.055472 0.055472 0.055472
0.067702 0.067702 0.067702
0.080122 0.080122 0.080122
0.092735 0.092735 0.092735
0.105540 0.105540 0.105540
0.118540 0.118540 0.118540
0.131733 0.131733 0.131733
0.145122 0.145122 0.145122
0.158707 0.158707 0.158707
0.172489 0.172489 0.172489
0.186468 0.186468 0.186468
0.200645 0.200645 0.200645
0.215021 0.215021 0.215021
0.229595 0.229595 0.229595
0.244369 0.244369 0.244369
0.259341 0.259341 0.259341
0.274514 0.274514 0.274514
0.289886 0.289886 0.289886
0.305458 0.305458 0.305458
0.321230 0.321230 0.321230
0.337201 0.337201 0.337201
0.353372 0.353372 0.353372
0.369742 0.369742 0.369742
0.386310 0.386310 0.386310
0.403077 0.403077 0.403077
0.000000 0.000000 0.000000
0.000000 0.000000 0.000000
0.008023 0.008023 0.008023
0.019492 0.019492 0.019492
0.031149 0.031149 0.031149
0.042993 0.042993 0.042993
0.055026 0.055026 0.055026
0.067248 0.067248 0.067248
0.079662 0.079662 0.079662
0.092268 0.092268 0.092268
0.105066 0.105066 0.105066
0.118058 0.118058 0.118058
0.131244 0.131244 0.131244
0.144626 0.144626 0.144626
0.158204 0.158204 0.158204
0.171979 0.171979 0.171979
0.185951 0.185951 0.185951
0.200120 0.200120 0.200120
0.214489 0.214489 0.214489
0.229056 0.229056 0.229056
0.243822 0.243822 0.243822
0.258787 0.258787 0.258787
0.273952 0.273952 0.273952
0.289317 0.289317 0.289317
0.304882 0.304882 0.304882
0.320646 0.320646 0.320646
0.336610 0.336610 0.336610
0.352774 0.352774 0.352774
0.369136 0.369136 0.369136
0.385697 0.385697 0.385697
0.402457 0.402457 0.402457
0.419414 0.419414 0.419414
0.436567 0.436567 0.436567
0.007604 0.007604 0.007604
0.019067 0.019067 0.019067
0.030717 0.030717 0.030717
0.042554 0.042554 0.042554
0.054580 0.054580 0.054580
0.066795 0.066795 0.066795
0.079202 0.079202 0.079202
0.091800 0.091800 0.091800
0.104592 0.104592 0.104592
0.117576 0.117576 0.117576
0.130756 0.130756 0.130756
0.144130 0.144130 0.144130
0.157701 0.157701 0.157701
0.171468 0.171468 0.171468
0.185433 0.185433 0.185433
0.199596 0.199596 0.199596
0.213956 0.213956 0.213956
0.228516 0.228516 0.228516
0.243275 0.243275 0.243275
0.258233 0.258233 0.258233
0.273391 0.273391 0.273391
0.288748 0.288748 0.288748
0.304306 0.304306 0.304306
0.320063 0.320063 0.320063
0.336019 0.336019 0.336019
0.352176 0.352176 0.352176
0.368531 0.368531 0.368531
0.385085 0.385085 0.385085
0.401837 0.401837 0.401837
0.418786 0.418786 0.418786
0.435933 0.435933 0.435933
0.453275 0.453275 0.453275
0.470813 0.470813 0.470813
0.030285 0.030285 0.030285
0.042115 0.042115 0.042115
0.054134 0.054134 0.054134
0.066343 0.066343 0.066343
0.078742 0.078742 0.078742
0.091333 0.091333 0.091333
0.104118 0.104118 0.104118
0.117095 0.117095 0.117095
0.130267 0.130267 0.130267
0.143635 0.143635 0.143635
0.157198 0.157198 0.157198
0.170958 0.170958 0.170958
0.184916 0.184916 0.184916
0.199071 0.199071 0.199071
0.213425 0.213425 0.213425
0.227977 0.227977 0.227977
0.242728 0.242728 0.242728
0.257679 0.257679 0.257679
0.272830 0.272830 0.272830
0.288180 0.288180 0.288180
0.303730 0.303730 0.303730
0.319479 0.319479 0.319479
0.335429 0.335429 0.335429
0.351578 0.351578 0.351578
0.367926 0.367926 0.367926
0.384472 0.384472 0.384472
0.401217 0.401217 0.401217
0.418159 0.418159 0.418159
0.435299 0.435299 0.435299
0.452634 0.452634 0.452634
0.470164 0.470164 0.470164
0.487889 0.487889 0.487889
0.505806 0.505806 0.505806
0.053688 0.053688 0.053688
0.065890 0.065890 0.065890
0.078283 0.078283 0.078283
0.090867 0.090867 0.090867
0.103644 0.103644 0.103644
0.116614 0.116614 0.116614
0.129779 0.129779 0.129779
0.143140 0.143140 0.143140
0.156696 0.156696 0.156696
0.170449 0.170449 0.170449
0.184399 0.184399 0.184399
0.198547 0.198547 0.198547
0.212893 0.212893 0.212893
0.227438 0.227438 0.227438
0.242182 0.242182 0.242182
0.257126 0.257126 0.257126
0.272269 0.272269 0.272269
0.287612 0.287612 0.287612
0.303154 0.303154 0.303154
0.318897 0.318897 0.318897
0.334839 0.334839 0.334839
0.350980 0.350980 0.350980
0.367321 0.367321 0.367321
0.383860 0.383860 0.383860
0.400597 0.400597 0.400597
0.417532 0.417532 0.417532
0.434665 0.434665 0.434665
0.451993 0.451993 0.451993
0.469516 0.469516 0.469516
0.487233 0.487233 0.487233
0.505143 0.505143 0.505143
0.523245 0.523245 0.523245
0.540880 0.540880 0.540880
0.077823 0.077823 0.077823
0.090400 0.090400 0.090400
0.103170 0.103170 0.103170
0.116134 0.116134 0.116134
0.129292 0.129292 0.129292
0.142645 0.142645 0.142645
0.156194 0.156194 0.156194
0.169939 0.169939 0.169939
0.183882 0.183882 0.183882
0.198023 0.198023 0.198023
0.212362 0.212362 0.212362
0.226899 0.226899 0.226899
0.241636 0.241636 0.241636
0.256572 0.256572 0.256572
0.271708 0.271708 0.271708
0.287044 0.287044 0.287044
0.302579 0.302579 0.302579
0.318314 0.318314 0.318314
0.334249 0.334249 0.334249
0.350383 0.350383 0.350383
0.366716 0.366716 0.366716
0.383248 0.383248 0.383248
0.399978 0.399978 0.399978
0.416906 0.416906 0.416906
0.434031 0.434031 0.434031
0.451352 0.451352 0.451352
0.468868 0.468868 0.468868
0.486578 0.486578 0.486578
0.504481 0.504481 0.504481
0.522576 0.522576 0.522576
0.540493 0.540493 0.540493
0.551027 0.551027 0.551027
0.561580 0.561580 0.561580
0.102697 0.102697 0.102697
0.115653 0.115653 0.115653
0.128804 0.128804 0.128804
0.142150 0.142150 0.142150
0.155692 0.155692 0.155692
0.169430 0.169430 0.169430
0.183366 0.183366 0.183366
0.197499 0.197499 0.197499
0.211831 0.211831 0.211831
0.226361 0.226361 0.226361
0.241090 0.241090 0.241090
0.256019 0.256019 0.256019
0.271148 0.271148 0.271148
0.286476 0.286476 0.286476
0.302004 0.302004 0.302004
0.317731 0.317731 0.317731
0.333659 0.333659 0.333659
0.349786 0.349786 0.349786
0.366111 0.366111 0.366111
0.382636 0.382636 0.382636
0.399359 0.399359 0.399359
0.416280 0.416280 0.416280
0.433397 0.433397 0.433397
0.450711 0.450711 0.450711
0.468220 0.468220 0.468220
0.485923 0.485923 0.485923
0.503819 0.503819 0.503819
0.521906 0.521906 0.521906
0.540106 0.540106 0.540106
0.550640 0.550640 0.550640
0.561191 0.561191 0.561191
0.571760 0.571760 0.571760
0.582345 0.582345 0.582345
0.128317 0.128317 0.128317
0.141656 0.141656 0.141656
0.155190 0.155190 0.155190
0.168921 0.168921 0.168921
0.182850 0.182850 0.182850
0.196976 0.196976 0.196976
0.211300 0.211300 0.211300
0.225823 0.225823 0.225823
0.240545 0.240545 0.240545
0.255467 0.255467 0.255467
0.270588 0.270588 0.270588
0.285908 0.285908 0.285908
0.301429 0.301429 0.301429
0.317149 0.317149 0.317149
0.333069 0.333069 0.333069
0.349189 0.349189 0.349189
0.365507 0.365507 0.365507
0.382025 0.382025 0.382025
0.398740 0.398740 0.398740
0.415654 0.415654 0.415654
0.432764 0.432764 0.432764
0.450071 0.450071 0.450071
0.467572 0.467572 0.467572
0.485268 0.485268 0.485268
0.503157 0.503157 0.503157
0.521238 0.521238 0.521238
0.539509 0.539509 0.539509
0.550252 0.550252 0.550252
0.560803 0.560803 0.560803
0.571371 0.571371 0.571371
0.581956 0.581956 0.581956
0.592556 0.592556 0.592556
0.603172 0.603172 0.603172
0.154689 0.154689 0.154689
0.168413 0.168413 0.168413
0.182334 0.182334 0.182334
0.196452 0.196452 0.196452
0.210769 0.210769 0.210769
0.225285 0.225285 0.225285
0.240000 0.240000 0.240000
0.254914 0.254914 0.254914
0.270028 0.270028 0.270028
0.285341 0.285341 0.285341
0.300854 0.300854 0.300854
0.316567 0.316567 0.316567
0.332480 0.332480 0.332480
0.348592 0.348592 0.348592
0.364903 0.364903 0.364903
0.381414 0.381414 0.381414
0.398122 0.398122 0.398122
0.415028 0.415028 0.415028
0.432131 0.432131 0.432131
0.449430 0.449430 0.449430
0.466925 0.466925 0.466925
0.484614 0.484614 0.484614
0.502496 0.502496 0.502496
0.520569 0.520569 0.520569
0.538833 0.538833 0.538833
0.549864 0.549864 0.549864
0.560414 0.560414 0.560414
0.570982 0.570982 0.570982
0.581566 0.581566 0.581566
0.592166 0.592166 0.592166
0.602782 0.602782 0.602782
0.613412 0.613412 0.613412
0.624057 0.624057 0.624057
0.181818 0.181818 0.181818
0.195929 0.195929 0.195929
0.210239 0.210239 0.210239
0.224748 0.224748 0.224748
0.239455 0.239455 0.239455
0.254362 0.254362 0.254362
0.269468 0.269468 0.269468
0.284774 0.284774 0.284774
0.300280 0.300280 0.300280
0.315986 0.315986 0.315986
0.331891 0.331891 0.331891
0.347996 0.347996 0.347996
0.364300 0.364300 0.364300
0.380803 0.380803 0.380803
0.397504 0.397504 0.397504
0.414403 0.414403 0.414403
0.431498 0.431498 0.431498
0.448790 0.448790 0.448790
0.466278 0.466278 0.466278
0.483960 0.483960 0.483960
0.501834 0.501834 0.501834
0.519901 0.519901 0.519901
0.538158 0.538158 0.538158
0.549476 0.549476 0.549476
0.560026 0.560026 0.560026
0.570593 0.570593 0.570593
0.581176 0.581176 0.581176
0.591776 0.591776 0.591776
0.602391 0.602391 0.602391
0.613021 0.613021 0.613021
0.623665 0.623665 0.623665
0.634323 0.634323 0.634323
0.644995 0.644995 0.644995
0.209709 0.209709 0.209709
0.224210 0.224210 0.224210
0.238910 0.238910 0.238910
0.253810 0.253810 0.253810
0.268909 0.268909 0.268909
0.284208 0.284208 0.284208
0.299706 0.299706 0.299706
0.315404 0.315404 0.315404
0.331302 0.331302 0.331302
0.347400 0.347400 0.347400
0.363697 0.363697 0.363697
0.380192 0.380192 0.380192
0.396886 0.396886 0.396886
0.413777 0.413777 0.413777
0.430866 0.430866 0.430866
0.448151 0.448151 0.448151
0.465631 0.465631 0.465631
0.483306 0.483306 0.483306
0.501173 0.501173 0.501173
0.519233 0.519233 0.519233
0.537483 0.537483 0.537483
0.549088 0.549088 0.549088
0.559637 0.559637 0.559637
0.570204 0.570204 0.570204
0.580787 0.580787 0.580787
0.591385 0.591385 0.591385
0.602000 0.602000 0.602000
0.612629 0.612629 0.612629
0.623273 0.623273 0.623273
0.633931 0.633931 0.633931
0.644602 0.644602 0.644602
0.655286 0.655286 0.655286
0.665982 0.665982 0.665982
0.238366 0.238366 0.238366
0.253258 0.253258 0.253258
0.268350 0.268350 0.268350
0.283641 0.283641 0.283641
0.299132 0.299132 0.299132
0.314823 0.314823 0.314823
0.330714 0.330714 0.330714
0.346804 0.346804 0.346804
0.363093 0.363093 0.363093
0.379582 0.379582 0.379582
0.396268 0.396268 0.396268
0.413152 0.413152 0.413152
0.430234 0.430234 0.430234
0.447511 0.447511 0.447511
0.464985 0.464985 0.464985
0.482652 0.482652 0.482652
0.500513 0.500513 0.500513
0.518565 0.518565 0.518565
0.536808 0.536808 0.536808
0.548701 0.548701 0.548701
0.559249 0.559249 0.559249
0.569815 0.569815 0.569815
0.580397 0.580397 0.580397
0.590995 0.590995 0.590995
0.601609 0.601609 0.601609
0.612238 0.612238 0.612238
0.622881 0.622881 0.622881
0.633539 0.633539 0.633539
0.644209 0.644209 0.644209
0.654892 0.654892 0.654892
0.665588 0.665588 0.665588
0.676295 0.676295 0.676295
0.687013 0.687013 0.687013
0.267791 0.267791 0.267791
0.283075 0.283075 0.283075
0.298559 0.298559 0.298559
0.314243 0.314243 0.314243
0.330126 0.330126 0.330126
0.346209 0.346209 0.346209
0.362491 0.362491 0.362491
0.378972 0.378972 0.378972
0.395651 0.395651 0.395651
0.412528 0.412528 0.412528
0.429602 0.429602 0.429602
0.446872 0.446872 0.446872
0.464338 0.464338 0.464338
0.481999 0.481999 0.481999
0.499852 0.499852 0.499852
0.517897 0.517897 0.517897
0.536133 0.536133 0.536133
0.548313 0.548313 0.548313
0.558861 0.558861 0.558861
0.569426 0.569426 0.569426
0.580007 0.580007 0.580007
0.590605 0.590605 0.590605
0.601218 0.601218 0.601218
0.611847 0.611847 0.611847
0.622490 0.622490 0.622490
0.633146 0.633146 0.633146
0.643816 0.643816 0.643816
0.654499 0.654499 0.654499
0.665194 0.665194 0.665194
0.675901 0.675901 0.675901
0.686618 0.686618 0.686618
0.697346 0.697346 0.697346
0.708084 0.708084 0.708084
0.297986 0.297986 0.297986
0.313662 0.313662 0.313662
0.329538 0.329538 0.329538
0.345613 0.345613 0.345613
0.361888 0.361888 0.361888
0.378362 0.378362 0.378362
0.395034 0.395034 0.395034
0.411903 0.411903 0.411903
0.428970 0.428970 0.428970
0.446234 0.446234 0.446234
0.463692 0.463692 0.463692
0.481345 0.481345 0.481345
0.499192 0.499192 0.499192
0.517230 0.517230 0.517230
0.535459 0.535459 0.535459
0.547925 0.547925 0.547925
0.558472 0.558472 0.558472
0.569037 0.569037 0.569037
0.579618 0.579618 0.579618
0.590215 0.590215 0.590215
0.600828 0.600828 0.600828
0.611456 0.611456 0.611456
0.622098 0.622098 0.622098
0.632754 0.632754 0.632754
0.643424 0.643424 0.643424
0.654106 0.654106 0.654106
0.664800 0.664800 0.664800
0.675507 0.675507 0.675507
0.686224 0.686224 0.686224
0.696952 0.696952 0.696952
0.707689 0.707689 0.707689
0.718436 0.718436 0.718436
0.729192 0.729192 0.729192
0.328950 0.328950 0.328950
0.345018 0.345018 0.345018
0.361286 0.361286 0.361286
0.377752 0.377752 0.377752
0.394417 0.394417 0.394417
0.411279 0.411279 0.411279
0.428339 0.428339 0.428339
0.445595 0.445595 0.445595
0.463047 0.463047 0.463047
0.480693 0.480693 0.480693
0.498532 0.498532 0.498532
0.516563 0.516563 0.516563
0.534785 0.534785 0.534785
0.547537 0.547537 0.547537
0.558084 0.558084 0.558084
0.568648 0.568648 0.568648
0.579228 0.579228 0.579228
0.589825 0.589825 0.589825
0.600437 0.600437 0.600437
0.611064 0.611064 0.611064
0.621706 0.621706 0.621706
0.632362 0.632362 0.632362
0.643031 0.643031 0.643031
0.653713 0.653713 0.653713
0.664407 0.664407 0.664407
0.675113 0.675113 0.675113
0.685829 0.685829 0.685829
0.696557 0.696557 0.696557
0.707294 0.707294 0.707294
0.718041 0.718041 0.718041
0.728796 0.728796 0.728796
0.739559 0.739559 0.739559
0.750330 0.750330 0.750330
0.360684 0.360684 0.360684
0.377143 0.377143 0.377143
0.393800 0.393800 0.393800
0.410655 0.410655 0.410655
0.427708 0.427708 0.427708
0.444957 0.444957 0.444957
0.462401 0.462401 0.462401
0.480040 0.480040 0.480040
0.497872 0.497872 0.497872
0.515896 0.515896 0.515896
0.534111 0.534111 0.534111
0.547150 0.547150 0.547150
0.557696 0.557696 0.557696
0.568259 0.568259 0.568259
0.578839 0.578839 0.578839
0.589435 0.589435 0.589435
0.600046 0.600046 0.600046
0.610673 0.610673 0.610673
0.621314 0.621314 0.621314
0.631970 0.631970 0.631970
0.642638 0.642638 0.642638
0.653320 0.653320 0.653320
0.664013 0.664013 0.664013
0.674718 0.674718 0.674718
0.685435 0.685435 0.685435
0.696162 0.696162 0.696162
0.706899 0.706899 0.706899
0.717645 0.717645 0.717645
0.728400 0.728400 0.728400
0.739163 0.739163 0.739163
0.749934 0.749934 0.749934
0.760712 0.760712 0.760712
0.771496 0.771496 0.771496
0.393184 0.393184 0.393184
0.410032 0.410032 0.410032
0.427077 0.427077 0.427077
0.444319 0.444319 0.444319
0.461756 0.461756 0.461756
0.479388 0.479388 0.479388
0.497213 0.497213 0.497213
0.515230 0.515230 0.515230
0.533438 0.533438 0.533438
0.546762 0.546762 0.546762
0.557307 0.557307 0.557307
0.567870 0.567870 0.567870
0.578449 0.578449 0.578449
0.589045 0.589045 0.589045
0.599656 0.599656 0.599656
0.610282 0.610282 0.610282
0.620923 0.620923 0.620923
0.631577 0.631577 0.631577
0.642245 0.642245 0.642245
0.652926 0.652926 0.652926
0.663620 0.663620 0.663620
0.674324 0.674324 0.674324
0.685040 0.685040 0.685040
0.695767 0.695767 0.695767
0.706504 0.706504 0.706504
0.717250 0.717250 0.717250
0.728004 0.728004 0.728004
0.738767 0.738767 0.738767
0.749538 0.749538 0.749538
0.760315 0.760315 0.760315
0.771099 0.771099 0.771099
0.781889 0.781889 0.781889
0.792684 0.792684 0.792684
0.426446 0.426446 0.426446
0.443681 0.443681 0.443681
0.461111 0.461111 0.461111
0.478735 0.478735 0.478735
0.496553 0.496553 0.496553
0.514564 0.514564 0.514564
0.532765 0.532765 0.532765
0.546375 0.546375 0.546375
0.556919 0.556919 0.556919
0.567481 0.567481 0.567481
0.578060 0.578060 0.578060
0.588654 0.588654 0.588654
0.599265 0.599265 0.599265
0.609891 0.609891 0.609891
0.620531 0.620531 0.620531
0.631185 0.631185 0.631185
0.641853 0.641853 0.641853
0.652533 0.652533 0.652533
0.663226 0.663226 0.663226
0.673930 0.673930 0.673930
0.684646 0.684646 0.684646
0.695372 0.695372 0.695372
0.706108 0.706108 0.706108
0.716854 0.716854 0.716854
0.727608 0.727608 0.727608
0.738371 0.738371 0.738371
0.749141 0.749141 0.749141
0.759919 0.759919 0.759919
0.770702 0.770702 0.770702
0.781492 0.781492 0.781492
0.792287 0.792287 0.792287
0.803086 0.803086 0.803086
0.813890 0.813890 0.813890
0.460466 0.460466 0.460466
0.478084 0.478084 0.478084
0.495895 0.495895 0.495895
0.513898 0.513898 0.513898
0.532092 0.532092 0.532092
0.545987 0.545987 0.545987
0.556531 0.556531 0.556531
0.567092 0.567092 0.567092
0.577670 0.577670 0.577670
0.588264 0.588264 0.588264
0.598874 0.598874 0.598874
0.609499 0.609499 0.609499
0.620139 0.620139 0.620139
0.630793 0.630793 0.630793
0.641460 0.641460 0.641460
0.652140 0.652140 0.652140
0.662832 0.662832 0.662832
0.673536 0.673536 0.673536
0.684252 0.684252 0.684252
0.694977 0.694977 0.694977
0.705713 0.705713 0.705713
0.716459 0.716459 0.716459
0.727213 0.727213 0.727213
0.737975 0.737975 0.737975
0.748745 0.748745 0.748745
0.759522 0.759522 0.759522
0.770305 0.770305 0.770305
0.781095 0.781095 0.781095
0.791889 0.791889 0.791889
0.802689 0.802689 0.802689
0.813492 0.813492 0.813492
0.824299 0.824299 0.824299
0.835108 0.835108 0.835108
0.495236 0.495236 0.495236
0.513232 0.513232 0.513232
0.531419 0.531419 0.531419
0.545599 0.545599 0.545599
0.556143 0.556143 0.556143
0.566703 0.566703 0.566703
0.577281 0.577281 0.577281
0.587874 0.587874 0.587874
0.598484 0.598484 0.598484
0.609108 0.609108 0.609108
0.619747 0.619747 0.619747
0.630401 0.630401 0.630401
0.641067 0.641067 0.641067
0.651747 0.651747 0.651747
0.662439 0.662439 0.662439
0.673142 0.673142 0.673142
0.683857 0.683857 0.683857
0.694583 0.694583 0.694583
0.705318 0.705318 0.705318
0.716063 0.716063 0.716063
0.726817 0.726817 0.726817
0.737579 0.737579 0.737579
0.748349 0.748349 0.748349
0.759125 0.759125 0.759125
0.769909 0.769909 0.769909
0.780698 0.780698 0.780698
0.791492 0.791492 0.791492
0.802291 0.802291 0.802291
0.813094 0.813094 0.813094
