flutter_app/assets/lut/cameras/bw_trix400.cube
TITLE "BW Classic"
LUT_3D_SIZE 5
0.000000 0.000000 0.000000
0.000000 0.000000 0.000000
0.000000 0.000000 0.000000
0.083352 0.083352 0.083352
0.190100 0.190100 0.190100
0.000000 0.000000 0.000000
0.079662 0.079662 0.079662
0.185951 0.185951 0.185951
0.304882 0.304882 0.304882
0.436567 0.436567 0.436567
0.181818 0.181818 0.181818
0.300280 0.300280 0.300280
0.431498 0.431498 0.431498
0.560026 0.560026 0.560026
0.644995 0.644995 0.644995
0.426446 0.426446 0.426446
0.556919 0.556919 0.556919
0.641853 0.641853 0.641853
0.727608 0.727608 0.727608
0.813890 0.813890 0.813890
0.638712 0.638712 0.638712
0.724442 0.724442 0.724442
0.810710 0.810710 0.810710
0.897206 0.897206 0.897206
0.983612 0.983612 0.983612
0.000000 0.000000 0.000000
0.000000 0.000000 0.000000
0.023487 0.023487 0.023487
0.122578 0.122578 0.122578
0.234120 0.234120 0.234120
0.020073 0.020073 0.020073
0.118715 0.118715 0.118715
0.229792 0.229792 0.229792
0.353590 0.353590 0.353590
0.490095 0.490095 0.490095
0.225481 0.225481 0.225481
0.348809 0.348809 0.348809
0.484852 0.484852 0.484852
0.592308 0.592308 0.592308
0.677621 0.677621 0.677621
0.479625 0.479625 0.479625
0.589186 0.589186 0.589186
0.674468 0.674468 0.674468
0.760459 0.760459 0.760459
0.846860 0.846860 0.846860
0.671316 0.671316 0.671316
0.757287 0.757287 0.757287
0.843678 0.843678 0.843678
0.930178 0.930178 0.930178
1.000000 1.000000 1.000000
0.000000 0.000000 0.000000
0.000000 0.000000 0.000000
0.059827 0.059827 0.059827
0.163617 0.163617 0.163617
0.279992 0.279992 0.279992
0.056243 0.056243 0.056243
0.159577 0.159577 0.159577
0.275485 0.275485 0.275485
0.404149 0.404149 0.404149
0.543098 0.543098 0.543098
0.270995 0.270995 0.270995
0.399190 0.399190 0.399190
0.540000 0.540000 0.540000
0.624734 0.624734 0.624734
0.710348 0.710348 0.710348
0.534601 0.534601 0.534601
0.621599 0.621599 0.621599
0.707186 0.707186 0.707186
0.793370 0.793370 0.793370
0.879845 0.879845 0.879845
0.704025 0.704025 0.704025
0.790192 0.790192 0.790192
0.876662 0.876662 0.876662
0.963119 0.963119 0.963119
1.000000 1.000000 1.000000
0.000000 0.000000 0.000000
0.001735 0.001735 0.001735
0.097937 0.097937 0.097937
0.206487 0.206487 0.206487
0.327723 0.327723 0.327723
0.094181 0.094181 0.094181
0.202270 0.202270 0.202270
0.323036 0.323036 0.323036
0.456545 0.456545 0.456545
0.575298 0.575298 0.575298
0.318367 0.318367 0.318367
0.451410 0.451410 0.451410
0.572184 0.572184 0.572184
0.657288 0.657288 0.657288
0.743161 0.743161 0.743161
0.569072 0.569072 0.569072
0.654142 0.654142 0.654142
0.739991 0.739991 0.739991
0.826323 0.826323 0.826323
0.912827 0.912827 0.912827
0.736823 0.736823 0.736823
0.823142 0.823142 0.823142
0.909645 0.909645 0.909645
0.996011 0.996011 0.996011
1.000000 1.000000 1.000000
0.000000 0.000000 0.000000
0.036988 0.036988 0.036988
0.137844 0.137844 0.137844
0.251204 0.251204 0.251204
0.377309 0.377309 0.377309
0.133914 0.133914 0.133914
0.246809 0.246809 0.246809
0.372444 0.372444 0.372444
0.510753 0.510753 0.510753
0.607651 0.607651 0.607651
0.367596 0.367596 0.367596
0.505444 0.505444 0.505444
0.604523 0.604523 0.604523
0.689954 0.689954 0.689954
0.776042 0.776042 0.776042
0.601396 0.601396 0.601396
0.686798 0.686798 0.686798
0.772867 0.772867 0.772867
0.859301 0.859301 0.859301
0.945787 0.945787 0.945787
0.769692 0.769692 0.769692
0.856119 0.856119 0.856119
0.942608 0.942608 0.942608
1.000000 1.000000 1.000000
1.000000 1.000000 1.000000
