flutter_app/assets/lut/cameras/ccd_m.cube
TITLE "CCD M"
# DAZZ Camera LUT - CCD M
# Generated for DAZZ retro camera app
LUT_3D_SIZE 9
DOMAIN_MIN 0.0 0.0 0.0
DOMAIN_MAX 1.0 1.0 1.0
0.000000 0.000000 0.022503
0.077178 0.000000 0.017291
0.220483 0.000000 0.012488
0.360630 0.000000 0.007790
0.501686 0.000000 0.003063
0.641055 0.000000 0.000000
0.779093 0.000000 0.000000
0.910352 0.000000 0.000000
1.000000 0.000000 0.000000
0.000000 0.117216 0.005112
0.059786 0.112004 0.000000
0.203091 0.107200 0.000000
0.343239 0.102503 0.000000
0.484295 0.097775 0.000000
0.623663 0.093104 0.000000
0.761701 0.088477 0.000000
0.892960 0.084078 0.000000
1.000000 0.079747 0.000000
0.000000 0.258356 0.000000
0.042503 0.253144 0.000000
0.185807 0.248340 0.000000
0.325955 0.243643 0.000000
0.467011 0.238915 0.000000
0.606379 0.234244 0.000000
0.744418 0.229617 0.000000
0.875677 0.225218 0.000000
1.000000 0.220887 0.000000
0.000000 0.401587 0.000000
0.024963 0.396375 0.000000
0.168267 0.391572 0.000000
0.308415 0.386875 0.000000
0.449471 0.382147 0.000000
0.588839 0.377476 0.000000
0.726878 0.372849 0.000000
0.858137 0.368449 0.000000
0.987347 0.364119 0.000000
0.000000 0.546346 0.000000
0.007236 0.541134 0.000000
0.150540 0.536331 0.000000
0.290688 0.531634 0.000000
0.431744 0.526906 0.000000
0.571112 0.522235 0.000000
0.709151 0.517608 0.000000
0.840410 0.513208 0.000000
0.969620 0.508878 0.000000
0.000000 0.691106 0.000000
0.000000 0.685893 0.000000
0.132813 0.681090 0.000000
0.272961 0.676393 0.000000
0.414017 0.671665 0.000000
0.553385 0.666994 0.000000
0.691424 0.662367 0.000000
0.822683 0.657967 0.000000
0.951893 0.653637 0.000000
0.000000 0.830993 0.000000
0.000000 0.825781 0.000000
0.115683 0.820978 0.000000
0.255831 0.816280 0.000000
0.396887 0.811552 0.000000
0.536255 0.806881 0.000000
0.674293 0.802254 0.000000
0.805553 0.797855 0.000000
0.934762 0.793524 0.000000
0.000000 0.968514 0.000000
0.000000 0.963302 0.000000
0.098842 0.958499 0.000000
0.238990 0.953801 0.000000
0.380046 0.949073 0.000000
0.519414 0.944402 0.000000
0.657453 0.939776 0.000000
0.788712 0.935376 0.000000
0.917922 0.931045 0.000000
0.000000 1.000000 0.000000
0.000000 1.000000 0.000000
0.084344 1.000000 0.000000
0.224492 1.000000 0.000000
0.365548 1.000000 0.000000
0.504916 1.000000 0.000000
0.642955 1.000000 0.000000
0.774214 1.000000 0.000000
0.903424 1.000000 0.000000
0.000000 0.000000 0.181038
0.075412 0.000000 0.175826
0.218717 0.000000 0.171023
0.358865 0.000000 0.166325
0.499921 0.000000 0.161598
0.639289 0.000000 0.156926
0.777327 0.000000 0.152300
0.908587 0.000000 0.147900
1.000000 0.000000 0.143569
0.000000 0.115450 0.163647
0.058021 0.110238 0.158435
0.201326 0.105435 0.153631
0.341473 0.100738 0.148934
0.482529 0.096010 0.144206
0.621898 0.091338 0.139535
0.759936 0.086712 0.134908
0.891195 0.082312 0.130509
1.000000 0.077981 0.126178
0.000000 0.256590 0.146363
0.040737 0.251378 0.141151
0.184042 0.246575 0.136348
0.324189 0.241878 0.131650
0.465245 0.237150 0.126922
0.604614 0.232478 0.122251
0.742652 0.227852 0.117624
0.873911 0.223452 0.113225
1.000000 0.219121 0.108894
0.000000 0.399822 0.128823
0.023197 0.394610 0.123611
0.166502 0.389807 0.118808
0.306649 0.385109 0.114110
0.447705 0.380381 0.109382
0.587074 0.375710 0.104711
0.725112 0.371083 0.100084
0.856371 0.366684 0.095685
0.985581 0.362353 0.091354
0.000000 0.544581 0.111096
0.005470 0.539369 0.105884
0.148775 0.534566 0.101081
0.288923 0.529868 0.096383
0.429978 0.525140 0.091655
0.569347 0.520469 0.086984
0.707385 0.515842 0.082357
0.838644 0.511443 0.077958
0.967854 0.507112 0.073627
0.000000 0.689340 0.093369
0.000000 0.684128 0.088157
0.131048 0.679325 0.083354
0.271196 0.674627 0.078656
0.412252 0.669899 0.073928
0.551620 0.665228 0.069257
0.689658 0.660601 0.064631
0.820917 0.656202 0.060231
0.950127 0.651871 0.055900
0.000000 0.829228 0.076239
0.000000 0.824015 0.071027
0.113918 0.819212 0.066223
0.254065 0.814515 0.061526
0.395121 0.809787 0.056798
0.534490 0.805116 0.052127
0.672528 0.800489 0.047500
0.803787 0.796089 0.043101
0.932997 0.791759 0.038770
0.000000 0.966749 0.059398
0.000000 0.961536 0.054186
0.097077 0.956733 0.049383
0.237225 0.952036 0.044685
0.378281 0.947308 0.039958
0.517649 0.942637 0.035286
0.655687 0.938010 0.030660
0.786946 0.933611 0.026260
0.916156 0.929280 0.021929
0.000000 1.000000 0.044900
0.000000 1.000000 0.039688
0.082579 1.000000 0.034885
0.222726 1.000000 0.030187
0.363782 1.000000 0.025459
0.503151 1.000000 0.020788
0.641189 1.000000 0.016161
0.772448 1.000000 0.011762
0.901658 1.000000 0.007431
0.000000 0.000000 0.348520
0.073547 0.000000 0.343308
0.216852 0.000000 0.338505
0.357000 0.000000 0.333807
0.498055 0.000000 0.329080
0.637424 0.000000 0.324408
0.775462 0.000000 0.319782
0.906721 0.000000 0.315382
1.000000 0.000000 0.311051
0.000000 0.113585 0.331129
0.056156 0.108373 0.325917
0.199460 0.103570 0.321113
0.339608 0.098872 0.316416
0.480664 0.094145 0.311688
0.620032 0.089473 0.307017
0.758071 0.084847 0.302390
0.889330 0.080447 0.297991
1.000000 0.076116 0.293660
0.000000 0.254725 0.313845
0.038872 0.249513 0.308633
0.182177 0.244710 0.303830
0.322324 0.240012 0.299132
0.463380 0.235285 0.294404
0.602749 0.230613 0.289733
0.740787 0.225987 0.285106
0.872046 0.221587 0.280707
1.000000 0.217256 0.276376
0.000000 0.397957 0.296305
0.021332 0.392745 0.291093
0.164637 0.387941 0.286290
0.304784 0.383244 0.281592
0.445840 0.378516 0.276864
0.585209 0.373845 0.272193
0.723247 0.369218 0.267566
0.854506 0.364819 0.263167
0.983716 0.360488 0.258836
0.000000 0.542716 0.278578
0.003605 0.537504 0.273366
0.146910 0.532700 0.268563
0.287057 0.528003 0.263865
0.428113 0.523275 0.259137
0.567482 0.518604 0.254466
0.705520 0.513977 0.249839
0.836779 0.509578 0.245440
0.965989 0.505247 0.241109
0.000000 0.687475 0.260851
0.000000 0.682263 0.255639
0.129183 0.677460 0.250836
0.269330 0.672762 0.246138
0.410386 0.668034 0.241411
0.549755 0.663363 0.236739
0.687793 0.658736 0.232113
0.819052 0.654337 0.227713
0.948262 0.650006 0.223382
0.000000 0.827362 0.243721
0.000000 0.822150 0.238509
0.112052 0.817347 0.233705
0.252200 0.812650 0.229008
0.393256 0.807922 0.224280
0.532624 0.803251 0.219609
0.670663 0.798624 0.214982
0.801922 0.794224 0.210583
0.931132 0.789894 0.206252
0.000000 0.964884 0.226880
0.000000 0.959671 0.221668
0.095212 0.954868 0.216865
0.235360 0.950171 0.212167
0.376415 0.945443 0.207440
0.515784 0.940772 0.202768
0.653822 0.936145 0.198142
0.785081 0.931745 0.193742
0.914291 0.927415 0.189411
0.000000 1.000000 0.212382
0.000000 1.000000 0.207170
0.080714 1.000000 0.202367
0.220861 1.000000 0.197669
0.361917 1.000000 0.192941
0.501286 1.000000 0.188270
0.639324 1.000000 0.183643
0.770583 1.000000 0.179244
0.899793 1.000000 0.174913
0.000000 0.000000 0.524539
0.071587 0.000000 0.519327
0.214892 0.000000 0.514524
0.355039 0.000000 0.509826
0.496095 0.000000 0.505098
0.635464 0.000000 0.500427
0.773502 0.000000 0.495800
0.904761 0.000000 0.491401
1.000000 0.000000 0.487070
0.000000 0.111625 0.507148
0.054196 0.106413 0.501935
0.197500 0.101610 0.497132
0.337648 0.096912 0.492435
0.478704 0.092184 0.487707
0.618072 0.087513 0.483036
0.756111 0.082886 0.478409
0.887370 0.078487 0.474009
1.000000 0.074156 0.469679
0.000000 0.252765 0.489864
0.036912 0.247553 0.484652
0.180216 0.242750 0.479848
0.320364 0.238052 0.475151
0.461420 0.233324 0.470423
0.600788 0.228653 0.465752
0.738827 0.224026 0.461125
0.870086 0.219627 0.456726
0.999296 0.215296 0.452395
0.000000 0.395997 0.472324
0.019372 0.390784 0.467112
0.162677 0.385981 0.462309
0.302824 0.381284 0.457611
0.443880 0.376556 0.452883
0.583249 0.371885 0.448212
0.721287 0.367258 0.443585
0.852546 0.362859 0.439186
0.981756 0.358528 0.434855
0.000000 0.540756 0.454597
0.001645 0.535544 0.449385
0.144950 0.530740 0.444582
0.285097 0.526043 0.439884
0.426153 0.521315 0.435156
0.565522 0.516644 0.430485
0.703560 0.512017 0.425858
0.834819 0.507618 0.421459
0.964029 0.503287 0.417128
0.000000 0.685515 0.436870
0.000000 0.680303 0.431658
0.127223 0.675499 0.426855
0.267370 0.670802 0.422157
0.408426 0.666074 0.417429
0.547795 0.661403 0.412758
0.685833 0.656776 0.408131
0.817092 0.652377 0.403732
0.946302 0.648046 0.399401
0.000000 0.825402 0.419740
0.000000 0.820190 0.414527
0.110092 0.815387 0.409724
0.250240 0.810689 0.405027
0.391296 0.805962 0.400299
0.530664 0.801290 0.395628
0.668703 0.796664 0.391001
0.799962 0.792264 0.386602
0.929171 0.787933 0.382271
0.000000 0.962923 0.402899
0.000000 0.957711 0.397687
0.093252 0.952908 0.392884
0.233399 0.948211 0.388186
0.374455 0.943483 0.383458
0.513824 0.938811 0.378787
0.651862 0.934185 0.374160
0.783121 0.929785 0.369761
0.912331 0.925454 0.365430
0.000000 1.000000 0.388401
0.000000 1.000000 0.383189
0.078754 1.000000 0.378386
0.218901 1.000000 0.373688
0.359957 1.000000 0.368960
0.499326 1.000000 0.364289
0.637364 1.000000 0.359662
0.768623 1.000000 0.355263
0.897833 1.000000 0.350932
0.000000 0.000000 0.703782
0.069591 0.000000 0.698569
0.212896 0.000000 0.693766
0.353043 0.000000 0.689069
0.494099 0.000000 0.684341
0.633468 0.000000 0.679670
0.771506 0.000000 0.675043
0.902765 0.000000 0.670644
1.000000 0.000000 0.666313
0.000000 0.109629 0.686390
0.052200 0.104417 0.681178
0.195504 0.099614 0.676375
0.335652 0.094916 0.671677
0.476708 0.090188 0.666950
0.616076 0.085517 0.662278
0.754115 0.080890 0.657652
0.885374 0.076491 0.653252
1.000000 0.072160 0.648921
0.000000 0.250769 0.669106
0.034916 0.245557 0.663894
0.178220 0.240754 0.659091
0.318368 0.236056 0.654394
0.459424 0.231328 0.649666
0.598792 0.226657 0.644994
0.736831 0.222030 0.640368
0.868090 0.217631 0.635968
0.997300 0.213300 0.631637
0.000000 0.394001 0.651566
0.017376 0.388788 0.646354
0.160680 0.383985 0.641551
0.300828 0.379288 0.636854
0.441884 0.374560 0.632126
0.581253 0.369889 0.627455
0.719291 0.365262 0.622828
0.850550 0.360862 0.618428
0.979760 0.356532 0.614098
0.000000 0.538760 0.633840
0.000000 0.533547 0.628627
0.142954 0.528744 0.623824
0.283101 0.524047 0.619127
0.424157 0.519319 0.614399
0.563526 0.514648 0.609728
0.701564 0.510021 0.605101
0.832823 0.505622 0.600701
0.962033 0.501291 0.596371
0.000000 0.683519 0.616113
0.000000 0.678306 0.610900
0.125227 0.673503 0.606097
0.265374 0.668806 0.601400
0.406430 0.664078 0.596672
0.545799 0.659407 0.592001
0.683837 0.654780 0.587374
0.815096 0.650381 0.582974
0.944306 0.646050 0.578644
0.000000 0.823406 0.598982
0.000000 0.818194 0.593770
0.108096 0.813391 0.588967
0.248244 0.808693 0.584269
0.389300 0.803966 0.579542
0.528668 0.799294 0.574870
0.666707 0.794668 0.570244
0.797966 0.790268 0.565844
0.927175 0.785937 0.561513
0.000000 0.960927 0.582142
0.000000 0.955715 0.576929
0.091256 0.950912 0.572126
0.231403 0.946214 0.567429
0.372459 0.941487 0.562701
0.511828 0.936815 0.558030
0.649866 0.932189 0.553403
0.781125 0.927789 0.549004
0.910335 0.923458 0.544673
0.000000 1.000000 0.567643
0.000000 1.000000 0.562431
0.076757 1.000000 0.557628
0.216905 1.000000 0.552931
0.357961 1.000000 0.548203
0.497330 1.000000 0.543532
0.635368 1.000000 0.538905
0.766627 1.000000 0.534505
0.895837 1.000000 0.530175
0.000000 0.000000 0.882220
0.067604 0.000000 0.877008
0.210909 0.000000 0.872205
0.351056 0.000000 0.867508
0.492112 0.000000 0.862780
0.631481 0.000000 0.858109
0.769519 0.000000 0.853482
0.900778 0.000000 0.849082
1.000000 0.000000 0.844752
0.000000 0.107642 0.864829
0.050212 0.102430 0.859617
0.193517 0.097626 0.854814
0.333665 0.092929 0.850116
0.474721 0.088201 0.845388
0.614089 0.083530 0.840717
0.752127 0.078903 0.836090
0.883386 0.074504 0.831691
1.000000 0.070173 0.827360
0.000000 0.248782 0.847545
0.032929 0.243570 0.842333
0.176233 0.238766 0.837530
0.316381 0.234069 0.832832
0.457437 0.229341 0.828105
0.596805 0.224670 0.823433
0.734844 0.220043 0.818807
0.866103 0.215644 0.814407
0.995312 0.211313 0.810076
0.000000 0.392013 0.830005
0.015389 0.386801 0.824793
0.158693 0.381998 0.819990
0.298841 0.377301 0.815292
0.439897 0.372573 0.810565
0.579265 0.367902 0.805893
0.717304 0.363275 0.801267
0.848563 0.358875 0.796867
0.977773 0.354545 0.792536
0.000000 0.536772 0.812278
0.000000 0.531560 0.807066
0.140966 0.526757 0.802263
0.281114 0.522060 0.797566
0.422170 0.517332 0.792838
0.561538 0.512661 0.788166
0.699577 0.508034 0.783540
0.830836 0.503634 0.779140
0.960046 0.499304 0.774809
0.000000 0.681532 0.794551
0.000000 0.676319 0.789339
0.123239 0.671516 0.784536
0.263387 0.666819 0.779839
0.404443 0.662091 0.775111
0.543811 0.657420 0.770439
0.681850 0.652793 0.765813
0.813109 0.648393 0.761413
0.942319 0.644063 0.757083
0.000000 0.821419 0.777421
0.000000 0.816207 0.772209
0.106109 0.811404 0.767406
0.246257 0.806706 0.762708
0.387313 0.801978 0.757980
0.526681 0.797307 0.753309
0.664719 0.792680 0.748682
0.795979 0.788281 0.744283
0.925188 0.783950 0.739952
0.000000 0.958940 0.760580
0.000000 0.953728 0.755368
0.089268 0.948925 0.750565
0.229416 0.944227 0.745868
0.370472 0.939499 0.741140
0.509840 0.934828 0.736468
0.647879 0.930202 0.731842
0.779138 0.925802 0.727442
0.908348 0.921471 0.723112
0.000000 1.000000 0.746082
0.000000 1.000000 0.740870
0.074770 1.000000 0.736067
0.214918 1.000000 0.731369
0.355974 1.000000 0.726642
0.495342 1.000000 0.721970
0.633381 1.000000 0.717344
0.764640 1.000000 0.712944
0.893850 1.000000 0.708613
0.000000 0.000000 1.000000
0.065663 0.000000 1.000000
0.208968 0.000000 1.000000
0.349116 0.000000 1.000000
0.490171 0.000000 1.000000
0.629540 0.000000 1.000000
0.767578 0.000000 1.000000
0.898837 0.000000 1.000000
1.000000 0.000000 1.000000
0.000000 0.105701 1.000000
0.048272 0.100489 1.000000
0.191576 0.095686 1.000000
0.331724 0.090988 1.000000
0.472780 0.086261 1.000000
0.612148 0.081589 1.000000
0.750187 0.076963 1.000000
0.881446 0.072563 1.000000
1.000000 0.068232 1.000000
0.000000 0.246841 1.000000
0.030988 0.241629 1.000000
0.174293 0.236826 1.000000
0.314440 0.232128 1.000000
0.455496 0.227401 1.000000
0.594865 0.222729 0.997697
0.732903 0.218103 0.993071
0.864162 0.213703 0.988671
0.993372 0.209372 0.984340
0.000000 0.390073 1.000000
0.013448 0.384861 0.999057
0.156753 0.380057 0.994254
0.296900 0.375360 0.989557
0.437956 0.370632 0.984829
0.577325 0.365961 0.980157
0.715363 0.361334 0.975531
0.846622 0.356935 0.971131
0.975832 0.352604 0.966800
0.000000 0.534832 0.986542
0.000000 0.529620 0.981330
0.139026 0.524816 0.976527
0.279173 0.520119 0.971830
0.420229 0.515391 0.967102
0.559598 0.510720 0.962430
0.697636 0.506093 0.957804
0.828895 0.501694 0.953404
0.958105 0.497363 0.949073
0.000000 0.679591 0.968815
0.000000 0.674379 0.963603
0.121299 0.669576 0.958800
0.261446 0.664878 0.954103
0.402502 0.660150 0.949375
0.541871 0.655479 0.944703
0.679909 0.650852 0.940077
0.811168 0.646453 0.935677
0.940378 0.642122 0.931347
0.000000 0.819478 0.951685
0.000000 0.814266 0.946473
0.104168 0.809463 0.941670
0.244316 0.804766 0.936972
0.385372 0.800038 0.932244
0.524740 0.795366 0.927573
0.662779 0.790740 0.922946
0.794038 0.786340 0.918547
0.923248 0.782010 0.914216
0.000000 0.956999 0.934844
0.000000 0.951787 0.929632
0.087328 0.946984 0.924829
0.227475 0.942287 0.920132
0.368531 0.937559 0.915404
0.507900 0.932888 0.910732
0.645938 0.928261 0.906106
0.777197 0.923861 0.901706
0.906407 0.919531 0.897376
0.000000 1.000000 0.920346
0.000000 1.000000 0.915134
0.072830 1.000000 0.910331
0.212977 1.000000 0.905634
0.354033 1.000000 0.900906
0.493402 1.000000 0.896234
0.631440 1.000000 0.891608
0.762699 1.000000 0.887208
0.891909 1.000000 0.882877
0.000000 0.000000 1.000000
0.063661 0.000000 1.000000
0.206966 0.000000 1.000000
0.347113 0.000000 1.000000
0.488169 0.000000 1.000000
0.627538 0.000000 1.000000
0.765576 0.000000 1.000000
0.896835 0.000000 1.000000
1.000000 0.000000 1.000000
0.000000 0.103699 1.000000
0.046269 0.098487 1.000000
0.189574 0.093683 1.000000
0.329722 0.088986 1.000000
0.470778 0.084258 1.000000
0.610146 0.079587 1.000000
0.748184 0.074960 1.000000
0.879444 0.070561 1.000000
1.000000 0.066230 1.000000
0.000000 0.244839 1.000000
0.028986 0.239627 1.000000
0.172290 0.234823 1.000000
0.312438 0.230126 1.000000
0.453494 0.225398 1.000000
0.592862 0.220727 1.000000
0.730901 0.216100 1.000000
0.862160 0.211701 1.000000
0.991369 0.207370 1.000000
0.000000 0.388070 1.000000
0.011446 0.382858 1.000000
0.154750 0.378055 1.000000
0.294898 0.373358 1.000000
0.435954 0.368630 1.000000
0.575322 0.363959 1.000000
0.713361 0.359332 1.000000
0.844620 0.354932 1.000000
0.973830 0.350602 1.000000
0.000000 0.532829 1.000000
0.000000 0.527617 1.000000
0.137023 0.522814 1.000000
0.277171 0.518117 1.000000
0.418227 0.513389 1.000000
0.557595 0.508718 1.000000
0.695634 0.504091 1.000000
0.826893 0.499691 1.000000
0.956103 0.495361 1.000000
0.000000 0.677589 1.000000
0.000000 0.672376 1.000000
0.119296 0.667573 1.000000
0.259444 0.662876 1.000000
0.400500 0.658148 1.000000
0.539868 0.653477 1.000000
0.677907 0.648850 1.000000
0.809166 0.644450 1.000000
0.938376 0.640120 1.000000
0.000000 0.817476 1.000000
0.000000 0.812264 1.000000
0.102166 0.807461 1.000000
0.242314 0.802763 1.000000
0.383370 0.798035 1.000000
0.522738 0.793364 1.000000
0.660776 0.788737 1.000000
0.792036 0.784338 1.000000
0.921245 0.780007 1.000000
0.000000 0.954997 1.000000
0.000000 0.949785 1.000000
0.085325 0.944982 1.000000
0.225473 0.940284 1.000000
0.366529 0.935557 1.000000
0.505897 0.930885 1.000000
0.643936 0.926259 1.000000
0.775195 0.921859 1.000000
0.904405 0.917528 1.000000
0.000000 1.000000 1.000000
0.000000 1.000000 1.000000
0.070827 1.000000 1.000000
0.210975 1.000000 1.000000
0.352031 1.000000 1.000000
0.491399 1.000000 1.000000
0.629438 1.000000 1.000000
0.760697 1.000000 1.000000
0.889907 1.000000 1.000000
0.000000 0.000000 1.000000
0.063661 0.000000 1.000000
0.206966 0.000000 1.000000
0.347113 0.000000 1.000000
0.488169 0.000000 1.000000
0.627538 0.000000 1.000000
0.765576 0.000000 1.000000
0.896835 0.000000 1.000000
1.000000 0.000000 1.000000
0.000000 0.103699 1.000000
0.046269 0.098487 1.000000
0.189574 0.093683 1.000000
0.329722 0.088986 1.000000
0.470778 0.084258 1.000000
0.610146 0.079587 1.000000
0.748184 0.074960 1.000000
0.879444 0.070561 1.000000
1.000000 0.066230 1.000000
0.000000 0.244839 1.000000
0.028986 0.239627 1.000000
0.172290 0.234823 1.000000
0.312438 0.230126 1.000000
0.453494 0.225398 1.000000
0.592862 0.220727 1.000000
0.730901 0.216100 1.000000
0.862160 0.211701 1.000000
0.991369 0.207370 1.000000
0.000000 0.388070 1.000000
0.011446 0.382858 1.000000
0.154750 0.378055 1.000000
0.294898 0.373358 1.000000
0.435954 0.368630 1.000000
0.575322 0.363959 1.000000
0.713361 0.359332 1.000000
0.844620 0.354932 1.000000
0.973830 0.350602 1.000000
0.000000 0.532829 1.000000
0.000000 0.527617 1.000000
0.137023 0.522814 1.000000
0.277171 0.518117 1.000000
0.418227 0.513389 1.000000
0.557595 0.508718 1.000000
0.695634 0.504091 1.000000
0.826893 0.499691 1.000000
0.956103 0.495361 1.000000
0.000000 0.677589 1.000000
0.000000 0.672376 1.000000
0.119296 0.667573 1.000000
0.259444 0.662876 1.000000
0.400500 0.658148 1.000000
0.539868 0.653477 1.000000
0.677907 0.648850 1.000000
0.809166 0.644450 1.000000
0.938376 0.640120 1.000000
0.000000 0.817476 1.000000
0.000000 0.812264 1.000000
0.102166 0.807461 1.000000
0.242314 0.802763 1.000000
0.383370 0.798035 1.000000
0.522738 0.793364 1.000000
0.660776 0.788737 1.000000
0.792036 0.784338 1.000000
0.921245 0.780007 1.000000
0.000000 0.954997 1.000000
0.000000 0.949785 1.000000
0.085325 0.944982 1.000000
0.225473 0.940284 1.000000
0.366529 0.935557 1.000000
0.505897 0.930885 1.000000
0.643936 0.926259 1.000000
0.775195 0.921859 1.000000
0.904405 0.917528 1.000000
0.000000 1.000000 1.000000
0.000000 1.000000 1.000000
0.070827 1.000000 1.000000
0.210975 1.000000 1.000000
0.352031 1.000000 1.000000
0.491399 1.000000 1.000000
0.629438 1.000000 1.000000
0.760697 1.000000 1.000000
0.889907 1.000000 1.000000
