flutter_app/assets/lut/cameras/ccd_r.cube
TITLE "CCD R"
# DAZZ Camera LUT - CCD R
# 2003-2006 Early CCD Compact Camera
# contrast=1.15, saturation=1.10, temperature=-120, tint=+10
# Blue-green color bias, high contrast, strong CCD character
LUT_3D_SIZE 9
DOMAIN_MIN 0.0 0.0 0.0
DOMAIN_MAX 1.0 1.0 1.0
0.000000 0.012000 0.024000
0.000000 0.010539 0.135416
0.000000 0.008131 0.286682
0.000000 0.004601 0.435703
0.000000 0.000000 0.582583
0.000000 0.000000 0.738665
0.000000 0.000000 0.894746
0.000000 0.000000 1.000000
0.000000 0.000000 1.000000
0.000000 0.095135 0.021886
0.000000 0.093128 0.127868
0.000000 0.089930 0.279615
0.000000 0.085748 0.429395
0.000000 0.080342 0.576728
0.000000 0.079311 0.732810
0.000000 0.078280 0.888892
0.000000 0.077249 1.000000
0.000000 0.076971 1.000000
0.000000 0.240122 0.017593
0.000000 0.238466 0.114043
0.000000 0.235725 0.266706
0.000000 0.232251 0.417901
0.000000 0.227477 0.566497
0.000000 0.226445 0.722578
0.000000 0.225414 0.878660
0.000000 0.224383 1.000000
0.000000 0.224106 1.000000
0.000000 0.384376 0.011833
0.000000 0.383092 0.098794
0.000000 0.380937 0.252629
0.000000 0.378316 0.405531
0.000000 0.374611 0.556265
0.000000 0.373580 0.712347
0.000000 0.372548 0.868428
0.000000 0.371517 1.000000
0.000000 0.371240 1.000000
0.000000 0.525594 0.000000
0.000000 0.524839 0.077788
0.000000 0.523808 0.233870
0.000000 0.522777 0.389952
0.000000 0.521745 0.546033
0.000000 0.520714 0.702115
0.000000 0.519683 0.858197
0.000000 0.518652 1.000000
0.000000 0.518374 1.000000
0.000000 0.672729 0.000000
0.000000 0.671973 0.067556
0.000000 0.670942 0.223638
0.000000 0.669911 0.379720
0.000000 0.668880 0.535802
0.000000 0.667848 0.691883
0.000000 0.666817 0.847965
0.000000 0.665786 1.000000
0.000000 0.665509 1.000000
0.000000 0.819863 0.000000
0.000000 0.819108 0.057325
0.000000 0.818076 0.213406
0.000000 0.817045 0.369488
0.000000 0.816014 0.525570
0.000000 0.814983 0.681652
0.000000 0.813952 0.837734
0.000000 0.812920 0.993815
0.000000 0.812643 1.000000
0.000000 0.966997 0.000000
0.000000 0.966242 0.047093
0.000000 0.965211 0.203175
0.000000 0.964180 0.359257
0.000000 0.963148 0.515338
0.000000 0.962117 0.671420
0.000000 0.961086 0.827502
0.000000 0.960055 0.983584
0.000000 0.959777 1.000000
0.000000 1.000000 0.000000
0.000000 1.000000 0.042818
0.000000 1.000000 0.198899
0.000000 1.000000 0.354981
0.000000 1.000000 0.511063
0.000000 1.000000 0.667145
0.000000 1.000000 0.823226
0.000000 1.000000 0.979308
0.000000 1.000000 1.000000
0.018044 0.011781 0.023563
0.017289 0.010360 0.134702
0.016257 0.008004 0.286072
0.015226 0.004541 0.435228
0.014195 0.000000 0.582227
0.013164 0.000000 0.738309
0.012132 0.000000 0.894391
0.011101 0.000000 1.000000
0.010824 0.000000 1.000000
0.012189 0.094649 0.021627
0.011434 0.092670 0.127306
0.010403 0.089505 0.279120
0.009371 0.085363 0.428980
0.008340 0.079987 0.576373
0.007309 0.078955 0.732454
0.006278 0.077924 0.888536
0.005246 0.076893 1.000000
0.004969 0.076616 1.000000
0.001958 0.239755 0.017570
0.001202 0.238110 0.113686
0.000171 0.235377 0.266365
0.000000 0.231905 0.417565
0.000000 0.227121 0.566141
0.000000 0.226090 0.722223
0.000000 0.225059 0.878305
0.000000 0.224027 1.000000
0.000000 0.223750 1.000000
0.000000 0.384029 0.011850
0.000000 0.382746 0.098459
0.000000 0.380590 0.252291
0.000000 0.377969 0.405193
0.000000 0.374255 0.555909
0.000000 0.373224 0.711991
0.000000 0.372193 0.868073
0.000000 0.371162 1.000000
0.000000 0.370884 1.000000
0.000000 0.525239 0.000000
0.000000 0.524483 0.077432
0.000000 0.523452 0.233514
0.000000 0.522421 0.389596
0.000000 0.521390 0.545678
0.000000 0.520358 0.701759
0.000000 0.519327 0.857841
0.000000 0.518296 1.000000
0.000000 0.518019 1.000000
0.000000 0.672373 0.000000
0.000000 0.671618 0.067201
0.000000 0.670586 0.223282
0.000000 0.669555 0.379364
0.000000 0.668524 0.535446
0.000000 0.667493 0.691528
0.000000 0.666462 0.847610
0.000000 0.665430 1.000000
0.000000 0.665153 1.000000
0.000000 0.819508 0.000000
0.000000 0.818752 0.056969
0.000000 0.817721 0.213051
0.000000 0.816690 0.369133
0.000000 0.815658 0.525214
0.000000 0.814627 0.681296
0.000000 0.813596 0.837378
0.000000 0.812565 0.993460
0.000000 0.812288 1.000000
0.000000 0.966642 0.000000
0.000000 0.965886 0.046737
0.000000 0.964855 0.202819
0.000000 0.963824 0.358901
0.000000 0.962793 0.514983
0.000000 0.961761 0.671064
0.000000 0.960730 0.827146
0.000000 0.959699 0.983228
0.000000 0.959422 1.000000
0.000000 1.000000 0.000000
0.000000 1.000000 0.042462
0.000000 1.000000 0.198544
0.000000 1.000000 0.354625
0.000000 1.000000 0.510707
0.000000 1.000000 0.666789
0.000000 1.000000 0.822871
0.000000 1.000000 0.978953
0.000000 1.000000 1.000000
0.175299 0.009670 0.019341
0.174544 0.008541 0.127964
0.173513 0.006620 0.280204
0.172481 0.003810 0.430667
0.171450 0.000000 0.579128
0.170419 0.000000 0.735210
0.169388 0.000000 0.891292
0.168356 0.000000 1.000000
0.168079 0.000000 1.000000
0.169445 0.089671 0.017869
0.168689 0.087938 0.120943
0.167658 0.085155 0.273521
0.166627 0.081582 0.424519
0.165596 0.076887 0.573273
0.164564 0.075856 0.729355
0.163533 0.074825 0.885437
0.162502 0.073794 1.000000
0.162225 0.073517 1.000000
0.159213 0.235180 0.014617
0.158458 0.233711 0.107988
0.157426 0.231274 0.261257
0.156395 0.228235 0.413324
0.155364 0.224022 0.563042
0.154333 0.222991 0.719124
0.153301 0.221959 0.875205
0.152270 0.220928 1.000000
0.151993 0.220651 1.000000
0.148981 0.380032 0.010054
0.148226 0.378851 0.093767
0.147195 0.376874 0.247958
0.146163 0.374507 0.401367
0.145132 0.371156 0.552810
0.144101 0.370125 0.708892
0.143070 0.369094 0.864974
0.142039 0.368062 1.000000
0.141761 0.367785 1.000000
0.138750 0.522140 0.000000
0.137994 0.521384 0.074333
0.136963 0.520353 0.230415
0.135932 0.519322 0.386497
0.134901 0.518290 0.542578
0.133869 0.517259 0.698660
0.132838 0.516228 0.854742
0.131807 0.515197 1.000000
0.131530 0.514920 1.000000
0.128518 0.669274 0.000000
0.127763 0.668519 0.064102
0.126731 0.667487 0.220183
0.125700 0.666456 0.376265
0.124669 0.665425 0.532347
0.123638 0.664394 0.688429
0.122606 0.663362 0.844510
0.121575 0.662331 1.000000
0.121298 0.662054 1.000000
0.118286 0.816408 0.000000
0.117531 0.815653 0.053870
0.116500 0.814622 0.209952
0.115469 0.813590 0.366033
0.114437 0.812559 0.522115
0.113406 0.811528 0.678197
0.112375 0.810497 0.834279
0.111344 0.809465 0.990360
0.111066 0.809188 1.000000
0.108055 0.963543 0.000000
0.107299 0.962787 0.043638
0.106268 0.961756 0.199720
0.105237 0.960725 0.355802
0.104206 0.959694 0.511884
0.103174 0.958662 0.667965
0.102143 0.957631 0.824047
0.101112 0.956600 0.980129
0.100835 0.956323 1.000000
0.103779 1.000000 0.000000
0.103024 1.000000 0.039363
0.101993 1.000000 0.195445
0.100961 1.000000 0.351526
0.099930 1.000000 0.507608
0.098899 1.000000 0.663690
0.097868 1.000000 0.819772
0.096836 1.000000 0.975853
0.096559 1.000000 1.000000
0.332555 0.006944 0.013889
0.331799 0.006164 0.120112
0.330768 0.004798 0.273461
0.329737 0.002802 0.425551
0.328706 0.000000 0.576029
0.327674 0.000000 0.732111
0.326643 0.000000 0.888192
0.325612 0.000000 1.000000
0.325335 0.000000 1.000000
0.326700 0.084130 0.012986
0.325945 0.082693 0.113552
0.324913 0.080401 0.267111
0.323882 0.077542 0.419537
0.322851 0.073788 0.570174
0.321820 0.072757 0.726256
0.320788 0.071726 0.882338
0.319757 0.070695 1.000000
0.319480 0.070417 1.000000
0.316468 0.230166 0.010788
0.315713 0.228907 0.101479
0.314682 0.226847 0.255503
0.313650 0.224349 0.408652
0.312619 0.220923 0.559943
0.311588 0.219891 0.716024
0.310557 0.218860 0.872106
0.309526 0.217829 1.000000
0.309248 0.217552 1.000000
0.306237 0.375687 0.007562
0.305481 0.374627 0.088418
0.304450 0.372890 0.243090
0.303419 0.370864 0.397181
0.302388 0.368057 0.549711
0.301356 0.367026 0.705793
0.300325 0.365994 0.861874
0.299294 0.364963 1.000000
0.299017 0.364686 1.000000
0.296005 0.519040 0.000000
0.295250 0.518285 0.071234
0.294218 0.517254 0.227316
0.293187 0.516222 0.383397
0.292156 0.515191 0.539479
0.291125 0.514160 0.695561
0.290093 0.513129 0.851643
0.289062 0.512098 1.000000
0.288785 0.511820 1.000000
0.285773 0.666175 0.000000
0.285018 0.665419 0.061002
0.283987 0.664388 0.217084
0.282956 0.663357 0.373166
0.281924 0.662326 0.529248
0.280893 0.661294 0.685329
0.279862 0.660263 0.841411
0.278831 0.659232 0.997493
0.278553 0.658955 1.000000
0.275542 0.813309 0.000000
0.274786 0.812554 0.050771
0.273755 0.811522 0.206852
0.272724 0.810491 0.362934
0.271693 0.809460 0.519016
0.270661 0.808429 0.675098
0.269630 0.807397 0.831179
0.268599 0.806366 0.987261
0.268322 0.806089 1.000000
0.265310 0.960443 0.000000
0.264555 0.959688 0.040539
0.263523 0.958657 0.196621
0.262492 0.957626 0.352703
0.261461 0.956594 0.508784
0.260430 0.955563 0.664866
0.259399 0.954532 0.820948
0.260343 0.955476 0.979993
0.260564 0.955697 1.000000
0.261035 1.000000 0.000000
0.260279 1.000000 0.036264
0.259248 1.000000 0.192345
0.258217 1.000000 0.348427
0.257186 1.000000 0.504509
0.256154 1.000000 0.660591
0.255123 1.000000 0.816672
0.256911 1.000000 0.976982
0.257233 1.000000 1.000000
0.489810 0.001713 0.003426
0.489055 0.001579 0.107842
0.488023 0.001285 0.263335
0.486992 0.000789 0.418426
0.485961 0.000000 0.572930
0.484930 0.000000 0.729011
0.483898 0.000000 0.885093
0.482867 0.000000 1.000000
0.482590 0.000000 1.000000
0.483955 0.076521 0.003966
0.483200 0.075602 0.102468
0.482169 0.074218 0.257845
0.481137 0.072630 0.412813
0.480106 0.070689 0.567075
0.479075 0.069658 0.723157
0.478044 0.068627 0.879239
0.477013 0.067595 1.000000
0.476735 0.067318 1.000000
0.473724 0.223725 0.004105
0.472968 0.222808 0.092380
0.471937 0.221406 0.247721
0.470906 0.219822 0.402696
0.469875 0.217823 0.556843
0.468843 0.216792 0.712925
0.467812 0.215761 0.869007
0.466781 0.214730 1.000000
0.466504 0.214452 1.000000
0.463492 0.370468 0.003322
0.462737 0.369597 0.081457
0.461705 0.368268 0.236944
0.460674 0.366804 0.392160
0.459643 0.364958 0.546612
0.458612 0.363926 0.702693
0.457580 0.362895 0.858775
0.456549 0.361864 1.000000
0.456272 0.361587 1.000000
0.453260 0.515941 0.000000
0.452505 0.515186 0.068135
0.451474 0.514154 0.224216
0.450443 0.513123 0.380298
0.449411 0.512092 0.536380
0.448380 0.511061 0.692462
0.447349 0.510030 0.848544
0.446318 0.508998 1.000000
0.446040 0.508721 1.000000
0.443029 0.663076 0.000000
0.442273 0.662320 0.057903
0.441242 0.661289 0.213985
0.440211 0.660258 0.370067
0.439180 0.659226 0.526148
0.438148 0.658195 0.682230
0.437117 0.657164 0.838312
0.436086 0.656133 0.994394
0.435809 0.655856 1.000000
0.432797 0.810210 0.000000
0.432042 0.809454 0.047671
0.431010 0.808423 0.203753
0.429979 0.807392 0.359835
0.428948 0.806361 0.515917
0.427917 0.805329 0.671998
0.426886 0.804298 0.828080
0.428372 0.805784 0.987938
0.428434 0.805847 1.000000
0.422565 0.957344 0.000000
0.421810 0.956589 0.037440
0.420779 0.955558 0.193522
0.419748 0.954526 0.349603
0.418716 0.953495 0.505685
0.417685 0.952464 0.661767
0.418564 0.953342 0.820713
0.420955 0.955734 0.981929
0.421245 0.956024 1.000000
0.418290 1.000000 0.000000
0.417535 1.000000 0.033164
0.416503 1.000000 0.189246
0.415472 1.000000 0.345328
0.414441 1.000000 0.501410
0.413410 1.000000 0.657491
0.415177 1.000000 0.817772
0.417592 1.000000 0.979022
0.417983 1.000000 1.000000
0.647065 0.000000 0.000000
0.646310 0.000000 0.101585
0.645279 0.000000 0.257667
0.644247 0.000000 0.413749
0.643216 0.000000 0.569830
0.642185 0.000000 0.725912
0.641154 0.000000 0.881994
0.640123 0.000000 1.000000
0.639845 0.000000 1.000000
0.641211 0.071439 0.000000
0.640455 0.070683 0.095730
0.639424 0.069652 0.251812
0.638393 0.068621 0.407894
0.637362 0.067590 0.563976
0.636330 0.066559 0.720058
0.635299 0.065527 0.876139
0.634268 0.064496 1.000000
0.633991 0.064219 1.000000
0.630979 0.218573 0.000000
0.630224 0.217818 0.085499
0.629192 0.216787 0.241581
0.628161 0.215755 0.397662
0.627130 0.214724 0.553744
0.626099 0.213693 0.709826
0.625067 0.212662 0.865908
0.624036 0.211630 1.000000
0.623759 0.211353 1.000000
0.620747 0.365708 0.000000
0.619992 0.364952 0.075267
0.618961 0.363921 0.231349
0.617930 0.362890 0.387431
0.616898 0.361858 0.543512
0.615867 0.360827 0.699594
0.614836 0.359796 0.855676
0.613805 0.358765 1.000000
0.613527 0.358488 1.000000
0.610516 0.512842 0.000000
0.609760 0.512087 0.065036
0.608729 0.511055 0.221117
0.607698 0.510024 0.377199
0.606667 0.508993 0.533281
0.605635 0.507962 0.689363
0.604604 0.506930 0.845444
0.603783 0.506110 1.000000
0.603494 0.505820 1.000000
0.600284 0.659976 0.000000
0.599529 0.659221 0.054804
0.598497 0.658190 0.210886
0.597466 0.657158 0.366967
0.596435 0.656127 0.523049
0.595404 0.655096 0.679131
0.594373 0.654065 0.835213
0.596401 0.656093 0.995883
0.596305 0.655997 1.000000
0.590052 0.807111 0.000000
0.589297 0.806355 0.044572
0.588266 0.805324 0.200654
0.587235 0.804293 0.356736
0.586203 0.803262 0.512818
0.585172 0.802230 0.668899
0.586592 0.803651 0.828658
0.588984 0.806042 0.989874
0.589115 0.806173 1.000000
0.579821 0.954245 0.000000
0.579065 0.953490 0.034341
0.578034 0.952458 0.190422
0.577003 0.951427 0.346504
0.575972 0.950396 0.502586
0.576784 0.951208 0.661433
0.579176 0.953600 0.822649
0.581567 0.955991 0.983865
0.581926 0.956350 1.000000
0.575545 1.000000 0.000000
0.574790 1.000000 0.030065
0.573759 1.000000 0.186147
0.572727 1.000000 0.342229
0.571696 1.000000 0.498310
0.573444 1.000000 0.658561
0.575858 1.000000 0.819811
0.578273 1.000000 0.981061
0.578733 1.000000 1.000000
0.804321 0.000000 0.000000
0.803565 0.000000 0.098486
0.802534 0.000000 0.254568
0.801503 0.000000 0.410649
0.800472 0.000000 0.566731
0.799440 0.000000 0.722813
0.798409 0.000000 0.878895
0.797378 0.000000 1.000000
0.797101 0.000000 1.000000
0.798466 0.068340 0.000000
0.797711 0.067584 0.092631
0.796679 0.066553 0.248713
0.795648 0.065522 0.404795
0.794617 0.064491 0.560877
0.793586 0.063459 0.716958
0.792554 0.062428 0.873040
0.791523 0.061397 1.000000
0.791246 0.061120 1.000000
0.788234 0.215474 0.000000
0.787479 0.214719 0.082400
0.786448 0.213687 0.238481
0.785417 0.212656 0.394563
0.784385 0.211625 0.550645
0.783354 0.210594 0.706727
0.782323 0.209562 0.862808
0.781292 0.208531 1.000000
0.781014 0.208254 1.000000
0.778003 0.362608 0.000000
0.777247 0.361853 0.072168
0.776216 0.360822 0.228250
0.775185 0.359790 0.384331
0.774154 0.358759 0.540413
0.773122 0.357728 0.696495
0.772091 0.356697 0.852577
0.771654 0.356259 1.000000
0.771364 0.355970 1.000000
0.767771 0.509743 0.000000
0.767016 0.508987 0.061936
0.765984 0.507956 0.218018
0.764953 0.506925 0.374100
0.763922 0.505894 0.530182
0.762891 0.504862 0.686263
0.762038 0.504010 0.842613
0.764429 0.506401 1.000000
0.764175 0.506147 1.000000
0.757539 0.656877 0.000000
0.756784 0.656122 0.051705
0.755753 0.655090 0.207786
0.754722 0.654059 0.363868
0.753690 0.653028 0.519950
0.752659 0.651997 0.676032
0.754621 0.653959 0.836604
0.757013 0.656350 0.997819
0.756986 0.656323 1.000000
0.747308 0.804011 0.000000
0.746552 0.803256 0.041473
0.745521 0.802225 0.197555
0.744490 0.801194 0.353637
0.743459 0.800162 0.509718
0.744813 0.801517 0.669379
0.747205 0.803908 0.830594
0.749596 0.806300 0.991810
0.749796 0.806500 1.000000
0.737076 0.951146 0.000000
0.736321 0.950390 0.031241
0.735289 0.949359 0.187323
0.734258 0.948328 0.343405
0.735005 0.949075 0.502154
0.737396 0.951466 0.663369
0.739788 0.953857 0.824585
0.742179 0.956249 0.985801
0.742607 0.956676 1.000000
0.732801 1.000000 0.000000
0.732045 1.000000 0.026966
0.731014 1.000000 0.183048
0.729983 1.000000 0.339129
0.731711 1.000000 0.499350
0.734125 1.000000 0.660600
0.736539 1.000000 0.821850
0.738954 1.000000 0.983100
0.739482 1.000000 1.000000
0.961576 0.000000 0.000000
0.960821 0.000000 0.095387
0.959789 0.000000 0.251468
0.958758 0.000000 0.407550
0.957727 0.000000 0.563632
0.956696 0.000000 0.719714
0.955664 0.000000 0.875795
0.954633 0.000000 1.000000
0.954356 0.000000 1.000000
0.955721 0.065240 0.000000
0.954966 0.064485 0.089532
0.953935 0.063454 0.245614
0.952904 0.062423 0.401696
0.951872 0.061391 0.557777
0.950841 0.060360 0.713859
0.949810 0.059329 0.869941
0.948779 0.058298 1.000000
0.948501 0.058020 1.000000
0.945490 0.212375 0.000000
0.944734 0.211619 0.079300
0.943703 0.210588 0.235382
0.942672 0.209557 0.391464
0.941641 0.208526 0.547546
0.940609 0.207494 0.703627
0.939578 0.206463 0.859709
0.939524 0.206409 1.000000
0.939235 0.206120 1.000000
0.935258 0.359509 0.000000
0.934503 0.358754 0.069069
0.933471 0.357722 0.225150
0.932440 0.356691 0.381232
0.931409 0.355660 0.537314
0.930378 0.354629 0.693396
0.930067 0.354318 0.850558
0.932335 0.356586 1.000000
0.932045 0.356296 1.000000
0.925026 0.506644 0.000000
0.924271 0.505888 0.058837
0.923240 0.504857 0.214919
0.922209 0.503826 0.371001
0.921177 0.502794 0.527082
0.920259 0.501876 0.683333
0.922650 0.504267 0.844549
0.925042 0.506659 1.000000
0.924856 0.506473 1.000000
0.914795 0.653778 0.000000
0.914039 0.653022 0.048605
0.913008 0.651991 0.204687
0.911977 0.650960 0.360769
0.910946 0.649929 0.516851
0.912842 0.651825 0.677324
0.915234 0.654217 0.838540
0.917625 0.656608 0.999755
0.917667 0.656650 1.000000
0.904563 0.800912 0.000000
0.903808 0.800157 0.038374
0.902776 0.799126 0.194456
0.901745 0.798094 0.350537
0.903034 0.799383 0.510099
0.905425 0.801774 0.671315
0.907817 0.804166 0.832530
0.910208 0.806557 0.993746
0.910477 0.806826 1.000000
0.894331 0.948047 0.000000
0.893576 0.947291 0.028142
0.892545 0.946260 0.184224
0.893226 0.946941 0.342874
0.895617 0.949332 0.504090
0.898009 0.951724 0.665305
0.900400 0.954115 0.826521
0.902791 0.956507 0.987737
0.903288 0.957003 1.000000
0.890056 1.000000 0.000000
0.889301 1.000000 0.023867
0.888269 1.000000 0.179948
0.889977 1.000000 0.340139
0.892392 1.000000 0.501389
0.894806 1.000000 0.662639
0.897220 1.000000 0.823889
0.899635 1.000000 0.985140
0.900232 1.000000 1.000000
1.000000 0.000000 0.000000
1.000000 0.000000 0.093078
1.000000 0.000000 0.249159
1.000000 0.000000 0.405241
1.000000 0.000000 0.561323
1.000000 0.000000 0.717405
1.000000 0.000000 0.873486
1.000000 0.000000 1.000000
1.000000 0.000000 1.000000
1.000000 0.062931 0.000000
1.000000 0.062176 0.087223
1.000000 0.061145 0.243305
1.000000 0.060113 0.399386
1.000000 0.059082 0.555468
1.000000 0.058051 0.711550
1.000000 0.057020 0.867632
1.000000 0.055989 1.000000
1.000000 0.055711 1.000000
1.000000 0.210066 0.000000
1.000000 0.209310 0.076991
1.000000 0.208279 0.233073
1.000000 0.207248 0.389155
1.000000 0.206217 0.545237
1.000000 0.205185 0.701318
1.000000 0.204154 0.857400
1.000000 0.205415 1.000000
1.000000 0.205131 1.000000
1.000000 0.357200 0.000000
1.000000 0.356445 0.066760
1.000000 0.355413 0.222841
1.000000 0.354382 0.378923
1.000000 0.353351 0.535005
1.000000 0.352320 0.691087
1.000000 0.353476 0.850450
1.000000 0.355819 1.000000
1.000000 0.355535 1.000000
1.000000 0.504334 0.000000
1.000000 0.503579 0.056528
1.000000 0.502548 0.212610
1.000000 0.501517 0.368692
1.000000 0.500485 0.524773
1.000000 0.501239 0.683532
1.000000 0.503653 0.844782
1.000000 0.506067 1.000000
1.000000 0.505939 1.000000
1.000000 0.651469 0.000000
1.000000 0.650713 0.046296
1.000000 0.649682 0.202378
1.000000 0.648651 0.358460
1.000000 0.649001 0.516614
1.000000 0.651415 0.677864
1.000000 0.653830 0.839114
1.000000 0.656244 1.000000
1.000000 0.656343 1.000000
1.000000 0.798603 0.000000
1.000000 0.797848 0.036065
1.000000 0.796816 0.192146
1.000000 0.796763 0.349695
1.000000 0.799178 0.510945
1.000000 0.801592 0.672196
1.000000 0.804006 0.833446
1.000000 0.806421 0.994696
1.000000 0.806747 1.000000
1.000000 0.945737 0.000000
1.000000 0.944982 0.025833
1.000000 0.944526 0.182777
1.000000 0.946940 0.344027
1.000000 0.949354 0.505277
1.000000 0.951769 0.666527
1.000000 0.954183 0.827777
1.000000 0.956597 0.989028
1.000000 0.957151 1.000000
1.000000 1.000000 0.000000
1.000000 1.000000 0.021558
1.000000 1.000000 0.180227
1.000000 1.000000 0.341512
1.000000 1.000000 0.502796
1.000000 1.000000 0.664081
1.000000 1.000000 0.825365
1.000000 1.000000 0.986650
1.000000 1.000000 1.000000
