flutter_app/assets/lut/cameras/ccd_m.cube
TITLE "CCD M"
# DAZZ Camera LUT - CCD M
# Generated for DAZZ retro camera app
LUT_3D_SIZE 33
DOMAIN_MIN 0.0 0.0 0.0
DOMAIN_MAX 1.0 1.0 1.0
0.000000 0.000000 0.022503
0.000000 0.000000 0.021096
0.002900 0.000000 0.019781
0.040449 0.000000 0.018522
0.077178 0.000000 0.017291
0.113467 0.000000 0.016075
0.149410 0.000000 0.014870
0.185068 0.000000 0.013675
0.220483 0.000000 0.012488
0.255687 0.000000 0.011308
0.290705 0.000000 0.010134
0.325556 0.000000 0.008966
0.360630 0.000000 0.007790
0.396079 0.000000 0.006602
0.431399 0.000000 0.005419
0.466598 0.000000 0.004239
0.501686 0.000000 0.003063
0.536670 0.000000 0.001890
0.571555 0.000000 0.000721
0.606348 0.000000 0.000000
0.641055 0.000000 0.000000
0.675678 0.000000 0.000000
0.710223 0.000000 0.000000
0.744694 0.000000 0.000000
0.779093 0.000000 0.000000
0.812872 0.000000 0.000000
0.845424 0.000000 0.000000
0.877917 0.000000 0.000000
0.910352 0.000000 0.000000
0.942732 0.000000 0.000000
0.975059 0.000000 0.000000
1.000000 0.000000 0.000000
1.000000 0.000000 0.000000
0.000000 0.011361 0.018075
0.000000 0.009954 0.016668
0.000000 0.008638 0.015352
0.036021 0.007380 0.014093
0.072749 0.006149 0.012862
0.109039 0.004932 0.011646
0.144981 0.003727 0.010441
0.180639 0.002532 0.009246
0.216054 0.001345 0.008059
0.251258 0.000165 0.006879
0.286276 0.000000 0.005706
0.321127 0.000000 0.004537
0.356201 0.000000 0.003362
0.391651 0.000000 0.002174
0.426970 0.000000 0.000990
0.462170 0.000000 0.000000
0.497257 0.000000 0.000000
0.532241 0.000000 0.000000
0.567126 0.000000 0.000000
0.601920 0.000000 0.000000
0.636626 0.000000 0.000000
0.671249 0.000000 0.000000
0.705795 0.000000 0.000000
0.740265 0.000000 0.000000
0.774664 0.000000 0.000000
0.808443 0.000000 0.000000
0.840995 0.000000 0.000000
0.873488 0.000000 0.000000
0.905923 0.000000 0.000000
0.938304 0.000000 0.000000
0.970631 0.000000 0.000000
1.000000 0.000000 0.000000
1.000000 0.000000 0.000000
0.000000 0.046646 0.013754
0.000000 0.045239 0.012347
0.000000 0.043923 0.011031
0.031700 0.042665 0.009773
0.068428 0.041434 0.008541
0.104718 0.040217 0.007325
0.140661 0.039013 0.006120
0.176318 0.037817 0.004925
0.211733 0.036630 0.003738
0.246937 0.035450 0.002558
0.281955 0.034277 0.001385
0.316806 0.033109 0.000216
0.351881 0.031933 0.000000
0.387330 0.030745 0.000000
0.422649 0.029561 0.000000
0.457849 0.028381 0.000000
0.492936 0.027205 0.000000
0.527920 0.026033 0.000000
0.562805 0.024863 0.000000
0.597599 0.023697 0.000000
0.632305 0.022534 0.000000
0.666929 0.021373 0.000000
0.701474 0.020215 0.000000
0.735944 0.019060 0.000000
0.770343 0.017907 0.000000
0.804122 0.016775 0.000000
0.836674 0.015684 0.000000
0.869167 0.014595 0.000000
0.901602 0.013508 0.000000
0.933983 0.012422 0.000000
0.966310 0.011339 0.000000
0.998586 0.010257 0.000000
1.000000 0.009177 0.000000
0.000000 0.081931 0.009433
0.000000 0.080524 0.008026
0.000000 0.079208 0.006710
0.027379 0.077950 0.005452
0.064107 0.076719 0.004221
0.100397 0.075502 0.003004
0.136340 0.074298 0.001799
0.171997 0.073102 0.000604
0.207412 0.071915 0.000000
0.242616 0.070735 0.000000
0.277634 0.069562 0.000000
0.312485 0.068394 0.000000
0.347560 0.067218 0.000000
0.383009 0.066030 0.000000
0.418328 0.064846 0.000000
0.453528 0.063666 0.000000
0.488616 0.062490 0.000000
0.523599 0.061318 0.000000
0.558484 0.060148 0.000000
0.593278 0.058982 0.000000
0.627984 0.057819 0.000000
0.662608 0.056658 0.000000
0.697153 0.055500 0.000000
0.731623 0.054345 0.000000
0.766022 0.053192 0.000000
0.799801 0.052060 0.000000
0.832353 0.050969 0.000000
0.864846 0.049880 0.000000
0.897281 0.048793 0.000000
0.929662 0.047707 0.000000
0.961989 0.046624 0.000000
0.994265 0.045542 0.000000
1.000000 0.044462 0.000000
0.000000 0.117216 0.005112
0.000000 0.115809 0.003705
0.000000 0.114493 0.002389
0.023058 0.113235 0.001131
0.059786 0.112004 0.000000
0.096076 0.110787 0.000000
0.132019 0.109583 0.000000
0.167676 0.108387 0.000000
0.203091 0.107200 0.000000
0.238295 0.106020 0.000000
0.273313 0.104847 0.000000
0.308164 0.103679 0.000000
0.343239 0.102503 0.000000
0.378688 0.101315 0.000000
0.414007 0.100131 0.000000
0.449207 0.098951 0.000000
0.484295 0.097775 0.000000
0.519278 0.096603 0.000000
0.554164 0.095433 0.000000
0.588957 0.094267 0.000000
0.623663 0.093104 0.000000
0.658287 0.091943 0.000000
0.692832 0.090785 0.000000
0.727302 0.089630 0.000000
0.761701 0.088477 0.000000
0.795480 0.087345 0.000000
0.828032 0.086254 0.000000
0.860525 0.085165 0.000000
0.892960 0.084078 0.000000
0.925341 0.082992 0.000000
0.957668 0.081909 0.000000
0.989944 0.080827 0.000000
1.000000 0.079747 0.000000
0.000000 0.152501 0.000791
0.000000 0.151094 0.000000
0.000000 0.149778 0.000000
0.018737 0.148520 0.000000
0.055465 0.147289 0.000000
0.091755 0.146072 0.000000
0.127698 0.144868 0.000000
0.163355 0.143672 0.000000
0.198770 0.142485 0.000000
0.233974 0.141305 0.000000
0.268992 0.140132 0.000000
0.303844 0.138964 0.000000
0.338918 0.137788 0.000000
0.374367 0.136600 0.000000
0.409686 0.135416 0.000000
0.444886 0.134236 0.000000
0.479974 0.133060 0.000000
0.514957 0.131888 0.000000
0.549843 0.130718 0.000000
0.584636 0.129552 0.000000
0.619342 0.128389 0.000000
0.653966 0.127228 0.000000
0.688511 0.126071 0.000000
0.722981 0.124915 0.000000
0.757380 0.123762 0.000000
0.791159 0.122630 0.000000
0.823711 0.121539 0.000000
0.856204 0.120450 0.000000
0.888640 0.119363 0.000000
0.921020 0.118277 0.000000
0.953347 0.117194 0.000000
0.985623 0.116112 0.000000
1.000000 0.115032 0.000000
0.000000 0.187786 0.000000
0.000000 0.186379 0.000000
0.000000 0.185063 0.000000
0.014416 0.183805 0.000000
0.051145 0.182574 0.000000
0.087434 0.181357 0.000000
0.123377 0.180153 0.000000
0.159034 0.178957 0.000000
0.194449 0.177770 0.000000
0.229653 0.176590 0.000000
0.264671 0.175417 0.000000
0.299523 0.174249 0.000000
0.334597 0.173073 0.000000
0.370046 0.171885 0.000000
0.405365 0.170701 0.000000
0.440565 0.169521 0.000000
0.475653 0.168345 0.000000
0.510636 0.167173 0.000000
0.545522 0.166003 0.000000
0.580315 0.164837 0.000000
0.615021 0.163674 0.000000
0.649645 0.162513 0.000000
0.684190 0.161356 0.000000
0.718660 0.160200 0.000000
0.753059 0.159047 0.000000
0.786838 0.157915 0.000000
0.819390 0.156824 0.000000
0.851883 0.155735 0.000000
0.884319 0.154648 0.000000
0.916699 0.153562 0.000000
0.949026 0.152479 0.000000
0.981302 0.151397 0.000000
1.000000 0.150317 0.000000
0.000000 0.223071 0.000000
0.000000 0.221664 0.000000
0.000000 0.220348 0.000000
0.010095 0.219090 0.000000
0.046824 0.217859 0.000000
0.083113 0.216642 0.000000
0.119056 0.215438 0.000000
0.154713 0.214242 0.000000
0.190128 0.213055 0.000000
0.225332 0.211875 0.000000
0.260350 0.210702 0.000000
0.295202 0.209534 0.000000
0.330276 0.208358 0.000000
0.365725 0.207170 0.000000
0.401045 0.205986 0.000000
0.436244 0.204806 0.000000
0.471332 0.203630 0.000000
0.506315 0.202458 0.000000
0.541201 0.201288 0.000000
0.575994 0.200122 0.000000
0.610700 0.198959 0.000000
0.645324 0.197798 0.000000
0.679869 0.196641 0.000000
0.714339 0.195485 0.000000
0.748739 0.194332 0.000000
0.782517 0.193200 0.000000
0.815070 0.192109 0.000000
0.847562 0.191020 0.000000
0.879998 0.189933 0.000000
0.912378 0.188847 0.000000
0.944705 0.187764 0.000000
0.976981 0.186682 0.000000
1.000000 0.185602 0.000000
0.000000 0.258356 0.000000
0.000000 0.256949 0.000000
0.000000 0.255633 0.000000
0.005774 0.254375 0.000000
0.042503 0.253144 0.000000
0.078792 0.251927 0.000000
0.114735 0.250723 0.000000
0.150392 0.249527 0.000000
0.185807 0.248340 0.000000
0.221011 0.247161 0.000000
0.256029 0.245987 0.000000
0.290881 0.244819 0.000000
0.325955 0.243643 0.000000
0.361404 0.242455 0.000000
0.396724 0.241271 0.000000
0.431923 0.240091 0.000000
0.467011 0.238915 0.000000
0.501994 0.237743 0.000000
0.536880 0.236573 0.000000
0.571673 0.235407 0.000000
0.606379 0.234244 0.000000
0.641003 0.233083 0.000000
0.675548 0.231926 0.000000
0.710018 0.230770 0.000000
0.744418 0.229617 0.000000
0.778196 0.228485 0.000000
0.810749 0.227394 0.000000
0.843241 0.226305 0.000000
0.875677 0.225218 0.000000
0.908057 0.224132 0.000000
0.940384 0.223049 0.000000
0.972660 0.221967 0.000000
1.000000 0.220887 0.000000
0.000000 0.293641 0.000000
0.000000 0.292234 0.000000
0.000000 0.290918 0.000000
0.001453 0.289660 0.000000
0.038182 0.288429 0.000000
0.074471 0.287212 0.000000
0.110414 0.286008 0.000000
0.146071 0.284812 0.000000
0.181486 0.283625 0.000000
0.216690 0.282446 0.000000
0.251708 0.281272 0.000000
0.286560 0.280104 0.000000
0.321634 0.278928 0.000000
0.357083 0.277740 0.000000
0.392403 0.276556 0.000000
0.427602 0.275376 0.000000
0.462690 0.274200 0.000000
0.497673 0.273028 0.000000
0.532559 0.271858 0.000000
0.567352 0.270692 0.000000
0.602058 0.269529 0.000000
0.636682 0.268368 0.000000
0.671227 0.267211 0.000000
0.705698 0.266055 0.000000
0.740097 0.264902 0.000000
0.773875 0.263770 0.000000
0.806428 0.262679 0.000000
0.838920 0.261590 0.000000
0.871356 0.260503 0.000000
0.903736 0.259417 0.000000
0.936063 0.258334 0.000000
0.968339 0.257252 0.000000
1.000000 0.256172 0.000000
0.000000 0.329208 0.000000
0.000000 0.327801 0.000000
0.000000 0.326485 0.000000
0.000000 0.325227 0.000000
0.033826 0.323996 0.000000
0.070116 0.322779 0.000000
0.106058 0.321575 0.000000
0.141716 0.320380 0.000000
0.177131 0.319192 0.000000
0.212335 0.318013 0.000000
0.247353 0.316839 0.000000
0.282204 0.315671 0.000000
0.317278 0.314495 0.000000
0.352728 0.313307 0.000000
0.388047 0.312123 0.000000
0.423247 0.310943 0.000000
0.458334 0.309767 0.000000
0.493318 0.308595 0.000000
0.528203 0.307425 0.000000
0.562997 0.306259 0.000000
0.597703 0.305096 0.000000
0.632326 0.303935 0.000000
0.666872 0.302778 0.000000
0.701342 0.301622 0.000000
0.735741 0.300469 0.000000
0.769520 0.299337 0.000000
0.802072 0.298246 0.000000
0.834565 0.297157 0.000000
0.867000 0.296070 0.000000
0.899381 0.294984 0.000000
0.931708 0.293901 0.000000
0.963984 0.292819 0.000000
0.996210 0.291739 0.000000
0.000000 0.365398 0.000000
0.000000 0.363991 0.000000
0.000000 0.362675 0.000000
0.000000 0.361417 0.000000
0.029394 0.360185 0.000000
0.065684 0.358969 0.000000
0.101627 0.357764 0.000000
0.137284 0.356569 0.000000
0.172699 0.355382 0.000000
0.207903 0.354202 0.000000
0.242921 0.353029 0.000000
0.277773 0.351860 0.000000
0.312847 0.350685 0.000000
0.348296 0.349497 0.000000
0.383615 0.348313 0.000000
0.418815 0.347133 0.000000
0.453903 0.345957 0.000000
0.488886 0.344784 0.000000
0.523772 0.343615 0.000000
0.558565 0.342449 0.000000
0.593271 0.341286 0.000000
0.627895 0.340125 0.000000
0.662440 0.338967 0.000000
0.696910 0.337812 0.000000
0.731309 0.336659 0.000000
0.765088 0.335527 0.000000
0.797640 0.334436 0.000000
0.830133 0.333347 0.000000
0.862569 0.332260 0.000000
0.894949 0.331174 0.000000
0.927276 0.330091 0.000000
0.959552 0.329009 0.000000
0.991778 0.327929 0.000000
0.000000 0.401587 0.000000
0.000000 0.400180 0.000000
0.000000 0.398865 0.000000
0.000000 0.397606 0.000000
0.024963 0.396375 0.000000
0.061252 0.395159 0.000000
0.097195 0.393954 0.000000
0.132852 0.392759 0.000000
0.168267 0.391572 0.000000
0.203471 0.390392 0.000000
0.238489 0.389218 0.000000
0.273341 0.388050 0.000000
0.308415 0.386875 0.000000
0.343864 0.385686 0.000000
0.379184 0.384503 0.000000
0.414383 0.383323 0.000000
0.449471 0.382147 0.000000
0.484454 0.380974 0.000000
0.519340 0.379805 0.000000
0.554133 0.378639 0.000000
0.588839 0.377476 0.000000
0.623463 0.376315 0.000000
0.658008 0.375157 0.000000
0.692479 0.374002 0.000000
0.726878 0.372849 0.000000
0.760656 0.371717 0.000000
0.793209 0.370626 0.000000
0.825701 0.369536 0.000000
0.858137 0.368449 0.000000
0.890517 0.367364 0.000000
0.922844 0.366280 0.000000
0.955120 0.365199 0.000000
0.987347 0.364119 0.000000
0.000000 0.437777 0.000000
0.000000 0.436370 0.000000
0.000000 0.435055 0.000000
0.000000 0.433796 0.000000
0.020531 0.432565 0.000000
0.056820 0.431349 0.000000
0.092763 0.430144 0.000000
0.128421 0.428949 0.000000
0.163836 0.427762 0.000000
0.199040 0.426582 0.000000
0.234058 0.425408 0.000000
0.268909 0.424240 0.000000
0.303983 0.423064 0.000000
0.339432 0.421876 0.000000
0.374752 0.420692 0.000000
0.409951 0.419513 0.000000
0.445039 0.418337 0.000000
0.480023 0.417164 0.000000
0.514908 0.415995 0.000000
0.549701 0.414829 0.000000
0.584408 0.413665 0.000000
0.619031 0.412505 0.000000
0.653576 0.411347 0.000000
0.688047 0.410192 0.000000
0.722446 0.409039 0.000000
0.756225 0.407906 0.000000
0.788777 0.406815 0.000000
0.821270 0.405726 0.000000
0.853705 0.404639 0.000000
0.886085 0.403554 0.000000
0.918413 0.402470 0.000000
0.950688 0.401388 0.000000
0.982915 0.400308 0.000000
0.000000 0.473967 0.000000
0.000000 0.472560 0.000000
0.000000 0.471244 0.000000
0.000000 0.469986 0.000000
0.016099 0.468755 0.000000
0.052389 0.467538 0.000000
0.088332 0.466334 0.000000
0.123989 0.465139 0.000000
0.159404 0.463952 0.000000
0.194608 0.462772 0.000000
0.229626 0.461598 0.000000
0.264477 0.460430 0.000000
0.299552 0.459254 0.000000
0.335001 0.458066 0.000000
0.370320 0.456882 0.000000
0.405520 0.455702 0.000000
0.440607 0.454526 0.000000
0.475591 0.453354 0.000000
0.510476 0.452184 0.000000
0.545270 0.451018 0.000000
0.579976 0.449855 0.000000
0.614599 0.448695 0.000000
0.649145 0.447537 0.000000
0.683615 0.446381 0.000000
0.718014 0.445228 0.000000
0.751793 0.444096 0.000000
0.784345 0.443005 0.000000
0.816838 0.441916 0.000000
0.849273 0.440829 0.000000
0.881654 0.439744 0.000000
0.913981 0.438660 0.000000
0.946257 0.437578 0.000000
0.978483 0.436498 0.000000
0.000000 0.510157 0.000000
0.000000 0.508750 0.000000
0.000000 0.507434 0.000000
0.000000 0.506176 0.000000
0.011668 0.504945 0.000000
0.047957 0.503728 0.000000
0.083900 0.502523 0.000000
0.119557 0.501328 0.000000
0.154972 0.500141 0.000000
0.190176 0.498961 0.000000
0.225194 0.497788 0.000000
0.260046 0.496620 0.000000
0.295120 0.495444 0.000000
0.330569 0.494256 0.000000
0.365888 0.493072 0.000000
0.401088 0.491892 0.000000
0.436176 0.490716 0.000000
0.471159 0.489544 0.000000
0.506045 0.488374 0.000000
0.540838 0.487208 0.000000
0.575544 0.486045 0.000000
0.610168 0.484884 0.000000
0.644713 0.483726 0.000000
0.679183 0.482571 0.000000
0.713582 0.481418 0.000000
0.747361 0.480286 0.000000
0.779913 0.479195 0.000000
0.812406 0.478106 0.000000
0.844842 0.477019 0.000000
0.877222 0.475933 0.000000
0.909549 0.474850 0.000000
0.941825 0.473768 0.000000
0.974051 0.472688 0.000000
0.000000 0.546346 0.000000
0.000000 0.544940 0.000000
0.000000 0.543624 0.000000
0.000000 0.542365 0.000000
0.007236 0.541134 0.000000
0.043525 0.539918 0.000000
0.079468 0.538713 0.000000
0.115126 0.537518 0.000000
0.150540 0.536331 0.000000
0.185745 0.535151 0.000000
0.220763 0.533977 0.000000
0.255614 0.532809 0.000000
0.290688 0.531634 0.000000
0.326137 0.530446 0.000000
0.361457 0.529262 0.000000
0.396656 0.528082 0.000000
0.431744 0.526906 0.000000
0.466727 0.525733 0.000000
0.501613 0.524564 0.000000
0.536406 0.523398 0.000000
0.571112 0.522235 0.000000
0.605736 0.521074 0.000000
0.640281 0.519916 0.000000
0.674752 0.518761 0.000000
0.709151 0.517608 0.000000
0.742929 0.516476 0.000000
0.775482 0.515385 0.000000
0.807974 0.514296 0.000000
0.840410 0.513208 0.000000
0.872790 0.512123 0.000000
0.905117 0.511040 0.000000
0.937393 0.509958 0.000000
0.969620 0.508878 0.000000
0.000000 0.582536 0.000000
0.000000 0.581129 0.000000
0.000000 0.579814 0.000000
0.000000 0.578555 0.000000
0.002804 0.577324 0.000000
0.039093 0.576108 0.000000
0.075036 0.574903 0.000000
0.110694 0.573708 0.000000
0.146109 0.572521 0.000000
0.181313 0.571341 0.000000
0.216331 0.570167 0.000000
0.251182 0.568999 0.000000
0.286256 0.567823 0.000000
0.321706 0.566635 0.000000
0.357025 0.565451 0.000000
0.392224 0.564272 0.000000
0.427312 0.563096 0.000000
0.462296 0.561923 0.000000
0.497181 0.560754 0.000000
0.531974 0.559588 0.000000
0.566681 0.558424 0.000000
0.601304 0.557264 0.000000
0.635849 0.556106 0.000000
0.670320 0.554951 0.000000
0.704719 0.553798 0.000000
0.738498 0.552665 0.000000
0.771050 0.551574 0.000000
0.803543 0.550485 0.000000
0.835978 0.549398 0.000000
0.868358 0.548313 0.000000
0.900686 0.547229 0.000000
0.932962 0.546148 0.000000
0.965188 0.545067 0.000000
0.000000 0.618726 0.000000
0.000000 0.617319 0.000000
0.000000 0.616003 0.000000
0.000000 0.614745 0.000000
0.000000 0.613514 0.000000
0.034662 0.612297 0.000000
0.070605 0.611093 0.000000
0.106262 0.609898 0.000000
0.141677 0.608711 0.000000
0.176881 0.607531 0.000000
0.211899 0.606357 0.000000
0.246750 0.605189 0.000000
0.281825 0.604013 0.000000
0.317274 0.602825 0.000000
0.352593 0.601641 0.000000
0.387793 0.600461 0.000000
0.422880 0.599285 0.000000
0.457864 0.598113 0.000000
0.492749 0.596944 0.000000
0.527543 0.595777 0.000000
0.562249 0.594614 0.000000
0.596873 0.593454 0.000000
0.631418 0.592296 0.000000
0.665888 0.591140 0.000000
0.700287 0.589987 0.000000
0.734066 0.588855 0.000000
0.766618 0.587764 0.000000
0.799111 0.586675 0.000000
0.831546 0.585588 0.000000
0.863927 0.584503 0.000000
0.896254 0.583419 0.000000
0.928530 0.582337 0.000000
0.960756 0.581257 0.000000
0.000000 0.654916 0.000000
0.000000 0.653509 0.000000
0.000000 0.652193 0.000000
0.000000 0.650935 0.000000
0.000000 0.649704 0.000000
0.030230 0.648487 0.000000
0.066173 0.647283 0.000000
0.101830 0.646087 0.000000
0.137245 0.644900 0.000000
0.172449 0.643720 0.000000
0.207467 0.642547 0.000000
0.242319 0.641379 0.000000
0.277393 0.640203 0.000000
0.312842 0.639015 0.000000
0.348162 0.637831 0.000000
0.383361 0.636651 0.000000
0.418449 0.635475 0.000000
0.453432 0.634303 0.000000
0.488318 0.633133 0.000000
0.523111 0.631967 0.000000
0.557817 0.630804 0.000000
0.592441 0.629643 0.000000
0.626986 0.628485 0.000000
0.661456 0.627330 0.000000
0.695856 0.626177 0.000000
0.729634 0.625045 0.000000
0.762187 0.623954 0.000000
0.794679 0.622865 0.000000
0.827115 0.621778 0.000000
0.859495 0.620692 0.000000
0.891822 0.619609 0.000000
0.924098 0.618527 0.000000
0.956324 0.617447 0.000000
0.000000 0.691106 0.000000
0.000000 0.689699 0.000000
0.000000 0.688383 0.000000
0.000000 0.687124 0.000000
0.000000 0.685893 0.000000
0.025798 0.684677 0.000000
0.061741 0.683472 0.000000
0.097399 0.682277 0.000000
0.132813 0.681090 0.000000
0.168018 0.679910 0.000000
0.203036 0.678736 0.000000
0.237887 0.677568 0.000000
0.272961 0.676393 0.000000
0.308410 0.675205 0.000000
0.343730 0.674021 0.000000
0.378929 0.672841 0.000000
0.414017 0.671665 0.000000
0.449000 0.670492 0.000000
0.483886 0.669323 0.000000
0.518679 0.668157 0.000000
0.553385 0.666994 0.000000
0.588009 0.665833 0.000000
0.622554 0.664675 0.000000
0.657025 0.663520 0.000000
0.691424 0.662367 0.000000
0.725202 0.661235 0.000000
0.757755 0.660144 0.000000
0.790247 0.659055 0.000000
0.822683 0.657967 0.000000
0.855063 0.656882 0.000000
0.887390 0.655799 0.000000
0.919666 0.654717 0.000000
0.951893 0.653637 0.000000
0.000000 0.727295 0.000000
0.000000 0.725888 0.000000
0.000000 0.724573 0.000000
0.000000 0.723314 0.000000
0.000000 0.722083 0.000000
0.021366 0.720867 0.000000
0.057309 0.719662 0.000000
0.092967 0.718467 0.000000
0.128382 0.717280 0.000000
0.163586 0.716100 0.000000
0.198604 0.714926 0.000000
0.233455 0.713758 0.000000
0.268529 0.712582 0.000000
0.303979 0.711394 0.000000
0.339298 0.710211 0.000000
0.374497 0.709031 0.000000
0.409585 0.707855 0.000000
0.444569 0.706682 0.000000
0.479454 0.705513 0.000000
0.514248 0.704347 0.000000
0.548954 0.703183 0.000000
0.583577 0.702023 0.000000
0.618122 0.700865 0.000000
0.652593 0.699710 0.000000
0.686992 0.698557 0.000000
0.720771 0.697424 0.000000
0.753323 0.696333 0.000000
0.785816 0.695244 0.000000
0.818251 0.694157 0.000000
0.850632 0.693072 0.000000
0.882959 0.691988 0.000000
0.915235 0.690907 0.000000
0.947461 0.689826 0.000000
0.000000 0.762232 0.000000
0.000000 0.760826 0.000000
0.000000 0.759510 0.000000
0.000000 0.758251 0.000000
0.000000 0.757020 0.000000
0.017088 0.755804 0.000000
0.053031 0.754599 0.000000
0.088688 0.753404 0.000000
0.124103 0.752217 0.000000
0.159308 0.751037 0.000000
0.194325 0.749863 0.000000
0.229177 0.748695 0.000000
0.264251 0.747520 0.000000
0.299700 0.746332 0.000000
0.335020 0.745148 0.000000
0.370219 0.743968 0.000000
0.405307 0.742792 0.000000
0.440290 0.741619 0.000000
0.475176 0.740450 0.000000
0.509969 0.739284 0.000000
0.544675 0.738121 0.000000
0.579299 0.736960 0.000000
0.613844 0.735802 0.000000
0.648315 0.734647 0.000000
0.682714 0.733494 0.000000
0.716492 0.732362 0.000000
0.749045 0.731271 0.000000
0.781537 0.730182 0.000000
0.813973 0.729094 0.000000
0.846353 0.728009 0.000000
0.878680 0.726926 0.000000
0.910956 0.725844 0.000000
0.943183 0.724764 0.000000
0.000000 0.796613 0.000000
0.000000 0.795206 0.000000
0.000000 0.793890 0.000000
0.000000 0.792632 0.000000
0.000000 0.791401 0.000000
0.012878 0.790184 0.000000
0.048821 0.788980 0.000000
0.084478 0.787784 0.000000
0.119893 0.786597 0.000000
0.155097 0.785417 0.000000
0.190115 0.784244 0.000000
0.224967 0.783076 0.000000
0.260041 0.781900 0.000000
0.295490 0.780712 0.000000
0.330810 0.779528 0.000000
0.366009 0.778348 0.000000
0.401097 0.777172 0.000000
0.436080 0.776000 0.000000
0.470966 0.774830 0.000000
0.505759 0.773664 0.000000
0.540465 0.772501 0.000000
0.575089 0.771340 0.000000
0.609634 0.770182 0.000000
0.644104 0.769027 0.000000
0.678504 0.767874 0.000000
0.712282 0.766742 0.000000
0.744835 0.765651 0.000000
0.777327 0.764562 0.000000
0.809763 0.763475 0.000000
0.842143 0.762389 0.000000
0.874470 0.761306 0.000000
0.906746 0.760224 0.000000
0.938972 0.759144 0.000000
0.000000 0.830993 0.000000
0.000000 0.829586 0.000000
0.000000 0.828270 0.000000
0.000000 0.827012 0.000000
0.000000 0.825781 0.000000
0.008668 0.824565 0.000000
0.044611 0.823360 0.000000
0.080268 0.822165 0.000000
0.115683 0.820978 0.000000
0.150887 0.819798 0.000000
0.185905 0.818624 0.000000
0.220757 0.817456 0.000000
0.255831 0.816280 0.000000
0.291280 0.815092 0.000000
0.326599 0.813908 0.000000
0.361799 0.812728 0.000000
0.396887 0.811552 0.000000
0.431870 0.810380 0.000000
0.466756 0.809211 0.000000
0.501549 0.808044 0.000000
0.536255 0.806881 0.000000
0.570879 0.805721 0.000000
0.605424 0.804563 0.000000
0.639894 0.803407 0.000000
0.674293 0.802254 0.000000
0.708072 0.801122 0.000000
0.740624 0.800031 0.000000
0.773117 0.798942 0.000000
0.805553 0.797855 0.000000
0.837933 0.796770 0.000000
0.870260 0.795686 0.000000
0.902536 0.794604 0.000000
0.934762 0.793524 0.000000
0.000000 0.865373 0.000000
0.000000 0.863966 0.000000
0.000000 0.862651 0.000000
0.000000 0.861392 0.000000
0.000000 0.860161 0.000000
0.004458 0.858945 0.000000
0.040401 0.857740 0.000000
0.076058 0.856545 0.000000
0.111473 0.855358 0.000000
0.146677 0.854178 0.000000
0.181695 0.853004 0.000000
0.216546 0.851836 0.000000
0.251621 0.850661 0.000000
0.287070 0.849472 0.000000
0.322389 0.848289 0.000000
0.357589 0.847109 0.000000
0.392676 0.845933 0.000000
0.427660 0.844760 0.000000
0.462545 0.843591 0.000000
0.497339 0.842425 0.000000
0.532045 0.841261 0.000000
0.566669 0.840101 0.000000
0.601214 0.838943 0.000000
0.635684 0.837788 0.000000
0.670083 0.836635 0.000000
0.703862 0.835503 0.000000
0.736414 0.834411 0.000000
0.768907 0.833322 0.000000
0.801342 0.832235 0.000000
0.833723 0.831150 0.000000
0.866050 0.830066 0.000000
0.898326 0.828985 0.000000
0.930552 0.827904 0.000000
0.000000 0.899754 0.000000
0.000000 0.898347 0.000000
0.000000 0.897031 0.000000
0.000000 0.895772 0.000000
0.000000 0.894541 0.000000
0.000247 0.893325 0.000000
0.036190 0.892120 0.000000
0.071848 0.890925 0.000000
0.107263 0.889738 0.000000
0.142467 0.888558 0.000000
0.177485 0.887385 0.000000
0.212336 0.886216 0.000000
0.247410 0.885041 0.000000
0.282860 0.883853 0.000000
0.318179 0.882669 0.000000
0.353379 0.881489 0.000000
0.388466 0.880313 0.000000
0.423450 0.879140 0.000000
0.458335 0.877971 0.000000
0.493129 0.876805 0.000000
0.527835 0.875642 0.000000
0.562458 0.874481 0.000000
0.597004 0.873323 0.000000
0.631474 0.872168 0.000000
0.665873 0.871015 0.000000
