flutter_app/assets/lut/cameras/ccd_m.cube
TITLE "CCD M"
# DAZZ Camera LUT - CCD M
# Generated for DAZZ retro camera app
LUT_3D_SIZE 5
DOMAIN_MIN 0.0 0.0 0.0
DOMAIN_MAX 1.0 1.0 1.0
0.000000 0.000000 0.022503
0.220483 0.000000 0.012488
0.501686 0.000000 0.003063
0.779093 0.000000 0.000000
1.000000 0.000000 0.000000
0.000000 0.258356 0.000000
0.185807 0.248340 0.000000
0.467011 0.238915 0.000000
0.744418 0.229617 0.000000
1.000000 0.220887 0.000000
0.000000 0.546346 0.000000
0.150540 0.536331 0.000000
0.431744 0.526906 0.000000
0.709151 0.517608 0.000000
0.969620 0.508878 0.000000
0.000000 0.830993 0.000000
0.115683 0.820978 0.000000
0.396887 0.811552 0.000000
0.674293 0.802254 0.000000
0.934762 0.793524 0.000000
0.000000 1.000000 0.000000
0.084344 1.000000 0.000000
0.365548 1.000000 0.000000
0.642955 1.000000 0.000000
0.903424 1.000000 0.000000
0.000000 0.000000 0.348520
0.216852 0.000000 0.338505
0.498055 0.000000 0.329080
0.775462 0.000000 0.319782
1.000000 0.000000 0.311051
0.000000 0.254725 0.313845
0.182177 0.244710 0.303830
0.463380 0.235285 0.294404
0.740787 0.225987 0.285106
1.000000 0.217256 0.276376
0.000000 0.542716 0.278578
0.146910 0.532700 0.268563
0.428113 0.523275 0.259137
0.705520 0.513977 0.249839
0.965989 0.505247 0.241109
0.000000 0.827362 0.243721
0.112052 0.817347 0.233705
0.393256 0.807922 0.224280
0.670663 0.798624 0.214982
0.931132 0.789894 0.206252
0.000000 1.000000 0.212382
0.080714 1.000000 0.202367
0.361917 1.000000 0.192941
0.639324 1.000000 0.183643
0.899793 1.000000 0.174913
0.000000 0.000000 0.703782
0.212896 0.000000 0.693766
0.494099 0.000000 0.684341
0.771506 0.000000 0.675043
1.000000 0.000000 0.666313
0.000000 0.250769 0.669106
0.178220 0.240754 0.659091
0.459424 0.231328 0.649666
0.736831 0.222030 0.640368
0.997300 0.213300 0.631637
0.000000 0.538760 0.633840
0.142954 0.528744 0.623824
0.424157 0.519319 0.614399
0.701564 0.510021 0.605101
0.962033 0.501291 0.596371
0.000000 0.823406 0.598982
0.108096 0.813391 0.588967
0.389300 0.803966 0.579542
0.666707 0.794668 0.570244
0.927175 0.785937 0.561513
0.000000 1.000000 0.567643
0.076757 1.000000 0.557628
0.357961 1.000000 0.548203
0.635368 1.000000 0.538905
0.895837 1.000000 0.530175
0.000000 0.000000 1.000000
0.208968 0.000000 1.000000
0.490171 0.000000 1.000000
0.767578 0.000000 1.000000
1.000000 0.000000 1.000000
0.000000 0.246841 1.000000
0.174293 0.236826 1.000000
0.455496 0.227401 1.000000
0.732903 0.218103 0.993071
0.993372 0.209372 0.984340
0.000000 0.534832 0.986542
0.139026 0.524816 0.976527
0.420229 0.515391 0.967102
0.697636 0.506093 0.957804
0.958105 0.497363 0.949073
0.000000 0.819478 0.951685
0.104168 0.809463 0.941670
0.385372 0.800038 0.932244
0.662779 0.790740 0.922946
0.923248 0.782010 0.914216
0.000000 1.000000 0.920346
0.072830 1.000000 0.910331
0.354033 1.000000 0.900906
0.631440 1.000000 0.891608
0.891909 1.000000 0.882877
0.000000 0.000000 1.000000
0.206966 0.000000 1.000000
0.488169 0.000000 1.000000
0.765576 0.000000 1.000000
1.000000 0.000000 1.000000
0.000000 0.244839 1.000000
0.172290 0.234823 1.000000
0.453494 0.225398 1.000000
0.730901 0.216100 1.000000
0.991369 0.207370 1.000000
0.000000 0.532829 1.000000
0.137023 0.522814 1.000000
0.418227 0.513389 1.000000
0.695634 0.504091 1.000000
0.956103 0.495361 1.000000
0.000000 0.817476 1.000000
0.102166 0.807461 1.000000
0.383370 0.798035 1.000000
0.660776 0.788737 1.000000
0.921245 0.780007 1.000000
0.000000 1.000000 1.000000
0.070827 1.000000 1.000000
0.352031 1.000000 1.000000
0.629438 1.000000 1.000000
0.889907 1.000000 1.000000
