flutter_app/assets/lut/cameras/ccd_r.cube
TITLE "CCD R"
# DAZZ Camera LUT - CCD R
# 2003-2006 Early CCD Compact Camera
# contrast=1.15, saturation=1.10, temperature=-120, tint=+10
# Blue-green color bias, high contrast, strong CCD character
LUT_3D_SIZE 33
DOMAIN_MIN 0.0 0.0 0.0
DOMAIN_MAX 1.0 1.0 1.0
0.000000 0.012000 0.024000
0.000000 0.012000 0.024000
0.000000 0.011556 0.059409
0.000000 0.011059 0.097436
0.000000 0.010539 0.135416
0.000000 0.009992 0.173341
0.000000 0.009412 0.211203
0.000000 0.008795 0.248989
0.000000 0.008131 0.286682
0.000000 0.007408 0.324256
0.000000 0.006606 0.361673
0.000000 0.005693 0.398866
0.000000 0.004601 0.435703
0.000000 0.003151 0.471824
0.000000 0.000000 0.504542
0.000000 0.000000 0.543562
0.000000 0.000000 0.582583
0.000000 0.000000 0.621603
0.000000 0.000000 0.660624
0.000000 0.000000 0.699644
0.000000 0.000000 0.738665
0.000000 0.000000 0.777685
0.000000 0.000000 0.816706
0.000000 0.000000 0.855726
0.000000 0.000000 0.894746
0.000000 0.000000 0.933767
0.000000 0.000000 0.972787
0.000000 0.000000 1.000000
0.000000 0.000000 1.000000
0.000000 0.000000 1.000000
0.000000 0.000000 1.000000
0.000000 0.000000 1.000000
0.000000 0.000000 1.000000
0.000000 0.012000 0.024000
0.000000 0.012000 0.024000
0.000000 0.011556 0.059409
0.000000 0.011059 0.097436
0.000000 0.010539 0.135416
0.000000 0.009992 0.173341
0.000000 0.009412 0.211203
0.000000 0.008795 0.248989
0.000000 0.008131 0.286682
0.000000 0.007408 0.324256
0.000000 0.006606 0.361673
0.000000 0.005693 0.398866
0.000000 0.004601 0.435703
0.000000 0.003151 0.471824
0.000000 0.000000 0.504542
0.000000 0.000000 0.543562
0.000000 0.000000 0.582583
0.000000 0.000000 0.621603
0.000000 0.000000 0.660624
0.000000 0.000000 0.699644
0.000000 0.000000 0.738665
0.000000 0.000000 0.777685
0.000000 0.000000 0.816706
0.000000 0.000000 0.855726
0.000000 0.000000 0.894746
0.000000 0.000000 0.933767
0.000000 0.000000 0.972787
0.000000 0.000000 1.000000
0.000000 0.000000 1.000000
0.000000 0.000000 1.000000
0.000000 0.000000 1.000000
0.000000 0.000000 1.000000
0.000000 0.000000 1.000000
0.000000 0.022496 0.023744
0.000000 0.022496 0.023744
0.000000 0.021829 0.058447
0.000000 0.021083 0.096491
0.000000 0.020313 0.134488
0.000000 0.019517 0.172431
0.000000 0.018688 0.210310
0.000000 0.017822 0.248114
0.000000 0.016910 0.285825
0.000000 0.015938 0.323418
0.000000 0.014889 0.360856
0.000000 0.013729 0.398072
0.000000 0.012394 0.434938
0.000000 0.010709 0.471104
0.000000 0.007291 0.503803
0.000000 0.007033 0.542824
0.000000 0.006775 0.581844
0.000000 0.006517 0.620865
0.000000 0.006259 0.659885
0.000000 0.006002 0.698905
0.000000 0.005744 0.737926
0.000000 0.005486 0.776946
0.000000 0.005228 0.815967
0.000000 0.004970 0.854987
0.000000 0.004713 0.894008
0.000000 0.004455 0.933028
0.000000 0.004197 0.972048
0.000000 0.003939 1.000000
0.000000 0.003681 1.000000
0.000000 0.003424 1.000000
0.000000 0.003404 1.000000
0.000000 0.003404 1.000000
0.000000 0.003404 1.000000
0.000000 0.058825 0.022834
0.000000 0.058825 0.022834
0.000000 0.058205 0.055073
0.000000 0.057479 0.093157
0.000000 0.056730 0.131197
0.000000 0.055956 0.169185
0.000000 0.055152 0.207113
0.000000 0.054312 0.244969
0.000000 0.053428 0.282737
0.000000 0.052488 0.320393
0.000000 0.051475 0.357902
0.000000 0.050358 0.395205
0.000000 0.049078 0.432181
0.000000 0.047481 0.468522
0.000000 0.044074 0.501245
0.000000 0.043816 0.540266
0.000000 0.043559 0.579286
0.000000 0.043301 0.618307
0.000000 0.043043 0.657327
0.000000 0.042785 0.696347
0.000000 0.042527 0.735368
0.000000 0.042270 0.774388
0.000000 0.042012 0.813409
0.000000 0.041754 0.852429
0.000000 0.041496 0.891450
0.000000 0.041238 0.930470
0.000000 0.040981 0.969491
0.000000 0.040723 1.000000
0.000000 0.040465 1.000000
0.000000 0.040207 1.000000
0.000000 0.040188 1.000000
0.000000 0.040188 1.000000
0.000000 0.040188 1.000000
0.000000 0.095135 0.021886
0.000000 0.095135 0.021886
0.000000 0.094559 0.051658
0.000000 0.093854 0.089784
0.000000 0.093128 0.127868
0.000000 0.092378 0.165902
0.000000 0.091598 0.203880
0.000000 0.090785 0.241789
0.000000 0.089930 0.279615
0.000000 0.089022 0.317336
0.000000 0.088046 0.354919
0.000000 0.086972 0.392308
0.000000 0.085748 0.429395
0.000000 0.084235 0.465906
0.000000 0.081421 0.499813
0.000000 0.080600 0.537708
0.000000 0.080342 0.576728
0.000000 0.080084 0.615749
0.000000 0.079827 0.654769
0.000000 0.079569 0.693790
0.000000 0.079311 0.732810
0.000000 0.079053 0.771830
0.000000 0.078795 0.810851
0.000000 0.078538 0.849871
0.000000 0.078280 0.888892
0.000000 0.078022 0.927912
0.000000 0.077764 0.966933
0.000000 0.077506 1.000000
0.000000 0.077249 1.000000
0.000000 0.076991 1.000000
0.000000 0.076971 1.000000
0.000000 0.076971 1.000000
0.000000 0.076971 1.000000
0.000000 0.131423 0.020896
0.000000 0.131423 0.020896
0.000000 0.130891 0.048195
0.000000 0.130208 0.086365
0.000000 0.129504 0.124494
0.000000 0.128778 0.162578
0.000000 0.128024 0.200607
0.000000 0.127238 0.238571
0.000000 0.126413 0.276457
0.000000 0.125539 0.314244
0.000000 0.124600 0.351902
0.000000 0.123570 0.389379
0.000000 0.122402 0.426578
0.000000 0.120972 0.463254
0.000000 0.118565 0.497976
0.000000 0.117384 0.535150
0.000000 0.117126 0.574170
0.000000 0.116868 0.613191
0.000000 0.116610 0.652211
0.000000 0.116352 0.691232
0.000000 0.116095 0.730252
0.000000 0.115837 0.769273
0.000000 0.115579 0.808293
0.000000 0.115321 0.847313
0.000000 0.115063 0.886334
0.000000 0.114806 0.925354
0.000000 0.114548 0.964375
0.000000 0.114290 1.000000
0.000000 0.114032 1.000000
0.000000 0.113774 1.000000
0.000000 0.113755 1.000000
0.000000 0.113755 1.000000
0.000000 0.113755 1.000000
0.000000 0.167687 0.019856
0.000000 0.167687 0.019856
0.000000 0.167195 0.044680
0.000000 0.166535 0.082895
0.000000 0.165855 0.121071
0.000000 0.165154 0.159205
0.000000 0.164427 0.197287
0.000000 0.163670 0.235309
0.000000 0.162876 0.273257
0.000000 0.162036 0.311113
0.000000 0.161135 0.348848
0.000000 0.160151 0.386415
0.000000 0.159038 0.423725
0.000000 0.157689 0.460564
0.000000 0.155556 0.495834
0.000000 0.154167 0.532592
0.000000 0.153909 0.571612
0.000000 0.153652 0.610633
0.000000 0.153394 0.649653
0.000000 0.153136 0.688674
0.000000 0.152878 0.727694
0.000000 0.152620 0.766715
0.000000 0.152363 0.805735
0.000000 0.152105 0.844756
0.000000 0.151847 0.883776
0.000000 0.151589 0.922796
0.000000 0.151331 0.961817
0.000000 0.151074 1.000000
0.000000 0.150816 1.000000
0.000000 0.150558 1.000000
0.000000 0.150539 1.000000
0.000000 0.150539 1.000000
0.000000 0.150539 1.000000
0.000000 0.203921 0.018759
0.000000 0.203921 0.018759
0.000000 0.203469 0.041102
0.000000 0.202832 0.079364
0.000000 0.202178 0.117591
0.000000 0.201503 0.155777
0.000000 0.200804 0.193915
0.000000 0.200076 0.231997
0.000000 0.199315 0.270009
0.000000 0.198510 0.307936
0.000000 0.197649 0.345751
0.000000 0.196711 0.383410
0.000000 0.195655 0.420835
0.000000 0.194387 0.457835
0.000000 0.192473 0.493542
0.000000 0.190951 0.530034
0.000000 0.190693 0.569055
0.000000 0.190435 0.608075
0.000000 0.190177 0.647095
0.000000 0.189920 0.686116
0.000000 0.189662 0.725136
0.000000 0.189404 0.764157
0.000000 0.189146 0.803177
0.000000 0.188888 0.842198
0.000000 0.188631 0.881218
0.000000 0.188373 0.920238
0.000000 0.188115 0.959259
0.000000 0.187857 0.998279
0.000000 0.187599 1.000000
0.000000 0.187342 1.000000
0.000000 0.187322 1.000000
0.000000 0.187322 1.000000
0.000000 0.187322 1.000000
0.000000 0.240122 0.017593
0.000000 0.240122 0.017593
0.000000 0.239707 0.037452
0.000000 0.239095 0.075764
0.000000 0.238466 0.114043
0.000000 0.237819 0.152285
0.000000 0.237149 0.190481
0.000000 0.236453 0.228625
0.000000 0.235725 0.266706
0.000000 0.234958 0.304707
0.000000 0.234138 0.342604
0.000000 0.233248 0.380359
0.000000 0.232251 0.417901
0.000000 0.231063 0.455062
0.000000 0.229337 0.491145
0.000000 0.227734 0.527476
0.000000 0.227477 0.566497
0.000000 0.227219 0.605517
0.000000 0.226961 0.644537
0.000000 0.226703 0.683558
0.000000 0.226445 0.722578
0.000000 0.226188 0.761599
0.000000 0.225930 0.800619
0.000000 0.225672 0.839640
0.000000 0.225414 0.878660
0.000000 0.225156 0.917681
0.000000 0.224899 0.956701
0.000000 0.224641 0.995721
0.000000 0.224383 1.000000
0.000000 0.224125 1.000000
0.000000 0.224106 1.000000
0.000000 0.224106 1.000000
0.000000 0.224106 1.000000
0.000000 0.276281 0.016344
0.000000 0.276281 0.016344
0.000000 0.275900 0.033714
0.000000 0.275315 0.072080
0.000000 0.274715 0.110415
0.000000 0.274096 0.148714
0.000000 0.273458 0.186973
0.000000 0.272795 0.225184
0.000000 0.272103 0.263336
0.000000 0.271374 0.301414
0.000000 0.270598 0.339399
0.000000 0.269758 0.377254
0.000000 0.268821 0.414916
0.000000 0.267715 0.452240
0.000000 0.266158 0.488662
0.000000 0.264518 0.524918
0.000000 0.264260 0.563939
0.000000 0.264002 0.602959
0.000000 0.263745 0.641980
0.000000 0.263487 0.681000
0.000000 0.263229 0.720020
0.000000 0.262971 0.759041
0.000000 0.262713 0.798061
0.000000 0.262456 0.837082
0.000000 0.262198 0.876102
0.000000 0.261940 0.915123
0.000000 0.261682 0.954143
0.000000 0.261424 0.993164
0.000000 0.261166 1.000000
0.000000 0.260909 1.000000
0.000000 0.260889 1.000000
0.000000 0.260889 1.000000
0.000000 0.260889 1.000000
0.000000 0.312389 0.014992
0.000000 0.312389 0.014992
0.000000 0.312040 0.029868
0.000000 0.311483 0.068291
0.000000 0.310913 0.106686
0.000000 0.310326 0.145048
0.000000 0.309721 0.183374
0.000000 0.309093 0.221655
0.000000 0.308439 0.259883
0.000000 0.307752 0.298045
0.000000 0.307023 0.336122
0.000000 0.306235 0.374082
0.000000 0.305361 0.411871
0.000000 0.304338 0.449362
0.000000 0.302939 0.486100
0.000000 0.301302 0.522360
0.000000 0.301044 0.561381
0.000000 0.300786 0.600401
0.000000 0.300528 0.639422
0.000000 0.300270 0.678442
0.000000 0.300013 0.717463
0.000000 0.299755 0.756483
0.000000 0.299497 0.795503
0.000000 0.299239 0.834524
0.000000 0.298981 0.873544
0.000000 0.298723 0.912565
0.000000 0.298466 0.951585
0.000000 0.298208 0.990606
0.000000 0.297950 1.000000
0.000000 0.297692 1.000000
0.000000 0.297673 1.000000
0.000000 0.297673 1.000000
0.000000 0.297673 1.000000
0.000000 0.348429 0.013505
0.000000 0.348429 0.013505
0.000000 0.348109 0.025882
0.000000 0.347584 0.064367
0.000000 0.347046 0.102827
0.000000 0.346494 0.141259
0.000000 0.345925 0.179657
0.000000 0.345336 0.218016
0.000000 0.344723 0.256327
0.000000 0.344081 0.294579
0.000000 0.343401 0.332755
0.000000 0.342670 0.370828
0.000000 0.341863 0.408750
0.000000 0.340928 0.446415
0.000000 0.339681 0.483457
0.000000 0.338085 0.519802
0.000000 0.337827 0.558823
0.000000 0.337570 0.597843
0.000000 0.337312 0.636864
0.000000 0.337054 0.675884
0.000000 0.336796 0.714905
0.000000 0.336538 0.753925
0.000000 0.336281 0.792946
0.000000 0.336023 0.831966
0.000000 0.335765 0.870986
0.000000 0.335507 0.910007
0.000000 0.335249 0.949027
0.000000 0.334991 0.988048
0.000000 0.334734 1.000000
0.000000 0.334476 1.000000
0.000000 0.334456 1.000000
0.000000 0.334456 1.000000
0.000000 0.334456 1.000000
0.000000 0.384376 0.011833
0.000000 0.384376 0.011833
0.000000 0.384083 0.021704
0.000000 0.383593 0.060260
0.000000 0.383092 0.098794
0.000000 0.382578 0.137302
0.000000 0.382049 0.175781
0.000000 0.381504 0.214226
0.000000 0.380937 0.252629
0.000000 0.380345 0.290980
0.000000 0.379720 0.329266
0.000000 0.379050 0.367463
0.000000 0.378316 0.405531
0.000000 0.377473 0.443382
0.000000 0.376378 0.480727
0.000000 0.374869 0.517245
0.000000 0.374611 0.556265
0.000000 0.374353 0.595285
0.000000 0.374095 0.634306
0.000000 0.373838 0.673326
0.000000 0.373580 0.712347
0.000000 0.373322 0.751367
0.000000 0.373064 0.790388
0.000000 0.372806 0.829408
0.000000 0.372548 0.868428
0.000000 0.372291 0.907449
0.000000 0.372033 0.946469
0.000000 0.371775 0.985490
0.000000 0.371517 1.000000
0.000000 0.371259 1.000000
0.000000 0.371240 1.000000
0.000000 0.371240 1.000000
0.000000 0.371240 1.000000
0.000000 0.420184 0.009881
0.000000 0.420184 0.009881
0.000000 0.419915 0.017242
0.000000 0.419465 0.055880
0.000000 0.419007 0.094499
0.000000 0.418538 0.133097
0.000000 0.418056 0.171669
0.000000 0.417560 0.210213
0.000000 0.417046 0.248722
0.000000 0.416511 0.287188
0.000000 0.415949 0.325600
0.000000 0.415350 0.363938
0.000000 0.414698 0.402170
0.000000 0.413958 0.440226
0.000000 0.413021 0.477888
0.000000 0.411652 0.514687
0.000000 0.411395 0.553707
0.000000 0.411137 0.592727
0.000000 0.410879 0.631748
0.000000 0.410621 0.670768
0.000000 0.410363 0.709789
0.000000 0.410105 0.748809
0.000000 0.409848 0.787830
0.000000 0.409590 0.826850
0.000000 0.409332 0.865871
0.000000 0.409074 0.904891
0.000000 0.408816 0.943911
0.000000 0.408559 0.982932
0.000000 0.408301 1.000000
0.000000 0.408043 1.000000
0.000000 0.408024 1.000000
0.000000 0.408024 1.000000
0.000000 0.408024 1.000000
0.000000 0.455744 0.007434
0.000000 0.455744 0.007434
0.000000 0.455496 0.012279
0.000000 0.455098 0.051020
0.000000 0.454693 0.089747
0.000000 0.454280 0.128457
0.000000 0.453857 0.167147
0.000000 0.453423 0.205815
0.000000 0.452976 0.244456
0.000000 0.452512 0.283064
0.000000 0.452027 0.321630
0.000000 0.451514 0.360141
0.000000 0.450961 0.398572
0.000000 0.450344 0.436872
0.000000 0.449585 0.474891
0.000000 0.448436 0.512129
0.000000 0.448178 0.551149
0.000000 0.447920 0.590170
0.000000 0.447663 0.629190
0.000000 0.447405 0.668210
0.000000 0.447147 0.707231
0.000000 0.446889 0.746251
0.000000 0.446631 0.785272
0.000000 0.446373 0.824292
0.000000 0.446116 0.863313
0.000000 0.445858 0.902333
0.000000 0.445600 0.941354
0.000000 0.445342 0.980374
0.000000 0.445084 1.000000
0.000000 0.444827 1.000000
0.000000 0.444807 1.000000
0.000000 0.444807 1.000000
0.000000 0.444807 1.000000
0.000000 0.490606 0.003590
0.000000 0.490606 0.003590
0.000000 0.490381 0.005925
0.000000 0.490070 0.044840
0.000000 0.489755 0.083744
0.000000 0.489433 0.122638
0.000000 0.489106 0.161518
0.000000 0.488771 0.200385
0.000000 0.488428 0.239235
0.000000 0.488075 0.278065
0.000000 0.487709 0.316870
0.000000 0.487328 0.355643
0.000000 0.486924 0.394372
0.000000 0.486485 0.433030
0.000000 0.485974 0.471543
0.000000 0.485220 0.509571
0.000000 0.484962 0.548591
0.000000 0.484704 0.587612
0.000000 0.484446 0.626632
0.000000 0.484188 0.665653
0.000000 0.483930 0.704673
0.000000 0.483673 0.743693
0.000000 0.483415 0.782714
0.000000 0.483157 0.821734
0.000000 0.482899 0.860755
0.000000 0.482641 0.899775
0.000000 0.482384 0.938796
0.000000 0.482126 0.977816
0.000000 0.481868 1.000000
0.000000 0.481610 1.000000
0.000000 0.481591 1.000000
0.000000 0.481591 1.000000
0.000000 0.481591 1.000000
0.000000 0.525594 0.000000
0.000000 0.525594 0.000000
0.000000 0.525355 0.000000
0.000000 0.525097 0.038768
0.000000 0.524839 0.077788
0.000000 0.524581 0.116808
0.000000 0.524323 0.155829
0.000000 0.524066 0.194849
0.000000 0.523808 0.233870
0.000000 0.523550 0.272890
0.000000 0.523292 0.311911
0.000000 0.523034 0.350931
0.000000 0.522777 0.389952
0.000000 0.522519 0.428972
0.000000 0.522261 0.467992
0.000000 0.522003 0.507013
0.000000 0.521745 0.546033
0.000000 0.521487 0.585054
0.000000 0.521230 0.624074
0.000000 0.520972 0.663095
0.000000 0.520714 0.702115
0.000000 0.520456 0.741136
0.000000 0.520198 0.780156
0.000000 0.519941 0.819176
0.000000 0.519683 0.858197
0.000000 0.519425 0.897217
0.000000 0.519167 0.936238
0.000000 0.518909 0.975258
0.000000 0.518652 1.000000
0.000000 0.518394 1.000000
0.000000 0.518374 1.000000
0.000000 0.518374 1.000000
0.000000 0.518374 1.000000
0.000000 0.562378 0.000000
0.000000 0.562378 0.000000
0.000000 0.562138 0.000000
0.000000 0.561880 0.036210
0.000000 0.561623 0.075230
0.000000 0.561365 0.114251
0.000000 0.561107 0.153271
0.000000 0.560849 0.192291
0.000000 0.560591 0.231312
0.000000 0.560334 0.270332
0.000000 0.560076 0.309353
0.000000 0.559818 0.348373
0.000000 0.559560 0.387394
0.000000 0.559302 0.426414
0.000000 0.559044 0.465434
0.000000 0.558787 0.504455
0.000000 0.558529 0.543475
0.000000 0.558271 0.582496
0.000000 0.558013 0.621516
0.000000 0.557755 0.660537
0.000000 0.557498 0.699557
0.000000 0.557240 0.738578
0.000000 0.556982 0.777598
0.000000 0.556724 0.816618
0.000000 0.556466 0.855639
0.000000 0.556209 0.894659
0.000000 0.555951 0.933680
0.000000 0.555693 0.972700
0.000000 0.555435 1.000000
0.000000 0.555177 1.000000
0.000000 0.555158 1.000000
0.000000 0.555158 1.000000
0.000000 0.555158 1.000000
0.000000 0.599162 0.000000
0.000000 0.599162 0.000000
0.000000 0.598922 0.000000
0.000000 0.598664 0.033652
0.000000 0.598406 0.072672
0.000000 0.598148 0.111693
0.000000 0.597891 0.150713
0.000000 0.597633 0.189733
0.000000 0.597375 0.228754
0.000000 0.597117 0.267774
0.000000 0.596859 0.306795
0.000000 0.596602 0.345815
0.000000 0.596344 0.384836
0.000000 0.596086 0.423856
0.000000 0.595828 0.462877
0.000000 0.595570 0.501897
0.000000 0.595312 0.540917
0.000000 0.595055 0.579938
0.000000 0.594797 0.618958
0.000000 0.594539 0.657979
0.000000 0.594281 0.696999
0.000000 0.594023 0.736020
0.000000 0.593766 0.775040
0.000000 0.593508 0.814061
0.000000 0.593250 0.853081
0.000000 0.592992 0.892101
0.000000 0.592734 0.931122
0.000000 0.592477 0.970142
0.000000 0.592219 1.000000
0.000000 0.591961 1.000000
0.000000 0.591942 1.000000
0.000000 0.591942 1.000000
0.000000 0.591942 1.000000
0.000000 0.635945 0.000000
0.000000 0.635945 0.000000
0.000000 0.635705 0.000000
0.000000 0.635448 0.031094
0.000000 0.635190 0.070114
0.000000 0.634932 0.109135
0.000000 0.634674 0.148155
0.000000 0.634416 0.187176
0.000000 0.634159 0.226196
0.000000 0.633901 0.265216
0.000000 0.633643 0.304237
0.000000 0.633385 0.343257
0.000000 0.633127 0.382278
0.000000 0.632869 0.421298
0.000000 0.632612 0.460319
0.000000 0.632354 0.499339
0.000000 0.632096 0.538360
0.000000 0.631838 0.577380
0.000000 0.631580 0.616400
0.000000 0.631323 0.655421
0.000000 0.631065 0.694441
0.000000 0.630807 0.733462
0.000000 0.630549 0.772482
0.000000 0.630291 0.811503
0.000000 0.630034 0.850523
0.000000 0.629776 0.889544
0.000000 0.629518 0.928564
0.000000 0.629260 0.967584
0.000000 0.629002 1.000000
0.000000 0.628745 1.000000
0.000000 0.628725 1.000000
0.000000 0.628725 1.000000
0.000000 0.628725 1.000000
0.000000 0.672729 0.000000
0.000000 0.672729 0.000000
0.000000 0.672489 0.000000
0.000000 0.672231 0.028536
0.000000 0.671973 0.067556
0.000000 0.671716 0.106577
0.000000 0.671458 0.145597
0.000000 0.671200 0.184618
0.000000 0.670942 0.223638
0.000000 0.670684 0.262659
0.000000 0.670426 0.301679
0.000000 0.670169 0.340699
0.000000 0.669911 0.379720
0.000000 0.669653 0.418740
0.000000 0.669395 0.457761
0.000000 0.669137 0.496781
0.000000 0.668880 0.535802
0.000000 0.668622 0.574822
0.000000 0.668364 0.613843
0.000000 0.668106 0.652863
0.000000 0.667848 0.691883
0.000000 0.667591 0.730904
0.000000 0.667333 0.769924
0.000000 0.667075 0.808945
0.000000 0.666817 0.847965
0.000000 0.666559 0.886986
0.000000 0.666302 0.926006
0.000000 0.666044 0.965027
0.000000 0.665786 1.000000
0.000000 0.665528 1.000000
0.000000 0.665509 1.000000
0.000000 0.665509 1.000000
0.000000 0.665509 1.000000
0.000000 0.709512 0.000000
0.000000 0.709512 0.000000
0.000000 0.709273 0.000000
0.000000 0.709015 0.025978
0.000000 0.708757 0.064998
0.000000 0.708499 0.104019
0.000000 0.708241 0.143039
0.000000 0.707984 0.182060
0.000000 0.707726 0.221080
0.000000 0.707468 0.260101
0.000000 0.707210 0.299121
0.000000 0.706952 0.338142
0.000000 0.706694 0.377162
0.000000 0.706437 0.416182
0.000000 0.706179 0.455203
0.000000 0.705921 0.494223
0.000000 0.705663 0.533244
0.000000 0.705405 0.572264
0.000000 0.705148 0.611285
0.000000 0.704890 0.650305
0.000000 0.704632 0.689325
0.000000 0.704374 0.728346
0.000000 0.704116 0.767366
0.000000 0.703859 0.806387
0.000000 0.703601 0.845407
0.000000 0.703343 0.884428
0.000000 0.703085 0.923448
0.000000 0.702827 0.962469
0.000000 0.702570 1.000000
0.000000 0.702312 1.000000
0.000000 0.702292 1.000000
0.000000 0.702292 1.000000
0.000000 0.702292 1.000000
0.000000 0.746296 0.000000
0.000000 0.746296 0.000000
0.000000 0.746056 0.000000
0.000000 0.745798 0.023420
0.000000 0.745541 0.062441
0.000000 0.745283 0.101461
0.000000 0.745025 0.140481
0.000000 0.744767 0.179502
0.000000 0.744509 0.218522
0.000000 0.744251 0.257543
0.000000 0.743994 0.296563
0.000000 0.743736 0.335584
0.000000 0.743478 0.374604
0.000000 0.743220 0.413624
0.000000 0.742962 0.452645
0.000000 0.742705 0.491665
0.000000 0.742447 0.530686
0.000000 0.742189 0.569706
0.000000 0.741931 0.608727
0.000000 0.741673 0.647747
0.000000 0.741416 0.686768
0.000000 0.741158 0.725788
0.000000 0.740900 0.764808
0.000000 0.740642 0.803829
0.000000 0.740384 0.842849
0.000000 0.740127 0.881870
0.000000 0.739869 0.920890
0.000000 0.739611 0.959911
0.000000 0.739353 0.998931
0.000000 0.739095 1.000000
0.000000 0.739076 1.000000
0.000000 0.739076 1.000000
0.000000 0.739076 1.000000
0.000000 0.783080 0.000000
0.000000 0.783080 0.000000
0.000000 0.782840 0.000000
0.000000 0.782582 0.020862
0.000000 0.782324 0.059883
0.000000 0.782066 0.098903
0.000000 0.781808 0.137923
0.000000 0.781551 0.176944
0.000000 0.781293 0.215964
0.000000 0.781035 0.254985
0.000000 0.780777 0.294005
0.000000 0.780519 0.333026
0.000000 0.780262 0.372046
0.000000 0.780004 0.411067
0.000000 0.779746 0.450087
0.000000 0.779488 0.489107
0.000000 0.779230 0.528128
0.000000 0.778973 0.567148
0.000000 0.778715 0.606169
0.000000 0.778457 0.645189
0.000000 0.778199 0.684210
0.000000 0.777941 0.723230
0.000000 0.777684 0.762251
0.000000 0.777426 0.801271
0.000000 0.777168 0.840291
0.000000 0.776910 0.879312
0.000000 0.776652 0.918332
0.000000 0.776395 0.957353
0.000000 0.776137 0.996373
0.000000 0.775879 1.000000
0.000000 0.775860 1.000000
0.000000 0.775860 1.000000
0.000000 0.775860 1.000000
0.000000 0.819863 0.000000
0.000000 0.819863 0.000000
0.000000 0.819623 0.000000
0.000000 0.819365 0.018304
0.000000 0.819108 0.057325
0.000000 0.818850 0.096345
0.000000 0.818592 0.135366
0.000000 0.818334 0.174386
0.000000 0.818076 0.213406
0.000000 0.817819 0.252427
0.000000 0.817561 0.291447
0.000000 0.817303 0.330468
0.000000 0.817045 0.369488
0.000000 0.816787 0.408509
0.000000 0.816530 0.447529
0.000000 0.816272 0.486550
0.000000 0.816014 0.525570
0.000000 0.815756 0.564590
0.000000 0.815498 0.603611
0.000000 0.815241 0.642631
0.000000 0.814983 0.681652
0.000000 0.814725 0.720672
0.000000 0.814467 0.759693
0.000000 0.814209 0.798713
0.000000 0.813952 0.837734
0.000000 0.813694 0.876754
0.000000 0.813436 0.915774
0.000000 0.813178 0.954795
0.000000 0.812920 0.993815
0.000000 0.812662 1.000000
0.000000 0.812643 1.000000
0.000000 0.812643 1.000000
0.000000 0.812643 1.000000
0.000000 0.856647 0.000000
0.000000 0.856647 0.000000
0.000000 0.856407 0.000000
0.000000 0.856149 0.015746
0.000000 0.855891 0.054767
0.000000 0.855633 0.093787
0.000000 0.855376 0.132808
0.000000 0.855118 0.171828
0.000000 0.854860 0.210849
0.000000 0.854602 0.249869
0.000000 0.854344 0.288889
0.000000 0.854087 0.327910
0.000000 0.853829 0.366930
0.000000 0.853571 0.405951
0.000000 0.853313 0.444971
0.000000 0.853055 0.483992
0.000000 0.852798 0.523012
0.000000 0.852540 0.562033
0.000000 0.852282 0.601053
0.000000 0.852024 0.640073
0.000000 0.851766 0.679094
0.000000 0.851509 0.718114
0.000000 0.851251 0.757135
0.000000 0.850993 0.796155
0.000000 0.850735 0.835176
0.000000 0.850477 0.874196
0.000000 0.850219 0.913216
0.000000 0.849962 0.952237
0.000000 0.849704 0.991257
0.000000 0.849446 1.000000
0.000000 0.849427 1.000000
0.000000 0.849427 1.000000
0.000000 0.849427 1.000000
0.000000 0.893430 0.000000
0.000000 0.893430 0.000000
0.000000 0.893190 0.000000
0.000000 0.892933 0.013188
0.000000 0.892675 0.052209
0.000000 0.892417 0.091229
0.000000 0.892159 0.130250
0.000000 0.891901 0.169270
0.000000 0.891644 0.208291
0.000000 0.891386 0.247311
0.000000 0.891128 0.286332
0.000000 0.890870 0.325352
0.000000 0.890612 0.364372
0.000000 0.890355 0.403393
0.000000 0.890097 0.442413
0.000000 0.889839 0.481434
0.000000 0.889581 0.520454
0.000000 0.889323 0.559475
0.000000 0.889066 0.598495
0.000000 0.888808 0.637515
0.000000 0.888550 0.676536
