flutter_app/assets/lut/cameras/ccd_r.cube
TITLE "CCD R"
# DAZZ Camera LUT - CCD R
# 2003-2006 Early CCD Compact Camera
# contrast=1.15, saturation=1.10, temperature=-120, tint=+10
# Blue-green color bias, high contrast, strong CCD character
LUT_3D_SIZE 5
DOMAIN_MIN 0.0 0.0 0.0
DOMAIN_MAX 1.0 1.0 1.0
0.000000 0.012000 0.024000
0.000000 0.008131 0.286682
0.000000 0.000000 0.582583
0.000000 0.000000 0.894746
0.000000 0.000000 1.000000
0.000000 0.240122 0.017593
0.000000 0.235725 0.266706
0.000000 0.227477 0.566497
0.000000 0.225414 0.878660
0.000000 0.224106 1.000000
0.000000 0.525594 0.000000
0.000000 0.523808 0.233870
0.000000 0.521745 0.546033
0.000000 0.519683 0.858197
0.000000 0.518374 1.000000
0.000000 0.819863 0.000000
0.000000 0.818076 0.213406
0.000000 0.816014 0.525570
0.000000 0.813952 0.837734
0.000000 0.812643 1.000000
0.000000 1.000000 0.000000
0.000000 1.000000 0.198899
0.000000 1.000000 0.511063
0.000000 1.000000 0.823226
0.000000 1.000000 1.000000
0.175299 0.009670 0.019341
0.173513 0.006620 0.280204
0.171450 0.000000 0.579128
0.169388 0.000000 0.891292
0.168079 0.000000 1.000000
0.159213 0.235180 0.014617
0.157426 0.231274 0.261257
0.155364 0.224022 0.563042
0.153301 0.221959 0.875205
0.151993 0.220651 1.000000
0.138750 0.522140 0.000000
0.136963 0.520353 0.230415
0.134901 0.518290 0.542578
0.132838 0.516228 0.854742
0.131530 0.514920 1.000000
0.118286 0.816408 0.000000
0.116500 0.814622 0.209952
0.114437 0.812559 0.522115
0.112375 0.810497 0.834279
0.111066 0.809188 1.000000
0.103779 1.000000 0.000000
0.101993 1.000000 0.195445
0.099930 1.000000 0.507608
0.097868 1.000000 0.819772
0.096559 1.000000 1.000000
0.489810 0.001713 0.003426
0.488023 0.001285 0.263335
0.485961 0.000000 0.572930
0.483898 0.000000 0.885093
0.482590 0.000000 1.000000
0.473724 0.223725 0.004105
0.471937 0.221406 0.247721
0.469875 0.217823 0.556843
0.467812 0.215761 0.869007
0.466504 0.214452 1.000000
0.453260 0.515941 0.000000
0.451474 0.514154 0.224216
0.449411 0.512092 0.536380
0.447349 0.510030 0.848544
0.446040 0.508721 1.000000
0.432797 0.810210 0.000000
0.431010 0.808423 0.203753
0.428948 0.806361 0.515917
0.426886 0.804298 0.828080
0.428434 0.805847 1.000000
0.418290 1.000000 0.000000
0.416503 1.000000 0.189246
0.414441 1.000000 0.501410
0.415177 1.000000 0.817772
0.417983 1.000000 1.000000
0.804321 0.000000 0.000000
0.802534 0.000000 0.254568
0.800472 0.000000 0.566731
0.798409 0.000000 0.878895
0.797101 0.000000 1.000000
0.788234 0.215474 0.000000
0.786448 0.213687 0.238481
0.784385 0.211625 0.550645
0.782323 0.209562 0.862808
0.781014 0.208254 1.000000
0.767771 0.509743 0.000000
0.765984 0.507956 0.218018
0.763922 0.505894 0.530182
0.762038 0.504010 0.842613
0.764175 0.506147 1.000000
0.747308 0.804011 0.000000
0.745521 0.802225 0.197555
0.743459 0.800162 0.509718
0.747205 0.803908 0.830594
0.749796 0.806500 1.000000
0.732801 1.000000 0.000000
0.731014 1.000000 0.183048
0.731711 1.000000 0.499350
0.736539 1.000000 0.821850
0.739482 1.000000 1.000000
1.000000 0.000000 0.000000
1.000000 0.000000 0.249159
1.000000 0.000000 0.561323
1.000000 0.000000 0.873486
1.000000 0.000000 1.000000
1.000000 0.210066 0.000000
1.000000 0.208279 0.233073
1.000000 0.206217 0.545237
1.000000 0.204154 0.857400
1.000000 0.205131 1.000000
1.000000 0.504334 0.000000
1.000000 0.502548 0.212610
1.000000 0.500485 0.524773
1.000000 0.503653 0.844782
1.000000 0.505939 1.000000
1.000000 0.798603 0.000000
1.000000 0.796816 0.192146
1.000000 0.799178 0.510945
1.000000 0.804006 0.833446
1.000000 0.806747 1.000000
1.000000 1.000000 0.000000
1.000000 1.000000 0.180227
1.000000 1.000000 0.502796
1.000000 1.000000 0.825365
1.000000 1.000000 1.000000
