flutter_app/assets/lut/cameras/cpm35_kodak_gold_warm.cube
TITLE "CPM35 Kodak Gold 200 Warm"
LUT_3D_SIZE 33
DOMAIN_MIN 0.0 0.0 0.0
DOMAIN_MAX 1.0 1.0 1.0
0.017994 0.000000 0.000000
0.042872 0.000000 0.000000
0.067734 0.000000 0.000000
0.101426 0.000000 0.000000
0.135231 0.000000 0.000000
0.168206 0.000000 0.000000
0.201150 0.000000 0.000000
0.234066 0.000000 0.000000
0.266951 0.000000 0.000000
0.304147 0.000000 0.000000
0.341448 0.000000 0.000000
0.378711 0.000000 0.000000
0.415936 0.000000 0.000000
0.453123 0.000000 0.000000
0.490272 0.000000 0.000000
0.527383 0.000000 0.000000
0.564456 0.000000 0.000000
0.606670 0.000000 0.000000
0.649188 0.000000 0.000000
0.691656 0.000000 0.000000
0.734075 0.000000 0.000000
0.764831 0.000000 0.000000
0.794768 0.000000 0.000000
0.824680 0.000000 0.000000
0.854567 0.000000 0.000000
0.884429 0.000000 0.000000
0.914267 0.000000 0.000000
0.944080 0.000000 0.000000
0.973868 0.000000 0.000000
0.992373 0.000000 0.000000
1.000000 0.000000 0.000000
1.000000 0.000000 0.000000
1.000000 0.000000 0.000000
0.015197 0.023890 0.000000
0.040105 0.023591 0.000000
0.064997 0.023291 0.000000
0.098729 0.022885 0.000000
0.132574 0.022477 0.000000
0.165587 0.022079 0.000000
0.198570 0.021681 0.000000
0.231524 0.021282 0.000000
0.264449 0.020884 0.000000
0.301688 0.020433 0.000000
0.339032 0.019980 0.000000
0.376339 0.019528 0.000000
0.413607 0.019075 0.000000
0.450837 0.018622 0.000000
0.488029 0.018170 0.000000
0.525184 0.017717 0.000000
0.562300 0.017264 0.000000
0.604562 0.016748 0.000000
0.647129 0.016228 0.000000
0.689646 0.015707 0.000000
0.732114 0.015187 0.000000
0.762905 0.014809 0.000000
0.792876 0.014441 0.000000
0.822822 0.014073 0.000000
0.852743 0.013705 0.000000
0.882639 0.013337 0.000000
0.912511 0.012969 0.000000
0.942358 0.012601 0.000000
0.972180 0.012233 0.000000
0.990705 0.012004 0.000000
1.000000 0.011790 0.000000
1.000000 0.011576 0.000000
1.000000 0.011362 0.000000
0.012491 0.047757 0.000000
0.037428 0.047458 0.000000
0.062349 0.047159 0.000000
0.096121 0.046753 0.000000
0.130006 0.046346 0.000000
0.163058 0.045948 0.000000
0.196080 0.045550 0.000000
0.229072 0.045152 0.000000
0.262035 0.044754 0.000000
0.299317 0.044304 0.000000
0.336705 0.043851 0.000000
0.374055 0.043399 0.000000
0.411367 0.042947 0.000000
0.448640 0.042495 0.000000
0.485875 0.042042 0.000000
0.523072 0.041590 0.000000
0.560231 0.041138 0.000000
0.602542 0.040622 0.000000
0.645158 0.040102 0.000000
0.687724 0.039582 0.000000
0.730240 0.039062 0.000000
0.761066 0.038685 0.000000
0.791071 0.038317 0.000000
0.821051 0.037950 0.000000
0.851006 0.037582 0.000000
0.880936 0.037215 0.000000
0.910842 0.036847 0.000000
0.940722 0.036479 0.000000
0.970578 0.036112 0.000000
0.989124 0.035883 0.000000
1.000000 0.035669 0.000000
1.000000 0.035455 0.000000
1.000000 0.035242 0.000000
0.008963 0.080091 0.000000
0.033941 0.079792 0.000000
0.058901 0.079494 0.000000
0.092727 0.079088 0.000000
0.126665 0.078681 0.000000
0.159770 0.078284 0.000000
0.192844 0.077887 0.000000
0.225889 0.077489 0.000000
0.258903 0.077092 0.000000
0.296244 0.076642 0.000000
0.333691 0.076190 0.000000
0.371100 0.075739 0.000000
0.408470 0.075287 0.000000
0.445801 0.074835 0.000000
0.483095 0.074383 0.000000
0.520350 0.073932 0.000000
0.557566 0.073480 0.000000
0.599943 0.072965 0.000000
0.642625 0.072446 0.000000
0.685256 0.071927 0.000000
0.727838 0.071407 0.000000
0.758711 0.071031 0.000000
0.788762 0.070663 0.000000
0.818788 0.070296 0.000000
0.848789 0.069929 0.000000
0.878765 0.069562 0.000000
0.908716 0.069195 0.000000
0.938642 0.068828 0.000000
0.968544 0.068460 0.000000
0.987118 0.068232 0.000000
1.000000 0.068019 0.000000
1.000000 0.067805 0.000000
1.000000 0.067592 0.000000
0.005587 0.112521 0.000000
0.030604 0.112223 0.000000
0.055604 0.111924 0.000000
0.089484 0.111519 0.000000
0.123476 0.111113 0.000000
0.156633 0.110716 0.000000
0.189760 0.110319 0.000000
0.222856 0.109922 0.000000
0.255923 0.109525 0.000000
0.293323 0.109076 0.000000
0.330829 0.108625 0.000000
0.368296 0.108174 0.000000
0.405724 0.107723 0.000000
0.443114 0.107272 0.000000
0.480465 0.106821 0.000000
0.517778 0.106370 0.000000
0.555053 0.105918 0.000000
0.597495 0.105404 0.000000
0.640243 0.104886 0.000000
0.682940 0.104367 0.000000
0.725587 0.103848 0.000000
0.756508 0.103472 0.000000
0.786605 0.103105 0.000000
0.816677 0.102739 0.000000
0.846724 0.102372 0.000000
0.876746 0.102005 0.000000
0.906742 0.101639 0.000000
0.936714 0.101272 0.000000
0.966661 0.100905 0.000000
0.985263 0.100677 0.000000
1.000000 0.100464 0.000000
1.000000 0.100251 0.000000
1.000000 0.100038 0.000000
0.002451 0.144142 0.000000
0.027507 0.143844 0.000000
0.052546 0.143546 0.000000
0.086478 0.143142 0.000000
0.120522 0.142736 0.000000
0.153730 0.142339 0.000000
0.186908 0.141943 0.000000
0.220055 0.141547 0.000000
0.253173 0.141150 0.000000
0.290630 0.140701 0.000000
0.328192 0.140251 0.000000
0.365717 0.139800 0.000000
0.403202 0.139350 0.000000
0.440648 0.138899 0.000000
0.478056 0.138449 0.000000
0.515426 0.137998 0.000000
0.552756 0.137548 0.000000
0.595262 0.137034 0.000000
0.638074 0.136516 0.000000
0.680835 0.135998 0.000000
0.723546 0.135480 0.000000
0.754513 0.135105 0.000000
0.784655 0.134738 0.000000
0.814772 0.134372 0.000000
0.844863 0.134006 0.000000
0.874929 0.133640 0.000000
0.904971 0.133273 0.000000
0.934986 0.132907 0.000000
0.964977 0.132541 0.000000
0.983607 0.132313 0.000000
1.000000 0.132100 0.000000
1.000000 0.131887 0.000000
1.000000 0.131674 0.000000
0.000000 0.175723 0.000000
0.024569 0.175425 0.000000
0.049646 0.175128 0.000000
0.083630 0.174724 0.000000
0.117727 0.174318 0.000000
0.150986 0.173923 0.000000
0.184214 0.173527 0.000000
0.217412 0.173131 0.000000
0.250579 0.172735 0.000000
0.288093 0.172287 0.000000
0.325713 0.171837 0.000000
0.363294 0.171387 0.000000
0.400836 0.170937 0.000000
0.438339 0.170487 0.000000
0.475803 0.170037 0.000000
0.513229 0.169587 0.000000
0.550615 0.169137 0.000000
0.593185 0.168624 0.000000
0.636061 0.168107 0.000000
0.678885 0.167590 0.000000
0.721659 0.167072 0.000000
0.752673 0.166697 0.000000
0.782859 0.166331 0.000000
0.813021 0.165965 0.000000
0.843156 0.165600 0.000000
0.873267 0.165234 0.000000
0.903352 0.164868 0.000000
0.933412 0.164502 0.000000
0.963447 0.164137 0.000000
0.982104 0.163909 0.000000
0.999547 0.163697 0.000000
1.000000 0.163484 0.000000
1.000000 0.163271 0.000000
0.000000 0.207264 0.000000
0.021790 0.206967 0.000000
0.046905 0.206669 0.000000
0.080941 0.206266 0.000000
0.115090 0.205861 0.000000
0.148399 0.205466 0.000000
0.181678 0.205071 0.000000
0.214926 0.204675 0.000000
0.248144 0.204280 0.000000
0.285715 0.203832 0.000000
0.323391 0.203383 0.000000
0.361028 0.202933 0.000000
0.398627 0.202484 0.000000
0.436186 0.202035 0.000000
0.473706 0.201585 0.000000
0.511187 0.201136 0.000000
0.548630 0.200686 0.000000
0.591263 0.200174 0.000000
0.634202 0.199658 0.000000
0.677090 0.199141 0.000000
0.719928 0.198624 0.000000
0.750987 0.198249 0.000000
0.781218 0.197884 0.000000
0.811423 0.197519 0.000000
0.841603 0.197154 0.000000
0.871758 0.196788 0.000000
0.901887 0.196423 0.000000
0.931991 0.196058 0.000000
0.962066 0.195692 0.000000
0.980743 0.195465 0.000000
0.998199 0.195253 0.000000
1.000000 0.195040 0.000000
1.000000 0.194828 0.000000
0.000000 0.238765 0.000000
0.019169 0.238468 0.000000
0.044323 0.238171 0.000000
0.078410 0.237769 0.000000
0.112611 0.237364 0.000000
0.145971 0.236969 0.000000
0.179300 0.236574 0.000000
0.212598 0.236180 0.000000
0.245866 0.235785 0.000000
0.283493 0.235338 0.000000
0.321226 0.234889 0.000000
0.358920 0.234440 0.000000
0.396574 0.233991 0.000000
0.434189 0.233542 0.000000
0.471765 0.233094 0.000000
0.509302 0.232645 0.000000
0.546800 0.232196 0.000000
0.589496 0.231684 0.000000
0.632499 0.231168 0.000000
0.675450 0.230652 0.000000
0.718350 0.230136 0.000000
0.749455 0.229762 0.000000
0.779730 0.229397 0.000000
0.809980 0.229032 0.000000
0.840203 0.228667 0.000000
0.870391 0.228303 0.000000
0.900542 0.227938 0.000000
0.930656 0.227573 0.000000
0.960733 0.227208 0.000000
0.979410 0.226981 0.000000
0.996868 0.226769 0.000000
1.000000 0.226557 0.000000
1.000000 0.226345 0.000000
0.000000 0.274381 0.000000
0.016395 0.274084 0.000000
0.041591 0.273788 0.000000
0.075737 0.273386 0.000000
0.109996 0.272982 0.000000
0.143412 0.272587 0.000000
0.176798 0.272193 0.000000
0.210153 0.271799 0.000000
0.243477 0.271405 0.000000
0.281167 0.270958 0.000000
0.318964 0.270510 0.000000
0.356721 0.270062 0.000000
0.394439 0.269614 0.000000
0.432117 0.269166 0.000000
0.469756 0.268717 0.000000
0.507356 0.268269 0.000000
0.544916 0.267821 0.000000
0.587683 0.267310 0.000000
0.630758 0.266795 0.000000
0.673780 0.266280 0.000000
0.716750 0.265764 0.000000
0.747893 0.265390 0.000000
0.778195 0.265026 0.000000
0.808459 0.264662 0.000000
0.838686 0.264298 0.000000
0.868876 0.263933 0.000000
0.899028 0.263569 0.000000
0.929144 0.263205 0.000000
0.959223 0.262840 0.000000
0.977902 0.262614 0.000000
0.995360 0.262402 0.000000
1.000000 0.262190 0.000000
1.000000 0.261978 0.000000
0.000000 0.310083 0.000000
0.013814 0.309786 0.000000
0.039054 0.309490 0.000000
0.073257 0.309089 0.000000
0.107574 0.308686 0.000000
0.141048 0.308292 0.000000
0.174490 0.307898 0.000000
0.207901 0.307504 0.000000
0.241282 0.307111 0.000000
0.279036 0.306665 0.000000
0.316896 0.306217 0.000000
0.354717 0.305770 0.000000
0.392498 0.305322 0.000000
0.430239 0.304875 0.000000
0.467941 0.304427 0.000000
0.505603 0.303980 0.000000
0.543226 0.303532 0.000000
0.586063 0.303022 0.000000
0.629190 0.302508 0.000000
0.672242 0.301993 0.000000
0.715219 0.301479 0.000000
0.746365 0.301105 0.000000
0.776668 0.300741 0.000000
0.806934 0.300378 0.000000
0.837163 0.300014 0.000000
0.867354 0.299650 0.000000
0.897509 0.299286 0.000000
0.927627 0.298922 0.000000
0.957707 0.298559 0.000000
0.976387 0.298332 0.000000
0.993847 0.298121 0.000000
1.000000 0.297909 0.000000
1.000000 0.297698 0.000000
0.000000 0.345733 0.000000
0.011438 0.345437 0.000000
0.036721 0.345142 0.000000
0.070983 0.344741 0.000000
0.105358 0.344338 0.000000
0.138887 0.343945 0.000000
0.172386 0.343552 0.000000
0.205854 0.343159 0.000000
0.239290 0.342766 0.000000
0.277108 0.342320 0.000000
0.315031 0.341874 0.000000
0.352915 0.341427 0.000000
0.390759 0.340980 0.000000
0.428563 0.340533 0.000000
0.466325 0.340086 0.000000
0.504031 0.339639 0.000000
0.541679 0.339192 0.000000
0.584524 0.338683 0.000000
0.627654 0.338169 0.000000
0.670709 0.337655 0.000000
0.713688 0.337142 0.000000
0.744836 0.336769 0.000000
0.775141 0.336405 0.000000
0.805409 0.336042 0.000000
0.835640 0.335679 0.000000
0.865833 0.335316 0.000000
0.895990 0.334952 0.000000
0.926109 0.334589 0.000000
0.956192 0.334226 0.000000
0.974873 0.334000 0.000000
0.992333 0.333789 0.000000
1.000000 0.333577 0.000000
1.000000 0.333366 0.000000
0.000000 0.381333 0.000000
0.009269 0.381037 0.000000
0.034594 0.380742 0.000000
0.068913 0.380342 0.000000
0.103346 0.379940 0.000000
0.136932 0.379547 0.000000
0.170486 0.379154 0.000000
0.204010 0.378762 0.000000
0.237502 0.378369 0.000000
0.275383 0.377925 0.000000
0.313369 0.377478 0.000000
0.351308 0.377032 0.000000
0.389189 0.376586 0.000000
0.427013 0.376140 0.000000
0.464778 0.375694 0.000000
0.502487 0.375247 0.000000
0.540138 0.374801 0.000000
0.582986 0.374292 0.000000
0.626118 0.373779 0.000000
0.669175 0.373266 0.000000
0.712158 0.372753 0.000000
0.743307 0.372381 0.000000
0.773614 0.372018 0.000000
0.803884 0.371655 0.000000
0.834116 0.371293 0.000000
0.864312 0.370930 0.000000
0.894470 0.370567 0.000000
0.924591 0.370204 0.000000
0.954676 0.369842 0.000000
0.973358 0.369616 0.000000
0.990820 0.369405 0.000000
1.000000 0.369194 0.000000
1.000000 0.368983 0.000000
0.000000 0.416881 0.000000
0.007304 0.416586 0.000000
0.032672 0.416291 0.000000
0.067048 0.415892 0.000000
0.101539 0.415490 0.000000
0.135181 0.415098 0.000000
0.168791 0.414706 0.000000
0.202369 0.414314 0.000000
0.235903 0.413922 0.000000
0.273814 0.413478 0.000000
0.311814 0.413032 0.000000
0.349755 0.412587 0.000000
0.387638 0.412141 0.000000
0.425464 0.411696 0.000000
0.463232 0.411250 0.000000
0.500943 0.410804 0.000000
0.538596 0.410359 0.000000
0.581447 0.409851 0.000000
0.624582 0.409339 0.000000
0.667642 0.408826 0.000000
0.710627 0.408314 0.000000
0.741778 0.407942 0.000000
0.772087 0.407580 0.000000
0.802358 0.407218 0.000000
0.832593 0.406856 0.000000
0.862790 0.406493 0.000000
0.892950 0.406131 0.000000
0.923073 0.405769 0.000000
0.953160 0.405407 0.000000
0.971843 0.405181 0.000000
0.989306 0.404971 0.000000
1.000000 0.404760 0.000000
1.000000 0.404550 0.000000
0.000000 0.452379 0.000000
0.005545 0.452084 0.000000
0.030955 0.451790 0.000000
0.065388 0.451391 0.000000
0.099925 0.450990 0.000000
0.133597 0.450598 0.000000
0.167224 0.450207 0.000000
0.200806 0.449815 0.000000
0.234342 0.449424 0.000000
0.272256 0.448980 0.000000
0.310258 0.448536 0.000000
0.348201 0.448091 0.000000
0.386087 0.447646 0.000000
0.423915 0.447201 0.000000
0.461686 0.446756 0.000000
0.499399 0.446311 0.000000
0.537054 0.445866 0.000000
0.579907 0.445358 0.000000
0.623045 0.444847 0.000000
0.666108 0.444335 0.000000
0.709096 0.443824 0.000000
0.740249 0.443453 0.000000
0.770560 0.443091 0.000000
0.800833 0.442729 0.000000
0.831069 0.442367 0.000000
0.861269 0.442006 0.000000
0.891431 0.441644 0.000000
0.921556 0.441282 0.000000
0.951644 0.440921 0.000000
0.970328 0.440696 0.000000
0.987792 0.440485 0.000000
1.000000 0.440275 0.000000
1.000000 0.440065 0.000000
0.000000 0.487825 0.000000
0.003954 0.487531 0.000000
0.029378 0.487237 0.000000
0.063817 0.486839 0.000000
0.098356 0.486438 0.000000
0.132030 0.486047 0.000000
0.165659 0.485657 0.000000
0.199243 0.485266 0.000000
0.232782 0.484875 0.000000
0.270697 0.484432 0.000000
0.308702 0.483988 0.000000
0.346648 0.483543 0.000000
0.384536 0.483099 0.000000
0.422366 0.482655 0.000000
0.460139 0.482210 0.000000
0.497854 0.481766 0.000000
0.535512 0.481322 0.000000
0.578368 0.480815 0.000000
0.621509 0.480304 0.000000
0.664574 0.479794 0.000000
0.707564 0.479283 0.000000
0.738720 0.478912 0.000000
0.769032 0.478551 0.000000
0.799308 0.478190 0.000000
0.829546 0.477829 0.000000
0.859747 0.477467 0.000000
0.889911 0.477106 0.000000
0.920038 0.476745 0.000000
0.950128 0.476384 0.000000
0.968813 0.476159 0.000000
0.986278 0.475949 0.000000
1.000000 0.475739 0.000000
1.000000 0.475529 0.000000
0.000000 0.523221 0.000000
0.002379 0.522928 0.000000
0.027804 0.522634 0.000000
0.062245 0.522236 0.000000
0.096786 0.521836 0.000000
0.130463 0.521446 0.000000
0.164094 0.521056 0.000000
0.197680 0.520665 0.000000
0.231221 0.520275 0.000000
0.269139 0.519833 0.000000
0.307145 0.519389 0.000000
0.345094 0.518946 0.000000
0.382985 0.518502 0.000000
0.420817 0.518058 0.000000
0.458592 0.517615 0.000000
0.496310 0.517171 0.000000
0.533970 0.516727 0.000000
0.576829 0.516221 0.000000
0.619972 0.515711 0.000000
0.663040 0.515201 0.000000
0.706033 0.514691 0.000000
0.737190 0.514321 0.000000
0.767505 0.513960 0.000000
0.797782 0.513600 0.000000
0.828022 0.513239 0.000000
0.858225 0.512878 0.000000
0.888391 0.512518 0.000000
0.918520 0.512157 0.000000
0.948611 0.511796 0.000000
0.967298 0.511572 0.000000
0.984764 0.511362 0.000000
1.000000 0.511153 0.000000
1.000000 0.510943 0.000000
0.000000 0.563507 0.000000
0.000583 0.563214 0.000000
0.026010 0.562921 0.000000
0.060454 0.562524 0.000000
0.094997 0.562125 0.000000
0.128676 0.561735 0.000000
0.162310 0.561345 0.000000
0.195898 0.560956 0.000000
0.229441 0.560566 0.000000
0.267362 0.560125 0.000000
0.305372 0.559682 0.000000
0.343323 0.559239 0.000000
0.381216 0.558796 0.000000
0.419052 0.558353 0.000000
0.456829 0.557910 0.000000
0.494550 0.557467 0.000000
0.532213 0.557024 0.000000
0.575074 0.556519 0.000000
0.618221 0.556010 0.000000
0.661292 0.555500 0.000000
0.704288 0.554991 0.000000
0.735447 0.554621 0.000000
0.765764 0.554261 0.000000
0.796043 0.553901 0.000000
0.826285 0.553541 0.000000
0.856490 0.553181 0.000000
0.886658 0.552821 0.000000
0.916789 0.552461 0.000000
0.946883 0.552101 0.000000
0.965571 0.551877 0.000000
0.983039 0.551668 0.000000
1.000000 0.551458 0.000000
1.000000 0.551249 0.000000
0.000000 0.604065 0.000000
0.000000 0.603773 0.000000
0.024201 0.603480 0.000000
0.058647 0.603083 0.000000
0.093193 0.602685 0.000000
0.126875 0.602296 0.000000
0.160511 0.601906 0.000000
0.194101 0.601517 0.000000
0.227647 0.601128 0.000000
0.265571 0.600688 0.000000
0.303583 0.600246 0.000000
0.341537 0.599803 0.000000
0.379433 0.599361 0.000000
0.417271 0.598919 0.000000
0.455051 0.598477 0.000000
0.492774 0.598034 0.000000
0.530440 0.597592 0.000000
0.573305 0.597088 0.000000
0.616454 0.596579 0.000000
0.659528 0.596071 0.000000
0.702527 0.595563 0.000000
0.733689 0.595194 0.000000
0.764008 0.594834 0.000000
0.794289 0.594475 0.000000
0.824534 0.594115 0.000000
0.854741 0.593756 0.000000
0.884911 0.593396 0.000000
0.915044 0.593037 0.000000
0.945140 0.592677 0.000000
0.963830 0.592454 0.000000
0.981298 0.592245 0.000000
0.998754 0.592036 0.000000
1.000000 0.591827 0.000000
0.000000 0.644556 0.000000
0.000000 0.644264 0.000000
0.022392 0.643972 0.000000
0.056841 0.643576 0.000000
0.091389 0.643178 0.000000
0.125073 0.642790 0.000000
0.158711 0.642401 0.000000
0.192304 0.642013 0.000000
0.225852 0.641624 0.000000
0.263779 0.641184 0.000000
0.301794 0.640743 0.000000
0.339750 0.640301 0.000000
0.377649 0.639860 0.000000
0.415490 0.639418 0.000000
0.453273 0.638977 0.000000
0.490999 0.638535 0.000000
0.528667 0.638094 0.000000
0.571535 0.637590 0.000000
0.614687 0.637083 0.000000
0.657765 0.636575 0.000000
0.700767 0.636068 0.000000
0.731931 0.635699 0.000000
0.762252 0.635340 0.000000
0.792535 0.634982 0.000000
0.822782 0.634623 0.000000
0.852991 0.634264 0.000000
0.883163 0.633905 0.000000
0.913299 0.633546 0.000000
0.943397 0.633187 0.000000
0.962088 0.632964 0.000000
0.979560 0.632755 0.000000
0.997022 0.632546 0.000000
1.000000 0.632338 0.000000
0.000000 0.684981 0.000000
0.000000 0.684689 0.000000
0.020582 0.684398 0.000000
0.055034 0.684002 0.000000
0.089584 0.683605 0.000000
0.123271 0.683217 0.000000
0.156912 0.682830 0.000000
0.190507 0.682442 0.000000
0.224058 0.682054 0.000000
0.261987 0.681615 0.000000
0.300004 0.681174 0.000000
0.337964 0.680733 0.000000
0.375865 0.680292 0.000000
0.413709 0.679852 0.000000
0.451495 0.679411 0.000000
0.489223 0.678970 0.000000
0.526894 0.678529 0.000000
0.569765 0.678027 0.000000
0.612921 0.677520 0.000000
0.656001 0.677013 0.000000
0.699006 0.676507 0.000000
0.730172 0.676139 0.000000
0.760495 0.675780 0.000000
0.790781 0.675422 0.000000
0.821031 0.675064 0.000000
0.851248 0.674705 0.000000
0.881434 0.674347 0.000000
0.911589 0.673989 0.000000
0.941712 0.673630 0.000000
0.960422 0.673408 0.000000
0.977911 0.673199 0.000000
0.995390 0.672991 0.000000
1.000000 0.672783 0.000000
0.000000 0.714280 0.000000
0.000000 0.713989 0.000000
0.019269 0.713697 0.000000
0.053722 0.713302 0.000000
0.088275 0.712906 0.000000
0.121963 0.712518 0.000000
0.155606 0.712131 0.000000
0.189203 0.711744 0.000000
0.222755 0.711356 0.000000
0.260686 0.710918 0.000000
0.298706 0.710477 0.000000
0.336667 0.710037 0.000000
0.374570 0.709597 0.000000
0.412416 0.709157 0.000000
0.450204 0.708716 0.000000
0.487934 0.708276 0.000000
0.525607 0.707836 0.000000
0.568481 0.707334 0.000000
0.611638 0.706828 0.000000
0.654721 0.706322 0.000000
0.697728 0.705815 0.000000
0.728899 0.705448 0.000000
0.759232 0.705090 0.000000
0.789534 0.704732 0.000000
0.819804 0.704374 0.000000
0.850043 0.704016 0.000000
0.880251 0.703659 0.000000
0.910427 0.703301 0.000000
0.940572 0.702943 0.000000
0.959295 0.702720 0.000000
0.976797 0.702512 0.000000
0.994288 0.702304 0.000000
1.000000 0.702096 0.000000
0.000000 0.742788 0.000000
0.000000 0.742497 0.000000
0.017990 0.742207 0.000000
0.052445 0.741812 0.000000
0.086999 0.741416 0.000000
0.120689 0.741029 0.000000
0.154333 0.740642 0.000000
0.187932 0.740255 0.000000
0.221486 0.739868 0.000000
0.259419 0.739430 0.000000
0.297440 0.738990 0.000000
0.335404 0.738550 0.000000
0.373309 0.738111 0.000000
0.411157 0.737671 0.000000
0.448947 0.737231 0.000000
0.486679 0.736791 0.000000
0.524354 0.736352 0.000000
0.567229 0.735850 0.000000
0.610390 0.735345 0.000000
0.653484 0.734839 0.000000
0.696515 0.734334 0.000000
0.727707 0.733967 0.000000
0.758062 0.733609 0.000000
0.788385 0.733252 0.000000
0.818676 0.732894 0.000000
0.848936 0.732537 0.000000
0.879165 0.732179 0.000000
0.909362 0.731822 0.000000
0.939528 0.731464 0.000000
0.958264 0.731242 0.000000
0.975778 0.731034 0.000000
0.993281 0.730826 0.000000
1.000000 0.730618 0.000000
0.000000 0.771264 0.000000
0.000000 0.770973 0.000000
0.016710 0.770683 0.000000
0.051167 0.770289 0.000000
0.085723 0.769893 0.000000
0.119414 0.769506 0.000000
0.153061 0.769120 0.000000
0.186661 0.768733 0.000000
0.220217 0.768347 0.000000
0.258152 0.767909 0.000000
0.296175 0.767470 0.000000
0.334140 0.767031 0.000000
0.372048 0.766592 0.000000
0.409897 0.766152 0.000000
0.447689 0.765713 0.000000
0.485423 0.765274 0.000000
0.523103 0.764835 0.000000
0.565995 0.764334 0.000000
0.609183 0.763829 0.000000
0.652307 0.763324 0.000000
0.695368 0.762819 0.000000
0.726582 0.762452 0.000000
0.756958 0.762095 0.000000
0.787302 0.761738 0.000000
0.817614 0.761381 0.000000
0.847895 0.761024 0.000000
0.878145 0.760667 0.000000
0.908363 0.760310 0.000000
0.938550 0.759953 0.000000
0.957299 0.759731 0.000000
0.974825 0.759523 0.000000
0.992340 0.759316 0.000000
1.000000 0.759108 0.000000
0.000000 0.799707 0.000000
0.000000 0.799416 0.000000
0.015430 0.799126 0.000000
0.049889 0.798732 0.000000
0.084447 0.798337 0.000000
0.118140 0.797951 0.000000
0.151788 0.797565 0.000000
0.185390 0.797179 0.000000
0.218948 0.796793 0.000000
0.256885 0.796356 0.000000
0.294910 0.795917 0.000000
0.332877 0.795478 0.000000
0.370786 0.795040 0.000000
0.408639 0.794601 0.000000
0.446442 0.794162 0.000000
0.484197 0.793723 0.000000
0.521903 0.793285 0.000000
0.564824 0.792784 0.000000
0.608043 0.792280 0.000000
0.651197 0.791776 0.000000
0.694288 0.791271 0.000000
0.725524 0.790905 0.000000
0.755920 0.790549 0.000000
0.786285 0.790192 0.000000
0.816619 0.789835 0.000000
0.846921 0.789479 0.000000
0.877191 0.789122 0.000000
0.907430 0.788765 0.000000
0.937638 0.788409 0.000000
0.956400 0.788187 0.000000
0.973937 0.787980 0.000000
0.991465 0.787772 0.000000
1.000000 0.787565 0.000000
0.000000 0.828116 0.000000
0.000000 0.827826 0.000000
0.014151 0.827536 0.000000
0.048611 0.827143 0.000000
0.083171 0.826748 0.000000
0.116866 0.826363 0.000000
0.150515 0.825977 0.000000
0.184119 0.825592 0.000000
0.217678 0.825206 0.000000
0.255617 0.824770 0.000000
0.293645 0.824331 0.000000
0.331621 0.823893 0.000000
0.369548 0.823455 0.000000
0.407427 0.823017 0.000000
0.445256 0.822578 0.000000
0.483037 0.822140 0.000000
0.520769 0.821702 0.000000
0.563721 0.821202 0.000000
0.606969 0.820698 0.000000
0.650154 0.820195 0.000000
0.693275 0.819691 0.000000
0.724532 0.819325 0.000000
0.754949 0.818969 0.000000
0.785335 0.818613 0.000000
0.815690 0.818256 0.000000
0.846012 0.817900 0.000000
0.876303 0.817544 0.000000
0.906563 0.817188 0.000000
0.936791 0.816831 0.000000
0.955566 0.816610 0.000000
0.973116 0.816403 0.000000
0.990655 0.816196 0.000000
1.000000 0.815989 0.000000
0.000000 0.856493 0.000000
0.000000 0.856204 0.000000
0.012871 0.855914 0.000000
0.047333 0.855521 0.000000
0.081894 0.855127 0.000000
0.115591 0.854742 0.000000
0.149243 0.854357 0.000000
0.182849 0.853972 0.000000
0.216414 0.853586 0.000000
0.254368 0.853150 0.000000
0.292420 0.852713 0.000000
0.330423 0.852275 0.000000
0.368377 0.851837 0.000000
0.406282 0.851399 0.000000
0.444138 0.850962 0.000000
0.481945 0.850524 0.000000
0.519703 0.850086 0.000000
0.562685 0.849587 0.000000
0.605963 0.849084 0.000000
0.649177 0.848581 0.000000
0.692328 0.848078 0.000000
0.723606 0.847712 0.000000
0.754045 0.847356 0.000000
0.784451 0.847001 0.000000
0.814827 0.846645 0.000000
0.845170 0.846289 0.000000
0.875482 0.845933 0.000000
