flutter_app/assets/lut/cameras/cpm35_kodak_colorplus.cube
TITLE "CPM35 Kodak ColorPlus 200"
LUT_3D_SIZE 9
DOMAIN_MIN 0.0 0.0 0.0
DOMAIN_MAX 1.0 1.0 1.0
0.011997 0.000000 0.000000
0.130621 0.000000 0.000000
0.260816 0.000000 0.000000
0.397737 0.000000 0.000000
0.534135 0.000000 0.000000
0.686470 0.000000 0.000000
0.805564 0.000000 0.000000
0.923682 0.000000 0.000000
1.000000 0.000000 0.000000
0.004293 0.115948 0.000000
0.123383 0.115216 0.000000
0.254086 0.114410 0.000000
0.391539 0.113559 0.000000
0.528463 0.112707 0.000000
0.681382 0.111752 0.000000
0.800928 0.111002 0.000000
0.919493 0.110255 0.000000
0.998077 0.109758 0.000000
0.000000 0.243076 0.000000
0.117079 0.242348 0.000000
0.248335 0.241546 0.000000
0.386364 0.240699 0.000000
0.523859 0.239852 0.000000
0.677411 0.238902 0.000000
0.797447 0.238155 0.000000
0.916413 0.237412 0.000000
0.995189 0.236918 0.000000
0.000000 0.376627 0.000000
0.112327 0.375903 0.000000
0.244155 0.375105 0.000000
0.382762 0.374263 0.000000
0.520680 0.373420 0.000000
0.674500 0.372475 0.000000
0.794598 0.371732 0.000000
0.913577 0.370993 0.000000
0.992362 0.370502 0.000000
0.000000 0.509519 0.000000
0.109213 0.508799 0.000000
0.241218 0.508006 0.000000
0.379863 0.507168 0.000000
0.517797 0.506330 0.000000
0.671635 0.505389 0.000000
0.791747 0.504651 0.000000
0.910739 0.503916 0.000000
0.989534 0.503427 0.000000
0.000000 0.657766 0.000000
0.105925 0.657050 0.000000
0.237947 0.656262 0.000000
0.376610 0.655429 0.000000
0.514562 0.654596 0.000000
0.668420 0.653661 0.000000
0.788547 0.652927 0.000000
0.907561 0.652196 0.000000
0.986394 0.651710 0.000000
0.000000 0.773536 0.000000
0.103343 0.772824 0.000000
0.235378 0.772039 0.000000
0.374056 0.771210 0.000000
0.512030 0.770380 0.000000
0.665989 0.769450 0.000000
0.786263 0.768719 0.000000
0.905474 0.767992 0.000000
0.984445 0.767509 0.000000
0.000000 0.888248 0.000000
0.100780 0.887539 0.000000
0.232896 0.886758 0.000000
0.371734 0.885933 0.000000
0.509936 0.885107 0.000000
0.664163 0.884181 0.000000
0.784644 0.883454 0.000000
0.904060 0.882730 0.000000
0.983165 0.882249 0.000000
0.000000 0.964219 0.000000
0.099289 0.963512 0.000000
0.231559 0.962733 0.000000
0.370557 0.961911 0.000000
0.508917 0.961088 0.000000
0.663319 0.960165 0.000000
0.783936 0.959440 0.000000
0.903486 0.958718 0.000000
0.982680 0.958238 0.000000
0.011154 0.000000 0.100086
0.129825 0.000000 0.101429
0.260072 0.000000 0.102724
0.397047 0.000000 0.103880
0.533498 0.000000 0.104821
0.685893 0.000000 0.105618
0.805032 0.000000 0.106053
0.923196 0.000000 0.106319
1.000000 0.000000 0.106404
0.003595 0.115699 0.103968
0.122732 0.114968 0.104774
0.253487 0.114162 0.105476
0.390993 0.113311 0.106007
0.527969 0.112459 0.106322
0.680947 0.111503 0.106417
0.800539 0.110753 0.106301
0.919148 0.110006 0.106019
0.997761 0.109510 0.105739
0.000000 0.242829 0.106152
0.116590 0.242101 0.106365
0.247895 0.241299 0.106414
0.385977 0.240452 0.106257
0.523523 0.239605 0.105882
0.677133 0.238654 0.105204
0.797200 0.237908 0.104501
0.916167 0.237165 0.103778
0.994944 0.236671 0.103298
0.000000 0.376381 0.106074
0.112007 0.375657 0.105662
0.243884 0.374859 0.105023
0.382511 0.374017 0.104204
0.520430 0.373174 0.103380
0.674252 0.372229 0.102456
0.794350 0.371486 0.101730
0.913331 0.370747 0.101007
0.992117 0.370256 0.100527
0.000000 0.509275 0.103744
0.108959 0.508555 0.103036
0.240965 0.507761 0.102256
0.379612 0.506923 0.101432
0.517547 0.506085 0.100608
0.671387 0.505145 0.099684
0.791499 0.504406 0.098958
0.910493 0.503671 0.098235
0.989289 0.503182 0.097755
0.000000 0.657523 0.100634
0.105671 0.656807 0.099926
0.237694 0.656019 0.099146
0.376359 0.655186 0.098322
0.514312 0.654353 0.097498
0.668172 0.653418 0.096573
0.788300 0.652684 0.095847
0.907325 0.651953 0.095111
0.986172 0.651467 0.094595
0.000000 0.773294 0.098192
0.103089 0.772582 0.097484
0.235125 0.771797 0.096704
0.373805 0.770968 0.095880
0.511793 0.770138 0.095038
0.665779 0.769208 0.094019
0.786073 0.768477 0.093161
0.905305 0.767750 0.092256
0.984289 0.767267 0.091626
0.000000 0.888007 0.095761
0.100539 0.887298 0.095035
0.232678 0.886517 0.094180
0.371540 0.885692 0.093214
0.509766 0.884866 0.092181
0.664019 0.883940 0.090945
0.784520 0.883213 0.089917
0.903956 0.882489 0.088842
0.983075 0.882008 0.088100
0.000000 0.963979 0.094034
0.099093 0.963272 0.093199
0.231385 0.962493 0.092222
0.370407 0.961671 0.091127
0.508790 0.960848 0.089966
0.663218 0.959925 0.088586
0.783855 0.959200 0.087444
0.903425 0.958478 0.086257
0.982633 0.957998 0.085440
0.010241 0.000000 0.226258
0.128965 0.000000 0.227535
0.259268 0.000000 0.228757
0.396303 0.000000 0.229839
0.532813 0.000000 0.230705
0.685273 0.000000 0.231421
0.804463 0.000000 0.231793
0.922676 0.000000 0.231997
1.000000 0.000000 0.232041
0.002844 0.115426 0.229921
0.122033 0.114694 0.230662
0.252843 0.113888 0.231295
0.390408 0.113037 0.231755
0.527442 0.112185 0.231999
0.680484 0.111230 0.232016
0.800126 0.110479 0.231840
0.918785 0.109733 0.231498
0.997430 0.109236 0.231179
0.000000 0.242557 0.231872
0.116067 0.241829 0.232025
0.247428 0.241027 0.232009
0.385567 0.240180 0.231782
0.523170 0.239333 0.231341
0.676843 0.238382 0.230589
0.796928 0.237636 0.229868
0.915896 0.236892 0.229150
0.994674 0.236398 0.228672
0.000000 0.376110 0.231563
0.111671 0.375386 0.231093
0.243602 0.374588 0.230393
0.382234 0.373746 0.229573
0.520155 0.372903 0.228754
0.673978 0.371958 0.227834
0.794078 0.371215 0.227112
0.913060 0.370476 0.226393
0.991847 0.369985 0.225915
0.000000 0.509005 0.229115
0.108679 0.508285 0.228411
0.240686 0.507492 0.227635
0.379335 0.506654 0.226815
0.517272 0.505816 0.225995
0.671113 0.504875 0.225075
0.791227 0.504137 0.224353
0.910222 0.503402 0.223634
0.989019 0.502913 0.223156
0.000000 0.657255 0.226021
0.105391 0.656539 0.225316
0.237415 0.655751 0.224540
0.376082 0.654918 0.223721
0.514037 0.654085 0.222901
0.667898 0.653150 0.221981
0.788028 0.652416 0.221258
0.907074 0.651685 0.220509
0.985936 0.651199 0.219983
0.000000 0.773028 0.223591
0.102808 0.772315 0.222887
0.234847 0.771530 0.222110
0.373528 0.770701 0.221291
0.511539 0.769872 0.220435
0.665555 0.768941 0.219397
0.785871 0.768211 0.218525
0.905125 0.767484 0.217606
0.984125 0.767000 0.216967
0.000000 0.887742 0.221171
0.100281 0.887033 0.220431
0.232446 0.886252 0.219561
0.371334 0.885426 0.218578
0.509586 0.884601 0.217530
0.663867 0.883675 0.216277
0.784391 0.882948 0.215235
0.903849 0.882224 0.214148
0.982982 0.881742 0.213397
0.000000 0.963715 0.219412
0.098885 0.963008 0.218563
0.231202 0.962229 0.217572
0.370250 0.961406 0.216461
0.508659 0.960583 0.215285
0.663115 0.959660 0.213888
0.783774 0.958935 0.212734
0.903366 0.958213 0.211534
0.982588 0.957734 0.210709
0.009297 0.000000 0.358786
0.128076 0.000000 0.359993
0.258439 0.000000 0.361140
0.395536 0.000000 0.362143
0.532108 0.000000 0.362932
0.684637 0.000000 0.363562
0.803881 0.000000 0.363868
0.922147 0.000000 0.364008
1.000000 0.000000 0.364009
0.002071 0.115137 0.362218
0.121313 0.114405 0.362894
0.252183 0.113599 0.363455
0.389809 0.112748 0.363839
0.526904 0.111896 0.364009
0.680014 0.110941 0.363944
0.799708 0.110190 0.363705
0.918419 0.109443 0.363301
0.997099 0.108947 0.362942
0.000000 0.242269 0.363928
0.115534 0.241541 0.364017
0.246953 0.240739 0.363933
0.385153 0.239892 0.363635
0.522817 0.239045 0.363123
0.676552 0.238094 0.362297
0.796640 0.237348 0.361579
0.915609 0.236605 0.360864
0.994388 0.236111 0.360389
0.000000 0.375824 0.363376
0.111336 0.375100 0.362846
0.243308 0.374302 0.362101
0.381942 0.373460 0.361286
0.519864 0.372617 0.360470
0.673689 0.371672 0.359555
0.793790 0.370929 0.358837
0.912773 0.370190 0.358122
0.991562 0.369699 0.357646
0.000000 0.508721 0.360830
0.108383 0.508001 0.360129
0.240392 0.507207 0.359357
0.379042 0.506369 0.358542
0.516981 0.505531 0.357727
0.670824 0.504590 0.356812
0.790939 0.503852 0.356093
0.909936 0.503117 0.355378
0.988733 0.502628 0.354902
0.000000 0.656972 0.357752
0.105095 0.656257 0.357051
0.237121 0.655468 0.356279
0.375789 0.654635 0.355464
0.513746 0.653802 0.354648
0.667609 0.652867 0.353733
0.787747 0.652133 0.353008
0.906817 0.651402 0.352244
0.985695 0.650916 0.351708
0.000000 0.772746 0.355335
0.102513 0.772034 0.354634
0.234552 0.771249 0.353862
0.373241 0.770420 0.353042
0.511280 0.769590 0.352168
0.665326 0.768660 0.351111
0.785667 0.767929 0.350224
0.904945 0.767202 0.349291
0.983960 0.766718 0.348643
0.000000 0.887462 0.352920
0.100018 0.886753 0.352165
0.232209 0.885971 0.351278
0.371125 0.885146 0.350279
0.509404 0.884321 0.349214
0.663716 0.883395 0.347943
0.784263 0.882667 0.346887
0.903744 0.881944 0.345786
0.982893 0.881462 0.345027
0.000000 0.963435 0.351127
0.098674 0.962728 0.350264
0.231017 0.961949 0.349257
0.370092 0.961127 0.348130
0.508528 0.960304 0.346938
0.663015 0.959381 0.345524
0.783698 0.958656 0.344356
0.903312 0.957934 0.343144
0.982549 0.957454 0.342310
0.008373 0.000000 0.490641
0.127206 0.000000 0.491780
0.257629 0.000000 0.492852
0.394789 0.000000 0.493777
0.531423 0.000000 0.494490
0.684021 0.000000 0.495036
0.803317 0.000000 0.495276
0.921636 0.000000 0.495352
1.000000 0.000000 0.495311
0.001317 0.114847 0.493846
0.120613 0.114116 0.494456
0.251542 0.113310 0.494945
0.389230 0.112459 0.495255
0.526386 0.111607 0.495352
0.679563 0.110651 0.495206
0.799310 0.109901 0.494904
0.918073 0.109154 0.494440
0.996787 0.108658 0.494040
0.000000 0.241981 0.495317
0.115021 0.241253 0.495343
0.246498 0.240451 0.495190
0.384759 0.239604 0.494822
0.522483 0.238757 0.494240
0.676263 0.237806 0.493365
0.796352 0.237060 0.492651
0.915323 0.236317 0.491939
0.994103 0.235823 0.491466
0.000000 0.375538 0.494524
0.111021 0.374814 0.493935
0.243013 0.374016 0.493169
0.381649 0.373174 0.492359
0.519573 0.372331 0.491547
0.673400 0.371385 0.490637
0.793502 0.370643 0.489923
0.912487 0.369904 0.489211
0.991276 0.369412 0.488738
0.000000 0.508436 0.491905
0.108088 0.507716 0.491208
0.240098 0.506922 0.490441
0.378750 0.506085 0.489630
0.516690 0.505246 0.488818
0.670534 0.504306 0.487908
0.790651 0.503567 0.487193
0.909649 0.502832 0.486482
0.988448 0.502343 0.486009
0.000000 0.656689 0.488843
0.104799 0.655974 0.488146
0.236827 0.655185 0.487379
0.375497 0.654352 0.486567
0.513455 0.653519 0.485756
0.667319 0.652584 0.484846
0.787474 0.651850 0.484112
0.906568 0.651119 0.483332
0.985462 0.650633 0.482786
0.000000 0.772464 0.486439
0.102217 0.771752 0.485742
0.234258 0.770967 0.484974
0.372963 0.770138 0.484146
0.511030 0.769309 0.483255
0.665107 0.768378 0.482179
0.785472 0.767648 0.481278
0.904773 0.766920 0.480330
0.983803 0.766437 0.479673
0.000000 0.887181 0.484021
0.099763 0.886472 0.483252
0.231981 0.885691 0.482349
0.370925 0.884866 0.481333
0.509231 0.884040 0.480252
0.663573 0.883114 0.478963
0.784144 0.882387 0.477894
0.903649 0.881663 0.476779
0.982813 0.881182 0.476011
0.000000 0.963156 0.482195
0.098472 0.962449 0.481317
0.230841 0.961670 0.480295
0.369944 0.960847 0.479153
0.508407 0.960024 0.477945
0.662924 0.959101 0.476514
0.783629 0.958376 0.475333
0.903267 0.957655 0.474108
0.982519 0.957175 0.473266
0.007360 0.000000 0.637709
0.126255 0.000000 0.638771
0.256745 0.000000 0.639761
0.393975 0.000000 0.640600
0.530678 0.000000 0.641228
0.683352 0.000000 0.641680
0.802709 0.000000 0.641848
0.921086 0.000000 0.641852
0.999546 0.000000 0.641764
0.000495 0.114523 0.640662
0.119852 0.113791 0.641198
0.250847 0.112985 0.641608
0.388603 0.112134 0.641836
0.525828 0.111282 0.641851
0.679081 0.110327 0.641616
0.798887 0.109577 0.641245
0.917708 0.108830 0.640712
0.996459 0.108333 0.640268
0.000000 0.241658 0.641866
0.114470 0.240931 0.641823
0.246012 0.240129 0.641595
0.384340 0.239282 0.641148
0.522131 0.238434 0.640489
0.675939 0.237484 0.639588
0.796029 0.236737 0.638878
0.915002 0.235994 0.638171
0.993783 0.235500 0.637701
0.000000 0.375217 0.640807
0.110687 0.374493 0.640157
0.242683 0.373695 0.639394
0.381321 0.372853 0.638588
0.519246 0.372010 0.637781
0.673075 0.371064 0.636877
0.793180 0.370322 0.636166
0.912166 0.369583 0.635459
0.990956 0.369091 0.634989
0.000000 0.508117 0.638137
0.107756 0.507397 0.637444
0.239768 0.506603 0.636681
0.378421 0.505765 0.635875
0.516363 0.504927 0.635068
0.670210 0.503986 0.634163
0.790328 0.503248 0.633453
0.909328 0.502513 0.632746
0.988127 0.502024 0.632275
0.000000 0.656372 0.635093
0.104467 0.655656 0.634400
0.236496 0.654868 0.633637
0.375168 0.654035 0.632831
0.513128 0.653201 0.632024
0.666998 0.652266 0.631117
0.787179 0.651532 0.630366
0.906300 0.650802 0.629570
0.985211 0.650316 0.629013
0.000000 0.772148 0.632703
0.101885 0.771436 0.632010
0.233928 0.770651 0.631246
0.372662 0.769822 0.630401
0.510760 0.768993 0.629491
0.664871 0.768062 0.628394
0.785263 0.767332 0.627476
0.904590 0.766604 0.626513
0.983638 0.766121 0.625846
0.000000 0.886867 0.630274
0.099489 0.886158 0.629488
0.231736 0.885377 0.628567
0.370711 0.884551 0.627533
0.509048 0.883726 0.626434
0.663424 0.882800 0.625125
0.784021 0.882073 0.624040
0.903552 0.881349 0.622911
0.982733 0.880867 0.622133
0.000000 0.962842 0.628411
0.098256 0.962135 0.627517
0.230655 0.961356 0.626477
0.369788 0.960534 0.625317
0.508281 0.959711 0.624092
0.662832 0.958788 0.622642
0.783564 0.958063 0.621447
0.903227 0.957341 0.620207
0.982496 0.956861 0.619356
0.006582 0.000000 0.752541
0.125525 0.000000 0.753545
0.256068 0.000000 0.754470
0.393352 0.000000 0.755242
0.530110 0.000000 0.755804
0.682845 0.000000 0.756183
0.802248 0.000000 0.756295
0.920672 0.000000 0.756244
0.999162 0.000000 0.756120
0.000000 0.114268 0.755298
0.119272 0.113537 0.755778
0.250318 0.112731 0.756127
0.388129 0.111879 0.756290
0.525408 0.111028 0.756242
0.678720 0.110072 0.755938
0.798572 0.109322 0.755513
0.917438 0.108575 0.754927
0.996208 0.108078 0.754463
0.000000 0.241405 0.756297
0.114054 0.240677 0.756200
0.245647 0.239875 0.755913
0.384029 0.239028 0.755405
0.521872 0.238181 0.754687
0.675684 0.237230 0.753786
0.795776 0.236484 0.753079
0.914749 0.235741 0.752375
0.993531 0.235247 0.751907
0.000000 0.374965 0.755030
0.110426 0.374241 0.754352
0.242424 0.373443 0.753593
0.381063 0.372601 0.752790
0.518990 0.371758 0.751988
0.672820 0.370812 0.751087
0.792926 0.370070 0.750380
0.911913 0.369331 0.749676
0.990704 0.368839 0.749208
0.000000 0.507866 0.752342
0.107495 0.507146 0.751652
0.239508 0.506352 0.750892
0.378163 0.505514 0.750090
0.516107 0.504676 0.749287
0.669955 0.503736 0.748386
0.790075 0.502997 0.747679
0.909076 0.502262 0.746975
0.987876 0.501773 0.746507
0.000000 0.656123 0.749312
0.104206 0.655407 0.748622
0.236237 0.654618 0.747862
0.374910 0.653785 0.747060
0.512872 0.652952 0.746257
0.666752 0.652017 0.745346
0.786955 0.651283 0.744582
0.906097 0.650552 0.743772
0.985022 0.650067 0.743207
0.000000 0.771900 0.746933
0.101624 0.771188 0.746243
0.233675 0.770403 0.745478
0.372433 0.769574 0.744617
0.510555 0.768745 0.743693
0.664694 0.767814 0.742579
0.785107 0.767083 0.741649
0.904455 0.766356 0.740674
0.983516 0.765873 0.739998
0.000000 0.886620 0.744488
0.099281 0.885911 0.743689
0.231552 0.885130 0.742755
0.370551 0.884304 0.741706
0.508912 0.883479 0.740593
0.663315 0.882553 0.739269
0.783932 0.881826 0.738172
0.903483 0.881102 0.737032
0.982678 0.880620 0.736246
0.000000 0.962596 0.742596
0.098095 0.961889 0.741690
0.230516 0.961110 0.740637
0.369673 0.960288 0.739463
0.508191 0.959465 0.738225
0.662767 0.958541 0.736760
0.783520 0.957816 0.735553
0.903203 0.957095 0.734303
0.982486 0.956615 0.733444
0.005823 0.000000 0.866311
0.124814 0.000000 0.867256
0.255409 0.000000 0.868118
0.392748 0.000000 0.868824
0.529560 0.000000 0.869321
0.682354 0.000000 0.869628
0.801804 0.000000 0.869684
0.920274 0.000000 0.869578
0.998794 0.000000 0.869418
0.000000 0.114015 0.868874
0.118709 0.113283 0.869298
0.249807 0.112477 0.869586
0.387672 0.111626 0.869686
0.525004 0.110774 0.869576
0.678375 0.109818 0.869203
0.798273 0.109068 0.868724
0.917184 0.108321 0.868088
0.995957 0.107825 0.867622
0.000000 0.241153 0.869669
0.113656 0.240425 0.869519
0.245300 0.239623 0.869174
0.383734 0.238776 0.868606
0.521616 0.237928 0.867844
0.675430 0.236978 0.866948
0.795524 0.236231 0.866244
0.914498 0.235488 0.865544
0.993281 0.234994 0.865078
0.000000 0.374714 0.868198
0.110166 0.373990 0.867512
0.242166 0.373192 0.866755
0.380806 0.372350 0.865957
0.518735 0.371507 0.865158
0.672567 0.370561 0.864261
0.792674 0.369819 0.863557
0.911662 0.369080 0.862857
0.990454 0.368588 0.862391
0.000000 0.507616 0.865510
0.107235 0.506896 0.864824
0.239250 0.506103 0.864067
0.377907 0.505265 0.863269
0.515851 0.504426 0.862470
0.669701 0.503486 0.861573
0.789822 0.502747 0.860869
0.908825 0.502012 0.860168
0.987625 0.501524 0.859702
0.000000 0.655875 0.862494
0.103947 0.655159 0.861808
0.235979 0.654370 0.861051
0.374654 0.653537 0.860253
0.512616 0.652704 0.859453
0.666515 0.651769 0.858533
0.786739 0.651035 0.857756
0.905902 0.650304 0.856934
0.984841 0.649818 0.856360
0.000000 0.771653 0.860126
0.101364 0.770941 0.859440
0.233430 0.770156 0.858667
0.372212 0.769327 0.857792
0.510359 0.768498 0.856853
0.664524 0.767567 0.855723
0.784958 0.766836 0.854780
0.904327 0.766109 0.853793
0.983402 0.765626 0.853109
0.000000 0.886374 0.857660
0.099082 0.885665 0.856849
0.231375 0.884884 0.855901
0.370398 0.884059 0.854838
0.508783 0.883233 0.853712
0.663212 0.882307 0.852372
0.783851 0.881580 0.851264
0.903422 0.880856 0.850112
0.982630 0.880374 0.849319
0.000000 0.962351 0.855740
0.097941 0.961644 0.854822
0.230385 0.960865 0.853756
0.369566 0.960043 0.852569
0.508107 0.959220 0.851317
0.662710 0.958296 0.849838
0.783483 0.957571 0.848620
0.903186 0.956850 0.847359
0.982482 0.956370 0.846493
0.005327 0.000000 0.941649
0.124350 0.000000 0.942556
0.254979 0.000000 0.943376
0.392355 0.000000 0.944039
0.529202 0.000000 0.944493
0.682037 0.000000 0.944752
0.801517 0.000000 0.944772
0.920018 0.000000 0.944630
0.998558 0.000000 0.944447
0.000000 0.113846 0.944086
0.118344 0.113114 0.944473
0.249476 0.112308 0.944720
0.387377 0.111457 0.944779
0.524744 0.110605 0.944627
0.678154 0.109650 0.944209
0.798083 0.108900 0.943696
0.917017 0.108153 0.943033
0.995791 0.107656 0.942568
0.000000 0.240985 0.944746
0.113400 0.240257 0.944561
0.245077 0.239455 0.944178
0.383547 0.238608 0.943570
0.521447 0.237761 0.942790
0.675262 0.236810 0.941896
0.795356 0.236064 0.941195
0.914331 0.235320 0.940496
0.993114 0.234826 0.940032
0.000000 0.374547 0.943142
0.109994 0.373823 0.942458
0.241994 0.373025 0.941704
0.380635 0.372183 0.940908
0.518565 0.371340 0.940111
0.672398 0.370394 0.939218
0.792506 0.369652 0.938516
0.911495 0.368913 0.937818
0.990287 0.368421 0.937353
0.000000 0.507450 0.940463
0.107063 0.506730 0.939779
0.239079 0.505937 0.939025
0.377736 0.505099 0.938228
0.515682 0.504260 0.937432
0.669533 0.503320 0.936538
0.789654 0.502581 0.935836
0.908658 0.501846 0.935137
0.987459 0.501358 0.934673
0.000000 0.655710 0.937456
0.103774 0.654994 0.936772
0.235807 0.654205 0.936018
0.374483 0.653372 0.935221
0.512447 0.652539 0.934425
0.666361 0.651604 0.933495
0.786599 0.650870 0.932709
0.905776 0.650139 0.931878
0.984724 0.649653 0.931299
0.000000 0.771489 0.935096
0.101192 0.770777 0.934411
0.233271 0.769992 0.933631
0.372069 0.769163 0.932746
0.510232 0.768333 0.931797
0.664416 0.767403 0.930657
0.784863 0.766672 0.929706
0.904245 0.765945 0.928710
0.983329 0.765461 0.928021
0.000000 0.886211 0.932612
0.098953 0.885502 0.931793
0.231262 0.884720 0.930836
0.370301 0.883895 0.929764
0.508701 0.883070 0.928628
0.663148 0.882143 0.927278
0.783800 0.881416 0.926163
0.903385 0.880692 0.925003
0.982602 0.880211 0.924206
0.000000 0.962188 0.930673
0.097842 0.961481 0.929747
0.230302 0.960702 0.928673
0.369499 0.959880 0.927477
0.508056 0.959057 0.926217
0.662676 0.958133 0.924727
0.783462 0.957408 0.923502
0.903179 0.956687 0.922234
0.982483 0.956207 0.921363
