flutter_app/assets/lut/cameras/cpm35_kodak_colorplus.cube
TITLE "CPM35 Kodak ColorPlus 200"
LUT_3D_SIZE 33
DOMAIN_MIN 0.0 0.0 0.0
DOMAIN_MAX 1.0 1.0 1.0
0.011997 0.000000 0.000000
0.038721 0.000000 0.000000
0.065422 0.000000 0.000000
0.097990 0.000000 0.000000
0.130621 0.000000 0.000000
0.163219 0.000000 0.000000
0.195784 0.000000 0.000000
0.228317 0.000000 0.000000
0.260816 0.000000 0.000000
0.295057 0.000000 0.000000
0.329320 0.000000 0.000000
0.363547 0.000000 0.000000
0.397737 0.000000 0.000000
0.431891 0.000000 0.000000
0.466009 0.000000 0.000000
0.500090 0.000000 0.000000
0.534135 0.000000 0.000000
0.572085 0.000000 0.000000
0.610259 0.000000 0.000000
0.648387 0.000000 0.000000
0.686470 0.000000 0.000000
0.716687 0.000000 0.000000
0.746340 0.000000 0.000000
0.775966 0.000000 0.000000
0.805564 0.000000 0.000000
0.835134 0.000000 0.000000
0.864678 0.000000 0.000000
0.894193 0.000000 0.000000
0.923682 0.000000 0.000000
0.944000 0.000000 0.000000
0.963335 0.000000 0.000000
0.982659 0.000000 0.000000
1.000000 0.000000 0.000000
0.010138 0.026130 0.000000
0.036885 0.025965 0.000000
0.063610 0.025800 0.000000
0.096207 0.025598 0.000000
0.128867 0.025396 0.000000
0.161494 0.025194 0.000000
0.194088 0.024992 0.000000
0.226649 0.024790 0.000000
0.259177 0.024587 0.000000
0.293448 0.024374 0.000000
0.327741 0.024160 0.000000
0.361998 0.023947 0.000000
0.396218 0.023733 0.000000
0.430402 0.023519 0.000000
0.464549 0.023306 0.000000
0.498660 0.023092 0.000000
0.532735 0.022878 0.000000
0.570718 0.022640 0.000000
0.608925 0.022400 0.000000
0.647087 0.022160 0.000000
0.685203 0.021919 0.000000
0.715445 0.021729 0.000000
0.745124 0.021541 0.000000
0.774775 0.021354 0.000000
0.804398 0.021166 0.000000
0.833995 0.020979 0.000000
0.863563 0.020792 0.000000
0.893104 0.020604 0.000000
0.922618 0.020417 0.000000
0.942954 0.020288 0.000000
0.962305 0.020165 0.000000
0.981645 0.020042 0.000000
1.000000 0.019919 0.000000
0.008351 0.052234 0.000000
0.035122 0.052069 0.000000
0.061871 0.051904 0.000000
0.094497 0.051702 0.000000
0.127186 0.051500 0.000000
0.159842 0.051298 0.000000
0.192464 0.051096 0.000000
0.225054 0.050894 0.000000
0.257611 0.050692 0.000000
0.291912 0.050479 0.000000
0.326235 0.050266 0.000000
0.360522 0.050052 0.000000
0.394772 0.049839 0.000000
0.428985 0.049625 0.000000
0.463162 0.049412 0.000000
0.497303 0.049198 0.000000
0.531407 0.048985 0.000000
0.569423 0.048747 0.000000
0.607663 0.048507 0.000000
0.645858 0.048267 0.000000
0.684006 0.048027 0.000000
0.714275 0.047836 0.000000
0.743979 0.047649 0.000000
0.773655 0.047462 0.000000
0.803304 0.047275 0.000000
0.832926 0.047088 0.000000
0.862519 0.046900 0.000000
0.892086 0.046713 0.000000
0.921624 0.046526 0.000000
0.941977 0.046397 0.000000
0.961345 0.046274 0.000000
0.980702 0.046151 0.000000
1.000000 0.046028 0.000000
0.006270 0.084064 0.000000
0.033070 0.083900 0.000000
0.059848 0.083735 0.000000
0.092509 0.083534 0.000000
0.125233 0.083332 0.000000
0.157923 0.083130 0.000000
0.190581 0.082928 0.000000
0.223205 0.082726 0.000000
0.255797 0.082525 0.000000
0.290135 0.082312 0.000000
0.324494 0.082099 0.000000
0.358817 0.081886 0.000000
0.393104 0.081672 0.000000
0.427354 0.081459 0.000000
0.461567 0.081246 0.000000
0.495743 0.081033 0.000000
0.529883 0.080820 0.000000
0.567939 0.080582 0.000000
0.606219 0.080342 0.000000
0.644454 0.080103 0.000000
0.682643 0.079863 0.000000
0.712942 0.079673 0.000000
0.742678 0.079486 0.000000
0.772385 0.079299 0.000000
0.802065 0.079112 0.000000
0.831717 0.078925 0.000000
0.861341 0.078738 0.000000
0.890938 0.078551 0.000000
0.920507 0.078364 0.000000
0.940882 0.078235 0.000000
0.960270 0.078112 0.000000
0.979646 0.077990 0.000000
0.999010 0.077867 0.000000
0.004293 0.115948 0.000000
0.031121 0.115783 0.000000
0.057928 0.115619 0.000000
0.090624 0.115418 0.000000
0.123383 0.115216 0.000000
0.156109 0.115015 0.000000
0.188801 0.114813 0.000000
0.221460 0.114612 0.000000
0.254086 0.114410 0.000000
0.288461 0.114198 0.000000
0.322857 0.113985 0.000000
0.357216 0.113772 0.000000
0.391539 0.113559 0.000000
0.425825 0.113346 0.000000
0.460074 0.113133 0.000000
0.494287 0.112920 0.000000
0.528463 0.112707 0.000000
0.566558 0.112470 0.000000
0.604879 0.112231 0.000000
0.643153 0.111991 0.000000
0.681382 0.111752 0.000000
0.711713 0.111562 0.000000
0.741479 0.111375 0.000000
0.771218 0.111188 0.000000
0.800928 0.111002 0.000000
0.830611 0.110815 0.000000
0.860266 0.110628 0.000000
0.889894 0.110442 0.000000
0.919493 0.110255 0.000000
0.939888 0.110126 0.000000
0.959296 0.110004 0.000000
0.978693 0.109881 0.000000
0.998077 0.109758 0.000000
0.002425 0.147791 0.000000
0.029283 0.147626 0.000000
0.056118 0.147462 0.000000
0.088849 0.147261 0.000000
0.121643 0.147060 0.000000
0.154403 0.146859 0.000000
0.187130 0.146658 0.000000
0.219824 0.146456 0.000000
0.252485 0.146255 0.000000
0.286896 0.146043 0.000000
0.321328 0.145830 0.000000
0.355724 0.145618 0.000000
0.390083 0.145405 0.000000
0.424405 0.145192 0.000000
0.458690 0.144980 0.000000
0.492938 0.144767 0.000000
0.527150 0.144554 0.000000
0.565285 0.144317 0.000000
0.603646 0.144078 0.000000
0.641960 0.143839 0.000000
0.680228 0.143600 0.000000
0.710591 0.143410 0.000000
0.740388 0.143224 0.000000
0.770157 0.143037 0.000000
0.799898 0.142851 0.000000
0.829612 0.142665 0.000000
0.859297 0.142478 0.000000
0.888955 0.142292 0.000000
0.918585 0.142105 0.000000
0.939001 0.141977 0.000000
0.958429 0.141854 0.000000
0.977845 0.141732 0.000000
0.997249 0.141609 0.000000
0.000668 0.179593 0.000000
0.027554 0.179429 0.000000
0.054417 0.179265 0.000000
0.087183 0.179064 0.000000
0.120012 0.178863 0.000000
0.152807 0.178662 0.000000
0.185569 0.178461 0.000000
0.218297 0.178260 0.000000
0.250993 0.178059 0.000000
0.285439 0.177847 0.000000
0.319908 0.177635 0.000000
0.354340 0.177423 0.000000
0.388735 0.177210 0.000000
0.423093 0.176998 0.000000
0.457414 0.176786 0.000000
0.491698 0.176573 0.000000
0.525945 0.176361 0.000000
0.564120 0.176124 0.000000
0.602520 0.175885 0.000000
0.640874 0.175647 0.000000
0.679182 0.175408 0.000000
0.709576 0.175218 0.000000
0.739404 0.175032 0.000000
0.769204 0.174846 0.000000
0.798975 0.174660 0.000000
0.828719 0.174473 0.000000
0.858435 0.174287 0.000000
0.888123 0.174101 0.000000
0.917784 0.173915 0.000000
0.938220 0.173786 0.000000
0.957668 0.173664 0.000000
0.977104 0.173542 0.000000
0.996527 0.173419 0.000000
0.000000 0.211355 0.000000
0.025935 0.211191 0.000000
0.052827 0.211027 0.000000
0.085628 0.210827 0.000000
0.118491 0.210626 0.000000
0.151321 0.210425 0.000000
0.184117 0.210225 0.000000
0.216880 0.210024 0.000000
0.249609 0.209823 0.000000
0.284092 0.209611 0.000000
0.318597 0.209399 0.000000
0.353065 0.209187 0.000000
0.387495 0.208975 0.000000
0.421889 0.208763 0.000000
0.456246 0.208551 0.000000
0.490565 0.208339 0.000000
0.524848 0.208127 0.000000
0.563063 0.207890 0.000000
0.601502 0.207652 0.000000
0.639896 0.207413 0.000000
0.678243 0.207175 0.000000
0.708668 0.206986 0.000000
0.738526 0.206800 0.000000
0.768357 0.206614 0.000000
0.798159 0.206428 0.000000
0.827933 0.206242 0.000000
0.857679 0.206056 0.000000
0.887397 0.205870 0.000000
0.917084 0.205684 0.000000
0.937534 0.205555 0.000000
0.956991 0.205433 0.000000
0.976432 0.205311 0.000000
0.995858 0.205189 0.000000
0.000000 0.243076 0.000000
0.024426 0.242912 0.000000
0.051347 0.242749 0.000000
0.084182 0.242549 0.000000
0.117079 0.242348 0.000000
0.149944 0.242148 0.000000
0.182774 0.241947 0.000000
0.215571 0.241747 0.000000
0.248335 0.241546 0.000000
0.282854 0.241335 0.000000
0.317394 0.241123 0.000000
0.351898 0.240911 0.000000
0.386364 0.240699 0.000000
0.420793 0.240488 0.000000
0.455186 0.240276 0.000000
0.489541 0.240064 0.000000
0.523859 0.239852 0.000000
0.562113 0.239616 0.000000
0.600592 0.239378 0.000000
0.639024 0.239140 0.000000
0.677411 0.238902 0.000000
0.707867 0.238712 0.000000
0.737756 0.238527 0.000000
0.767616 0.238341 0.000000
0.797447 0.238155 0.000000
0.827243 0.237969 0.000000
0.857002 0.237784 0.000000
0.886725 0.237598 0.000000
0.916413 0.237412 0.000000
0.936864 0.237284 0.000000
0.956321 0.237162 0.000000
0.975763 0.237040 0.000000
0.995189 0.236918 0.000000
0.000000 0.276488 0.000000
0.022954 0.276325 0.000000
0.049904 0.276161 0.000000
0.082775 0.275962 0.000000
0.115709 0.275761 0.000000
0.148610 0.275561 0.000000
0.181477 0.275361 0.000000
0.214310 0.275161 0.000000
0.247109 0.274960 0.000000
0.281666 0.274749 0.000000
0.316244 0.274538 0.000000
0.350785 0.274326 0.000000
0.385289 0.274115 0.000000
0.419755 0.273903 0.000000
0.454185 0.273692 0.000000
0.488577 0.273480 0.000000
0.522932 0.273269 0.000000
0.561227 0.273032 0.000000
0.599748 0.272795 0.000000
0.638222 0.272557 0.000000
0.676649 0.272319 0.000000
0.707130 0.272130 0.000000
0.737035 0.271945 0.000000
0.766903 0.271759 0.000000
0.796736 0.271574 0.000000
0.826532 0.271388 0.000000
0.856292 0.271203 0.000000
0.886016 0.271017 0.000000
0.915705 0.270832 0.000000
0.936156 0.270704 0.000000
0.955614 0.270582 0.000000
0.975056 0.270460 0.000000
0.994483 0.270338 0.000000
0.000000 0.309913 0.000000
0.021602 0.309749 0.000000
0.048582 0.309586 0.000000
0.081489 0.309387 0.000000
0.114459 0.309187 0.000000
0.147396 0.308987 0.000000
0.180299 0.308787 0.000000
0.213167 0.308587 0.000000
0.246003 0.308387 0.000000
0.280597 0.308176 0.000000
0.315213 0.307965 0.000000
0.349791 0.307754 0.000000
0.384333 0.307542 0.000000
0.418836 0.307331 0.000000
0.453303 0.307120 0.000000
0.487732 0.306909 0.000000
0.522125 0.306697 0.000000
0.560460 0.306462 0.000000
0.599011 0.306224 0.000000
0.637502 0.305987 0.000000
0.675933 0.305749 0.000000
0.706415 0.305561 0.000000
0.736320 0.305375 0.000000
0.766190 0.305190 0.000000
0.796023 0.305005 0.000000
0.825820 0.304820 0.000000
0.855581 0.304634 0.000000
0.885306 0.304449 0.000000
0.914995 0.304264 0.000000
0.935447 0.304136 0.000000
0.954906 0.304014 0.000000
0.974349 0.303893 0.000000
0.993776 0.303771 0.000000
0.000000 0.343292 0.000000
0.020373 0.343129 0.000000
0.047382 0.342966 0.000000
0.080326 0.342767 0.000000
0.113332 0.342567 0.000000
0.146304 0.342368 0.000000
0.179243 0.342168 0.000000
0.212147 0.341968 0.000000
0.245018 0.341768 0.000000
0.279650 0.341558 0.000000
0.314303 0.341347 0.000000
0.348919 0.341136 0.000000
0.383497 0.340925 0.000000
0.418038 0.340714 0.000000
0.452540 0.340503 0.000000
0.486994 0.340292 0.000000
0.521401 0.340081 0.000000
0.559740 0.339846 0.000000
0.598292 0.339609 0.000000
0.636784 0.339371 0.000000
0.675216 0.339134 0.000000
0.705699 0.338946 0.000000
0.735606 0.338761 0.000000
0.765476 0.338576 0.000000
0.795310 0.338391 0.000000
0.825108 0.338206 0.000000
0.854870 0.338021 0.000000
0.884596 0.337836 0.000000
0.914286 0.337651 0.000000
0.934739 0.337523 0.000000
0.954198 0.337402 0.000000
0.973641 0.337280 0.000000
0.993069 0.337159 0.000000
0.000000 0.376627 0.000000
0.019267 0.376464 0.000000
0.046305 0.376301 0.000000
0.079285 0.376102 0.000000
0.112327 0.375903 0.000000
0.145335 0.375703 0.000000
0.178309 0.375504 0.000000
0.211249 0.375305 0.000000
0.244155 0.375105 0.000000
0.278824 0.374895 0.000000
0.313515 0.374684 0.000000
0.348163 0.374474 0.000000
0.382762 0.374263 0.000000
0.417314 0.374052 0.000000
0.451817 0.373841 0.000000
0.486273 0.373631 0.000000
0.520680 0.373420 0.000000
0.559021 0.373185 0.000000
0.597574 0.372948 0.000000
0.636067 0.372711 0.000000
0.674500 0.372475 0.000000
0.704984 0.372286 0.000000
0.734892 0.372102 0.000000
0.764763 0.371917 0.000000
0.794598 0.371732 0.000000
0.824397 0.371547 0.000000
0.854159 0.371363 0.000000
0.883886 0.371178 0.000000
0.913577 0.370993 0.000000
0.934030 0.370866 0.000000
0.953490 0.370744 0.000000
0.972934 0.370623 0.000000
0.992362 0.370502 0.000000
0.000000 0.409917 0.000000
0.018283 0.409754 0.000000
0.045351 0.409591 0.000000
0.078366 0.409393 0.000000
0.111444 0.409194 0.000000
0.144487 0.408995 0.000000
0.177497 0.408795 0.000000
0.210472 0.408596 0.000000
0.243404 0.408397 0.000000
0.278091 0.408187 0.000000
0.312788 0.407977 0.000000
0.347437 0.407766 0.000000
0.382038 0.407556 0.000000
0.416590 0.407346 0.000000
0.451095 0.407135 0.000000
0.485551 0.406925 0.000000
0.519959 0.406714 0.000000
0.558301 0.406480 0.000000
0.596856 0.406243 0.000000
0.635350 0.406007 0.000000
0.673784 0.405770 0.000000
0.704269 0.405582 0.000000
0.734177 0.405398 0.000000
0.764049 0.405213 0.000000
0.793885 0.405029 0.000000
0.823685 0.404844 0.000000
0.853448 0.404660 0.000000
0.883176 0.404475 0.000000
0.912868 0.404291 0.000000
0.933321 0.404163 0.000000
0.952781 0.404042 0.000000
0.972226 0.403921 0.000000
0.991655 0.403800 0.000000
0.000000 0.443162 0.000000
0.017423 0.443000 0.000000
0.044520 0.442837 0.000000
0.077570 0.442639 0.000000
0.110679 0.442440 0.000000
0.143744 0.442241 0.000000
0.176765 0.442042 0.000000
0.209742 0.441843 0.000000
0.242676 0.441645 0.000000
0.277363 0.441435 0.000000
0.312061 0.441225 0.000000
0.346711 0.441015 0.000000
0.381313 0.440804 0.000000
0.415866 0.440594 0.000000
0.450372 0.440384 0.000000
0.484829 0.440174 0.000000
0.519239 0.439964 0.000000
0.557582 0.439729 0.000000
0.596137 0.439493 0.000000
0.634632 0.439257 0.000000
0.673068 0.439021 0.000000
0.703553 0.438833 0.000000
0.733463 0.438649 0.000000
0.763335 0.438465 0.000000
0.793172 0.438281 0.000000
0.822973 0.438096 0.000000
0.852737 0.437912 0.000000
0.882466 0.437728 0.000000
0.912158 0.437543 0.000000
0.932613 0.437416 0.000000
0.952073 0.437295 0.000000
0.971518 0.437174 0.000000
0.990948 0.437053 0.000000
0.000000 0.476363 0.000000
0.016671 0.476201 0.000000
0.043780 0.476038 0.000000
0.076837 0.475840 0.000000
0.109946 0.475642 0.000000
0.143012 0.475443 0.000000
0.176034 0.475245 0.000000
0.209012 0.475046 0.000000
0.241947 0.474847 0.000000
0.276635 0.474638 0.000000
0.311335 0.474428 0.000000
0.345985 0.474218 0.000000
0.380588 0.474008 0.000000
0.415143 0.473798 0.000000
0.449649 0.473589 0.000000
0.484107 0.473379 0.000000
0.518518 0.473169 0.000000
0.556862 0.472935 0.000000
0.595419 0.472699 0.000000
0.633915 0.472463 0.000000
0.672351 0.472227 0.000000
0.702838 0.472040 0.000000
0.732748 0.471856 0.000000
0.762622 0.471672 0.000000
0.792459 0.471488 0.000000
0.822261 0.471304 0.000000
0.852026 0.471120 0.000000
0.881755 0.470936 0.000000
0.911449 0.470752 0.000000
0.931904 0.470625 0.000000
0.951365 0.470504 0.000000
0.970811 0.470383 0.000000
0.990241 0.470262 0.000000
0.000000 0.509519 0.000000
0.015935 0.509357 0.000000
0.043046 0.509195 0.000000
0.076103 0.508997 0.000000
0.109213 0.508799 0.000000
0.142280 0.508601 0.000000
0.175303 0.508402 0.000000
0.208282 0.508204 0.000000
0.241218 0.508006 0.000000
0.275907 0.507796 0.000000
0.310608 0.507587 0.000000
0.345260 0.507377 0.000000
0.379863 0.507168 0.000000
0.414419 0.506958 0.000000
0.448926 0.506749 0.000000
0.483386 0.506539 0.000000
0.517797 0.506330 0.000000
0.556142 0.506096 0.000000
0.594700 0.505860 0.000000
0.633197 0.505625 0.000000
0.671635 0.505389 0.000000
0.702123 0.505202 0.000000
0.732033 0.505018 0.000000
0.761908 0.504834 0.000000
0.791747 0.504651 0.000000
0.821549 0.504467 0.000000
0.851315 0.504283 0.000000
0.881045 0.504099 0.000000
0.910739 0.503916 0.000000
0.931195 0.503789 0.000000
0.950657 0.503668 0.000000
0.970103 0.503548 0.000000
0.989534 0.503427 0.000000
0.000000 0.546468 0.000000
0.015115 0.546306 0.000000
0.042226 0.546144 0.000000
0.075284 0.545947 0.000000
0.108396 0.545749 0.000000
0.141464 0.545551 0.000000
0.174488 0.545353 0.000000
0.207468 0.545154 0.000000
0.240404 0.544956 0.000000
0.275095 0.544748 0.000000
0.309797 0.544538 0.000000
0.344450 0.544329 0.000000
0.379054 0.544120 0.000000
0.413611 0.543911 0.000000
0.448120 0.543701 0.000000
0.482580 0.543492 0.000000
0.516993 0.543283 0.000000
0.555339 0.543049 0.000000
0.593898 0.542814 0.000000
0.632397 0.542579 0.000000
0.670836 0.542344 0.000000
0.701324 0.542157 0.000000
0.731236 0.541973 0.000000
0.761112 0.541790 0.000000
0.790951 0.541606 0.000000
0.820754 0.541423 0.000000
0.850521 0.541239 0.000000
0.880253 0.541056 0.000000
0.909948 0.540872 0.000000
0.930404 0.540746 0.000000
0.949866 0.540625 0.000000
0.969313 0.540505 0.000000
0.988745 0.540384 0.000000
0.000000 0.583623 0.000000
0.014288 0.583461 0.000000
0.041400 0.583300 0.000000
0.074459 0.583103 0.000000
0.107572 0.582905 0.000000
0.140641 0.582707 0.000000
0.173666 0.582509 0.000000
0.206648 0.582312 0.000000
0.239585 0.582114 0.000000
0.274277 0.581905 0.000000
0.308980 0.581696 0.000000
0.343634 0.581488 0.000000
0.378240 0.581279 0.000000
0.412798 0.581070 0.000000
0.447307 0.580861 0.000000
0.481769 0.580652 0.000000
0.516183 0.580443 0.000000
0.554530 0.580210 0.000000
0.593090 0.579975 0.000000
0.631590 0.579740 0.000000
0.670031 0.579505 0.000000
0.700520 0.579319 0.000000
0.730433 0.579135 0.000000
0.760309 0.578952 0.000000
0.790150 0.578769 0.000000
0.819954 0.578586 0.000000
0.849722 0.578403 0.000000
0.879454 0.578219 0.000000
0.909151 0.578036 0.000000
0.929607 0.577910 0.000000
0.949070 0.577789 0.000000
0.968518 0.577669 0.000000
0.987950 0.577549 0.000000
0.000000 0.620722 0.000000
0.013461 0.620561 0.000000
0.040574 0.620400 0.000000
0.073635 0.620203 0.000000
0.106749 0.620006 0.000000
0.139819 0.619808 0.000000
0.172845 0.619611 0.000000
0.205827 0.619413 0.000000
0.238766 0.619216 0.000000
0.273459 0.619007 0.000000
0.308163 0.618799 0.000000
0.342818 0.618590 0.000000
0.377425 0.618382 0.000000
0.411984 0.618173 0.000000
0.446495 0.617964 0.000000
0.480958 0.617756 0.000000
0.515373 0.617547 0.000000
0.553721 0.617314 0.000000
0.592283 0.617080 0.000000
0.630784 0.616845 0.000000
0.669225 0.616611 0.000000
0.699716 0.616425 0.000000
0.729630 0.616242 0.000000
0.759507 0.616059 0.000000
0.789349 0.615876 0.000000
0.819154 0.615693 0.000000
0.848923 0.615510 0.000000
0.878656 0.615327 0.000000
0.908353 0.615144 0.000000
0.928811 0.615018 0.000000
0.948274 0.614898 0.000000
0.967723 0.614778 0.000000
0.987155 0.614657 0.000000
0.000000 0.657766 0.000000
0.012635 0.657605 0.000000
0.039748 0.657444 0.000000
0.072810 0.657248 0.000000
0.105925 0.657050 0.000000
0.138996 0.656853 0.000000
0.172023 0.656656 0.000000
0.205007 0.656459 0.000000
0.237947 0.656262 0.000000
0.272641 0.656054 0.000000
0.307346 0.655846 0.000000
0.342002 0.655637 0.000000
0.376610 0.655429 0.000000
0.411170 0.655221 0.000000
0.445682 0.655012 0.000000
0.480146 0.654804 0.000000
0.514562 0.654596 0.000000
0.552913 0.654363 0.000000
0.591475 0.654129 0.000000
0.629978 0.653895 0.000000
0.668420 0.653661 0.000000
0.698912 0.653475 0.000000
0.728827 0.653292 0.000000
0.758705 0.653110 0.000000
0.788547 0.652927 0.000000
0.818354 0.652744 0.000000
0.848124 0.652562 0.000000
0.877858 0.652379 0.000000
0.907561 0.652196 0.000000
0.928024 0.652070 0.000000
0.947494 0.651950 0.000000
0.966951 0.651830 0.000000
0.986394 0.651710 0.000000
0.000000 0.687150 0.000000
0.011978 0.686989 0.000000
0.039092 0.686828 0.000000
0.072155 0.686632 0.000000
0.105271 0.686435 0.000000
0.138343 0.686238 0.000000
0.171371 0.686041 0.000000
0.204355 0.685844 0.000000
0.237296 0.685647 0.000000
0.271991 0.685439 0.000000
0.306697 0.685231 0.000000
0.341354 0.685023 0.000000
0.375963 0.684815 0.000000
0.410524 0.684607 0.000000
0.445037 0.684399 0.000000
0.479502 0.684191 0.000000
0.513919 0.683983 0.000000
0.552270 0.683751 0.000000
0.590834 0.683517 0.000000
0.629337 0.683283 0.000000
0.667781 0.683049 0.000000
0.698273 0.682864 0.000000
0.728189 0.682681 0.000000
0.758068 0.682499 0.000000
0.787913 0.682316 0.000000
0.817725 0.682134 0.000000
0.847506 0.681951 0.000000
0.877253 0.681769 0.000000
0.906969 0.681586 0.000000
0.927441 0.681460 0.000000
0.946920 0.681341 0.000000
0.966386 0.681221 0.000000
0.985837 0.681101 0.000000
0.000000 0.715979 0.000000
0.011333 0.715818 0.000000
0.038448 0.715658 0.000000
0.071511 0.715461 0.000000
0.104628 0.715265 0.000000
0.137701 0.715068 0.000000
0.170730 0.714871 0.000000
0.203715 0.714675 0.000000
0.236657 0.714478 0.000000
0.271353 0.714271 0.000000
0.306059 0.714063 0.000000
0.340718 0.713855 0.000000
0.375328 0.713647 0.000000
0.409889 0.713439 0.000000
0.444403 0.713231 0.000000
0.478869 0.713024 0.000000
0.513287 0.712816 0.000000
0.551639 0.712584 0.000000
0.590203 0.712350 0.000000
0.628708 0.712117 0.000000
0.667153 0.711883 0.000000
0.697649 0.711698 0.000000
0.727572 0.711515 0.000000
0.757463 0.711333 0.000000
0.787321 0.711151 0.000000
0.817147 0.710969 0.000000
0.846940 0.710786 0.000000
0.876701 0.710604 0.000000
0.906429 0.710422 0.000000
0.926910 0.710296 0.000000
0.946398 0.710177 0.000000
0.965872 0.710057 0.000000
0.985332 0.709937 0.000000
0.000000 0.744774 0.000000
0.010688 0.744614 0.000000
0.037804 0.744453 0.000000
0.070868 0.744257 0.000000
0.103985 0.744061 0.000000
0.137059 0.743865 0.000000
0.170089 0.743668 0.000000
0.203075 0.743472 0.000000
0.236018 0.743275 0.000000
0.270714 0.743068 0.000000
0.305422 0.742860 0.000000
0.340081 0.742653 0.000000
0.374692 0.742445 0.000000
0.409255 0.742238 0.000000
0.443769 0.742030 0.000000
0.478236 0.741823 0.000000
0.512655 0.741615 0.000000
0.551008 0.741383 0.000000
0.589576 0.741150 0.000000
0.628090 0.740917 0.000000
0.666550 0.740683 0.000000
0.697060 0.740498 0.000000
0.726996 0.740316 0.000000
0.756900 0.740134 0.000000
0.786771 0.739952 0.000000
0.816610 0.739770 0.000000
0.846416 0.739588 0.000000
0.876190 0.739406 0.000000
0.905931 0.739224 0.000000
0.926421 0.739098 0.000000
0.945917 0.738979 0.000000
0.965399 0.738859 0.000000
0.984868 0.738740 0.000000
0.000000 0.773536 0.000000
0.010043 0.773376 0.000000
0.037159 0.773216 0.000000
0.070224 0.773020 0.000000
0.103343 0.772824 0.000000
0.136417 0.772627 0.000000
0.169448 0.772431 0.000000
0.202435 0.772235 0.000000
0.235378 0.772039 0.000000
0.270076 0.771832 0.000000
0.304784 0.771624 0.000000
0.339444 0.771417 0.000000
0.374056 0.771210 0.000000
0.408620 0.771002 0.000000
0.443135 0.770795 0.000000
0.477604 0.770588 0.000000
0.512030 0.770380 0.000000
0.550396 0.770149 0.000000
0.588981 0.769916 0.000000
0.627512 0.769683 0.000000
0.665989 0.769450 0.000000
0.696512 0.769265 0.000000
0.726462 0.769083 0.000000
0.756378 0.768901 0.000000
0.786263 0.768719 0.000000
0.816114 0.768538 0.000000
0.845933 0.768356 0.000000
0.875720 0.768174 0.000000
0.905474 0.767992 0.000000
0.925973 0.767867 0.000000
0.945477 0.767747 0.000000
0.964968 0.767628 0.000000
0.984445 0.767509 0.000000
0.000000 0.802264 0.000000
0.009398 0.802104 0.000000
0.036515 0.801944 0.000000
0.069581 0.801749 0.000000
0.102700 0.801553 0.000000
0.135776 0.801357 0.000000
0.168807 0.801161 0.000000
0.201795 0.800965 0.000000
0.234739 0.800769 0.000000
0.269437 0.800562 0.000000
0.304147 0.800355 0.000000
0.338808 0.800148 0.000000
0.373422 0.799941 0.000000
0.407992 0.799734 0.000000
0.442519 0.799527 0.000000
0.477003 0.799319 0.000000
0.511443 0.799112 0.000000
0.549827 0.798881 0.000000
0.588429 0.798648 0.000000
0.626976 0.798416 0.000000
0.665470 0.798183 0.000000
0.696006 0.797998 0.000000
0.725969 0.797816 0.000000
0.755899 0.797635 0.000000
0.785796 0.797453 0.000000
0.815660 0.797272 0.000000
0.845492 0.797090 0.000000
0.875291 0.796908 0.000000
0.905058 0.796727 0.000000
0.925566 0.796602 0.000000
0.945079 0.796482 0.000000
0.964578 0.796363 0.000000
0.984063 0.796244 0.000000
0.000000 0.830959 0.000000
0.008753 0.830799 0.000000
0.035871 0.830639 0.000000
0.068937 0.830444 0.000000
0.102057 0.830248 0.000000
0.135134 0.830052 0.000000
0.168166 0.829857 0.000000
0.201155 0.829661 0.000000
0.234100 0.829465 0.000000
0.268800 0.829259 0.000000
0.303516 0.829052 0.000000
0.338188 0.828845 0.000000
0.372817 0.828638 0.000000
0.407402 0.828431 0.000000
0.441944 0.828224 0.000000
0.476443 0.828018 0.000000
0.510899 0.827811 0.000000
0.549299 0.827580 0.000000
0.587918 0.827347 0.000000
0.626482 0.827115 0.000000
0.664993 0.826882 0.000000
0.695542 0.826698 0.000000
0.725517 0.826516 0.000000
0.755460 0.826335 0.000000
0.785370 0.826154 0.000000
0.815247 0.825972 0.000000
0.845092 0.825791 0.000000
