flutter_app/assets/lut/cameras/cpm35_kodak_portrait.cube
TITLE "CPM35 Kodak Gold Portrait"
LUT_3D_SIZE 5
DOMAIN_MIN 0.0 0.0 0.0
DOMAIN_MAX 1.0 1.0 1.0
0.021990 0.000000 0.000000
0.276812 0.000000 0.000000
0.581451 0.000000 0.000000
0.878650 0.000000 0.000000
1.000000 0.000000 0.000000
0.000000 0.240570 0.000000
0.249725 0.236588 0.000000
0.558578 0.231794 0.000000
0.859819 0.227080 0.000000
1.000000 0.223977 0.000000
0.000000 0.527154 0.000000
0.230233 0.523218 0.000000
0.541329 0.518478 0.000000
0.843387 0.513818 0.000000
1.000000 0.510751 0.000000
0.000000 0.805683 0.000000
0.213663 0.801791 0.000000
0.525044 0.797105 0.000000
0.828030 0.792497 0.000000
1.000000 0.789464 0.000000
0.000000 0.987299 0.000000
0.203819 0.983436 0.000000
0.516947 0.978784 0.000000
0.821729 0.974210 0.000000
1.000000 0.971200 0.000000
0.018394 0.000000 0.211420
0.273581 0.000000 0.214939
0.578651 0.000000 0.217535
0.876264 0.000000 0.218340
1.000000 0.000000 0.217924
0.000000 0.239218 0.218341
0.247600 0.235236 0.217699
0.556870 0.230441 0.215287
0.858442 0.225727 0.211261
1.000000 0.222624 0.208356
0.000000 0.525817 0.208790
0.228820 0.521881 0.205060
0.539934 0.517141 0.200568
0.842009 0.512481 0.196152
1.000000 0.509413 0.193245
0.000000 0.804361 0.193935
0.212249 0.800469 0.190203
0.523781 0.795783 0.185555
0.827002 0.791175 0.180440
1.000000 0.788142 0.176766
0.000000 0.985987 0.183819
0.202808 0.982124 0.179367
0.516176 0.977472 0.173473
0.821188 0.972898 0.167110
1.000000 0.969887 0.162615
0.014212 0.000000 0.496481
0.269839 0.000000 0.499461
0.575427 0.000000 0.501425
0.873536 0.000000 0.501629
1.000000 0.000000 0.500829
0.000000 0.237590 0.501642
0.245189 0.233608 0.500508
0.554961 0.228813 0.497520
0.856783 0.224098 0.493246
1.000000 0.220995 0.490374
0.000000 0.524208 0.490803
0.227119 0.520272 0.487115
0.538254 0.515532 0.482674
0.840349 0.510871 0.478308
1.000000 0.507803 0.475434
0.000000 0.802770 0.476116
0.210548 0.798878 0.472425
0.522344 0.794191 0.467656
0.825847 0.789583 0.462407
1.000000 0.786550 0.458648
0.000000 0.984407 0.465872
0.201678 0.980544 0.461308
0.515333 0.975892 0.455285
0.820620 0.971318 0.448802
1.000000 0.968307 0.444231
0.010261 0.000000 0.773352
0.266317 0.000000 0.775813
0.572412 0.000000 0.777170
0.871007 0.000000 0.776797
1.000000 0.000000 0.775627
0.000000 0.235989 0.776820
0.242976 0.232007 0.775213
0.553240 0.227212 0.771674
0.855153 0.222497 0.767358
1.000000 0.219393 0.764518
0.000000 0.522626 0.764942
0.225446 0.518689 0.761295
0.536602 0.513949 0.756903
0.838718 0.509288 0.752585
1.000000 0.506220 0.749742
0.000000 0.801206 0.750417
0.208938 0.797313 0.746722
0.521022 0.792626 0.741816
0.824802 0.788018 0.736439
1.000000 0.784984 0.732599
0.000000 0.982855 0.739986
0.200658 0.978991 0.735315
0.514594 0.974339 0.729169
0.820150 0.969764 0.722571
1.000000 0.966753 0.717927
0.007747 0.000000 0.953792
0.264085 0.000000 0.955917
0.570512 0.000000 0.956882
0.869427 0.000000 0.956136
1.000000 0.000000 0.954727
0.000000 0.234936 0.956167
0.241606 0.230954 0.954254
0.552153 0.226158 0.950406
0.854080 0.221443 0.946121
1.000000 0.218339 0.943301
0.000000 0.521584 0.943722
0.224345 0.517648 0.940102
0.535515 0.512907 0.935742
0.837644 0.508246 0.931455
1.000000 0.505178 0.928633
0.000000 0.800176 0.929303
0.207927 0.796284 0.925572
0.520200 0.791596 0.920578
0.824161 0.786988 0.915117
1.000000 0.783954 0.911224
0.000000 0.981833 0.918718
0.200036 0.977969 0.913977
0.514156 0.973316 0.907752
0.819889 0.968741 0.901079
1.000000 0.965730 0.896389
