flutter_app/assets/lut/cameras/cpm35_kodak_warm_clean.cube
TITLE "CPM35 Kodak Warm Clean"
LUT_3D_SIZE 33
DOMAIN_MIN 0.0 0.0 0.0
DOMAIN_MAX 1.0 1.0 1.0
0.000000 0.000000 0.000000
0.027815 0.000000 0.000000
0.055629 0.000000 0.000000
0.083444 0.000000 0.000000
0.111258 0.000000 0.000000
0.139073 0.000000 0.000000
0.166888 0.000000 0.000000
0.194702 0.000000 0.000000
0.222517 0.000000 0.000000
0.250331 0.000000 0.000000
0.278146 0.000000 0.000000
0.305960 0.000000 0.000000
0.333775 0.000000 0.000000
0.361590 0.000000 0.000000
0.394279 0.000000 0.000000
0.430652 0.000000 0.000000
0.467025 0.000000 0.000000
0.503398 0.000000 0.000000
0.539771 0.000000 0.000000
0.576144 0.000000 0.000000
0.612892 0.000000 0.000000
0.650356 0.000000 0.000000
0.687820 0.000000 0.000000
0.725284 0.000000 0.000000
0.762749 0.000000 0.000000
0.800213 0.000000 0.000000
0.837677 0.000000 0.000000
0.874987 0.000000 0.000000
0.911350 0.000000 0.000000
0.947712 0.000000 0.000000
0.984074 0.000000 0.000000
1.000000 0.000000 0.000000
1.000000 0.000000 0.000000
0.000000 0.027280 0.000000
0.027124 0.026576 0.000000
0.054939 0.025871 0.000000
0.082753 0.025167 0.000000
0.110568 0.024463 0.000000
0.138382 0.023759 0.000000
0.166197 0.023055 0.000000
0.194011 0.022351 0.000000
0.221826 0.021646 0.000000
0.249641 0.020942 0.000000
0.277455 0.020238 0.000000
0.305270 0.019534 0.000000
0.336995 0.019051 0.000000
0.372274 0.018697 0.000000
0.407691 0.018272 0.000000
0.443220 0.017788 0.000000
0.478843 0.017256 0.000000
0.514545 0.016683 0.000000
0.550314 0.016075 0.000000
0.586141 0.015437 0.000000
0.622678 0.014774 0.000000
0.659676 0.014088 0.000000
0.696712 0.013382 0.000000
0.733783 0.012659 0.000000
0.770884 0.011921 0.000000
0.807907 0.011168 0.000000
0.844035 0.010392 0.000000
0.880179 0.009608 0.000000
0.916338 0.008817 0.000000
0.952510 0.008019 0.000000
0.988694 0.007215 0.000000
1.000000 0.006405 0.000000
1.000000 0.005591 0.000000
0.000000 0.054559 0.000000
0.026433 0.053855 0.000000
0.054248 0.053151 0.000000
0.082063 0.052447 0.000000
0.109877 0.051743 0.000000
0.137692 0.051039 0.000000
0.165506 0.050334 0.000000
0.193321 0.049630 0.000000
0.221135 0.048926 0.000000
0.248950 0.048222 0.000000
0.279798 0.048038 0.000000
0.313972 0.048257 0.000000
0.348423 0.048333 0.000000
0.383100 0.048291 0.000000
0.417967 0.048151 0.000000
0.452993 0.047928 0.000000
0.488154 0.047635 0.000000
0.523431 0.047283 0.000000
0.558808 0.046878 0.000000
0.594272 0.046428 0.000000
0.630706 0.045939 0.000000
0.667380 0.045416 0.000000
0.704116 0.044862 0.000000
0.740844 0.044276 0.000000
0.776737 0.043619 0.000000
0.812662 0.042945 0.000000
0.848617 0.042257 0.000000
0.884597 0.041555 0.000000
0.920602 0.040841 0.000000
0.956628 0.040116 0.000000
0.992675 0.039382 0.000000
1.000000 0.038638 0.000000
1.000000 0.037886 0.000000
0.000000 0.081839 0.000000
0.025743 0.081135 0.000000
0.053557 0.080431 0.000000
0.081372 0.079727 0.000000
0.109186 0.079022 0.000000
0.137001 0.078318 0.000000
0.164816 0.077614 0.000000
0.192630 0.076910 0.000000
0.222687 0.076981 0.000000
0.255746 0.077778 0.000000
0.289221 0.078359 0.000000
0.323040 0.078763 0.000000
0.357144 0.079018 0.000000
0.391488 0.079148 0.000000
0.426036 0.079173 0.000000
0.460759 0.079108 0.000000
0.495633 0.078964 0.000000
0.530638 0.078752 0.000000
0.565757 0.078481 0.000000
0.601006 0.078158 0.000000
0.637375 0.077789 0.000000
0.673800 0.077375 0.000000
0.709456 0.076837 0.000000
0.745161 0.076274 0.000000
0.780910 0.075689 0.000000
0.816698 0.075084 0.000000
0.852523 0.074461 0.000000
0.888380 0.073821 0.000000
0.924267 0.073166 0.000000
0.960182 0.072498 0.000000
0.996121 0.071817 0.000000
1.000000 0.071125 0.000000
1.000000 0.070422 0.000000
0.000000 0.109119 0.000000
0.025052 0.108415 0.000000
0.052867 0.107710 0.000000
0.080681 0.107006 0.000000
0.108496 0.106302 0.000000
0.136310 0.105598 0.000000
0.165665 0.105878 0.000000
0.197596 0.107260 0.000000
0.230087 0.108351 0.000000
0.263038 0.109204 0.000000
0.296373 0.109857 0.000000
0.330030 0.110344 0.000000
0.363961 0.110689 0.000000
0.398126 0.110913 0.000000
0.432493 0.111032 0.000000
0.467036 0.111060 0.000000
0.501732 0.111008 0.000000
0.536563 0.110886 0.000000
0.571514 0.110703 0.000000
0.606767 0.110464 0.000000
0.642191 0.110047 0.000000
0.677675 0.109595 0.000000
0.713217 0.109114 0.000000
0.748813 0.108606 0.000000
0.784457 0.108074 0.000000
0.820144 0.107520 0.000000
0.855871 0.106945 0.000000
0.891635 0.106353 0.000000
0.927432 0.105743 0.000000
0.963260 0.105119 0.000000
0.999116 0.104480 0.000000
1.000000 0.103827 0.000000
1.000000 0.103163 0.000000
0.000000 0.136398 0.000000
0.024361 0.135694 0.000000
0.052176 0.134990 0.000000
0.079991 0.134286 0.000000
0.108731 0.134729 0.000000
0.139522 0.136701 0.000000
0.171020 0.138308 0.000000
0.203097 0.139614 0.000000
0.235656 0.140670 0.000000
0.268621 0.141515 0.000000
0.301929 0.142183 0.000000
0.335532 0.142698 0.000000
0.369389 0.143081 0.000000
0.403467 0.143350 0.000000
0.437737 0.143519 0.000000
0.472177 0.143600 0.000000
0.506766 0.143604 0.000000
0.541489 0.143538 0.000000
0.575673 0.143248 0.000000
0.610205 0.142908 0.000000
0.645540 0.142532 0.000000
0.680941 0.142121 0.000000
0.716403 0.141681 0.000000
0.751920 0.141212 0.000000
0.787487 0.140719 0.000000
0.823099 0.140202 0.000000
0.858754 0.139665 0.000000
0.894447 0.139108 0.000000
0.930175 0.138533 0.000000
0.965936 0.137942 0.000000
1.000000 0.137336 0.000000
1.000000 0.136715 0.000000
1.000000 0.136082 0.000000
0.000000 0.163678 0.000000
0.023671 0.162974 0.000000
0.051887 0.163534 0.000000
0.081527 0.166103 0.000000
0.112021 0.168229 0.000000
0.143215 0.169993 0.000000
0.174992 0.171454 0.000000
0.207259 0.172662 0.000000
0.239941 0.173654 0.000000
0.272978 0.174462 0.000000
0.306321 0.175112 0.000000
0.339930 0.175624 0.000000
0.373772 0.176015 0.000000
0.407818 0.176300 0.000000
0.442045 0.176492 0.000000
0.476432 0.176600 0.000000
0.510401 0.176441 0.000000
0.544418 0.176214 0.000000
0.578521 0.175942 0.000000
0.613083 0.175630 0.000000
0.648363 0.175281 0.000000
0.683708 0.174899 0.000000
0.719114 0.174486 0.000000
0.754575 0.174046 0.000000
0.790086 0.173581 0.000000
0.825643 0.173092 0.000000
0.861243 0.172582 0.000000
0.896882 0.172052 0.000000
0.932558 0.171504 0.000000
0.968267 0.170939 0.000000
1.000000 0.170358 0.000000
1.000000 0.169762 0.000000
1.000000 0.169153 0.000000
0.000000 0.192292 0.000000
0.023610 0.195464 0.000000
0.053090 0.198115 0.000000
0.083394 0.200340 0.000000
0.114382 0.202210 0.000000
0.145945 0.203783 0.000000
0.177995 0.205103 0.000000
0.210462 0.206207 0.000000
0.243288 0.207124 0.000000
0.276426 0.207880 0.000000
0.309837 0.208495 0.000000
0.343487 0.208985 0.000000
0.377348 0.209366 0.000000
0.411398 0.209650 0.000000
0.445145 0.209625 0.000000
0.478943 0.209511 0.000000
0.512843 0.209345 0.000000
0.546834 0.209131 0.000000
0.580908 0.208875 0.000000
0.615508 0.208579 0.000000
0.650752 0.208248 0.000000
0.686060 0.207885 0.000000
0.721428 0.207492 0.000000
0.756849 0.207072 0.000000
0.792320 0.206626 0.000000
0.827837 0.206158 0.000000
0.863397 0.205668 0.000000
0.898996 0.205158 0.000000
0.934632 0.204630 0.000000
0.970301 0.204085 0.000000
1.000000 0.203524 0.000000
1.000000 0.202948 0.000000
1.000000 0.202358 0.000000
0.000000 0.227966 0.000000
0.023634 0.230656 0.000000
0.053827 0.232939 0.000000
0.084680 0.234879 0.000000
0.116094 0.236529 0.000000
0.147986 0.237930 0.000000
0.180292 0.239118 0.000000
0.212955 0.240120 0.000000
0.245932 0.240959 0.000000
0.279183 0.241656 0.000000
0.312678 0.242227 0.000000
0.346388 0.242687 0.000000
0.379905 0.242801 0.000000
0.413484 0.242801 0.000000
0.447180 0.242740 0.000000
0.480980 0.242626 0.000000
0.514874 0.242462 0.000000
0.548855 0.242253 0.000000
0.582915 0.242004 0.000000
0.617557 0.241718 0.000000
0.652780 0.241398 0.000000
0.688064 0.241046 0.000000
0.723406 0.240666 0.000000
0.758801 0.240259 0.000000
0.794244 0.239828 0.000000
0.829733 0.239374 0.000000
0.865263 0.238899 0.000000
0.900832 0.238404 0.000000
0.936438 0.237891 0.000000
0.972077 0.237361 0.000000
1.000000 0.236815 0.000000
1.000000 0.236254 0.000000
1.000000 0.235679 0.000000
0.000000 0.263639 0.000000
0.023464 0.265950 0.000000
0.054236 0.267932 0.000000
0.085550 0.269633 0.000000
0.117331 0.271093 0.000000
0.149517 0.272342 0.000000
0.182057 0.273408 0.000000
0.214908 0.274313 0.000000
0.248033 0.275075 0.000000
0.281402 0.275712 0.000000
0.314682 0.275968 0.000000
0.348041 0.276082 0.000000
0.381530 0.276128 0.000000
0.415138 0.276113 0.000000
0.448853 0.276042 0.000000
0.482666 0.275921 0.000000
0.516566 0.275755 0.000000
0.550548 0.275546 0.000000
0.584604 0.275298 0.000000
0.619290 0.275016 0.000000
0.654502 0.274701 0.000000
0.689773 0.274356 0.000000
0.725100 0.273984 0.000000
0.760477 0.273585 0.000000
0.795902 0.273163 0.000000
0.831371 0.272719 0.000000
0.866880 0.272255 0.000000
0.902428 0.271771 0.000000
0.938011 0.271269 0.000000
0.973628 0.270750 0.000000
1.000000 0.270216 0.000000
1.000000 0.269667 0.000000
1.000000 0.269104 0.000000
0.000000 0.299312 0.000000
0.023154 0.301316 0.000000
0.054407 0.303049 0.000000
0.086112 0.304547 0.000000
0.118213 0.305841 0.000000
0.150660 0.306955 0.000000
0.183414 0.307910 0.000000
0.216439 0.308724 0.000000
0.249476 0.309126 0.000000
0.282613 0.309355 0.000000
0.315896 0.309508 0.000000
0.349311 0.309593 0.000000
0.382845 0.309616 0.000000
0.416488 0.309583 0.000000
0.450230 0.309499 0.000000
0.484061 0.309368 0.000000
0.517976 0.309194 0.000000
0.551966 0.308981 0.000000
0.586026 0.308731 0.000000
0.620754 0.308449 0.000000
0.655964 0.308135 0.000000
0.691230 0.307793 0.000000
0.726548 0.307424 0.000000
0.761916 0.307031 0.000000
0.797329 0.306615 0.000000
0.832785 0.306177 0.000000
0.868281 0.305720 0.000000
0.903813 0.305244 0.000000
0.939381 0.304750 0.000000
0.974981 0.304240 0.000000
1.000000 0.303714 0.000000
1.000000 0.303174 0.000000
1.000000 0.302620 0.000000
0.000000 0.334986 0.000000
0.022741 0.336735 0.000000
0.054399 0.338258 0.000000
0.086441 0.339582 0.000000
0.118821 0.340731 0.000000
0.151501 0.341724 0.000000
0.184286 0.342276 0.000000
0.217200 0.342620 0.000000
0.250276 0.342881 0.000000
0.283497 0.343067 0.000000
0.316850 0.343184 0.000000
0.350322 0.343239 0.000000
0.383904 0.343238 0.000000
0.417585 0.343185 0.000000
0.451357 0.343084 0.000000
0.485213 0.342941 0.000000
0.519146 0.342757 0.000000
0.553150 0.342537 0.000000
0.587219 0.342283 0.000000
0.621990 0.341997 0.000000
0.657202 0.341682 0.000000
0.692469 0.341339 0.000000
0.727785 0.340972 0.000000
0.763149 0.340581 0.000000
0.798556 0.340168 0.000000
0.834004 0.339734 0.000000
0.869491 0.339281 0.000000
0.905014 0.338809 0.000000
0.940570 0.338321 0.000000
0.976159 0.337817 0.000000
1.000000 0.337297 0.000000
1.000000 0.336764 0.000000
1.000000 0.336217 0.000000
0.000000 0.370659 0.000000
0.022250 0.372195 0.000000
0.054254 0.373539 0.000000
0.086587 0.374712 0.000000
0.119113 0.375417 0.000000
0.151803 0.375878 0.000000
0.184670 0.376247 0.000000
0.217697 0.376533 0.000000
0.250867 0.376745 0.000000
0.284169 0.376888 0.000000
0.317590 0.376970 0.000000
0.351119 0.376996 0.000000
0.384749 0.376969 0.000000
0.418470 0.376896 0.000000
0.452275 0.376778 0.000000
0.486158 0.376621 0.000000
0.520113 0.376426 0.000000
0.554135 0.376196 0.000000
0.588218 0.375935 0.000000
0.623029 0.375644 0.000000
0.658248 0.375325 0.000000
0.693519 0.374981 0.000000
0.728838 0.374612 0.000000
0.764201 0.374221 0.000000
0.799607 0.373809 0.000000
0.835052 0.373376 0.000000
0.870534 0.372926 0.000000
0.906051 0.372457 0.000000
0.941600 0.371973 0.000000
0.977181 0.371472 0.000000
1.000000 0.370957 0.000000
1.000000 0.371870 0.000000
1.000000 0.372987 0.000000
0.000000 0.406333 0.000000
0.021697 0.407687 0.000000
0.053957 0.408549 0.000000
0.086422 0.409127 0.000000
0.119079 0.409604 0.000000
0.151910 0.409992 0.000000
0.184897 0.410299 0.000000
0.218027 0.410532 0.000000
0.251287 0.410697 0.000000
0.284664 0.410801 0.000000
0.318151 0.410849 0.000000
0.351736 0.410846 0.000000
0.385414 0.410795 0.000000
0.419175 0.410700 0.000000
0.453015 0.410565 0.000000
0.486927 0.410392 0.000000
0.520906 0.410185 0.000000
0.554947 0.409945 0.000000
0.589047 0.409675 0.000000
0.623896 0.409377 0.000000
0.659126 0.409054 0.000000
0.694404 0.408705 0.000000
0.729729 0.408334 0.000000
0.765096 0.407941 0.000000
0.800503 0.407528 0.000000
0.835948 0.407095 0.000000
0.871428 0.406645 0.000000
0.906943 0.406178 0.000000
0.942488 0.405695 0.000000
0.981774 0.406707 0.000000
1.000000 0.408012 0.000000
1.000000 0.409233 0.000000
1.000000 0.410654 0.000000
0.000000 0.441673 0.000000
0.021057 0.442367 0.000000
0.053503 0.442954 0.000000
0.086137 0.443444 0.000000
0.118940 0.443846 0.000000
0.151898 0.444168 0.000000
0.184995 0.444418 0.000000
0.218220 0.444601 0.000000
0.251563 0.444724 0.000000
0.285012 0.444791 0.000000
0.318561 0.444806 0.000000
0.352201 0.444775 0.000000
0.385925 0.444699 0.000000
0.419727 0.444584 0.000000
0.453602 0.444430 0.000000
0.487544 0.444242 0.000000
0.521548 0.444022 0.000000
0.555611 0.443771 0.000000
0.589728 0.443492 0.000000
0.624614 0.443186 0.000000
0.659856 0.442856 0.000000
0.695145 0.442502 0.000000
0.730477 0.442127 0.000000
0.765850 0.441731 0.000000
0.801262 0.441316 0.000000
0.836709 0.440882 0.000000
0.872191 0.440431 0.000000
0.910997 0.441529 0.000000
0.950997 0.443024 0.000000
0.991180 0.444427 0.000000
1.000000 0.445934 0.000000
1.000000 0.447364 0.000000
1.000000 0.449015 0.000000
0.000000 0.476297 0.000000
0.020378 0.476889 0.000000
0.052996 0.477387 0.000000
0.085780 0.477799 0.000000
0.118715 0.478133 0.000000
0.151787 0.478396 0.000000
0.184985 0.478593 0.000000
0.218298 0.478731 0.000000
0.251718 0.478813 0.000000
0.285235 0.478845 0.000000
0.318844 0.478830 0.000000
0.352536 0.478771 0.000000
0.386305 0.478672 0.000000
0.420147 0.478536 0.000000
0.454057 0.478365 0.000000
0.488029 0.478161 0.000000
0.522059 0.477927 0.000000
0.556144 0.477664 0.000000
0.590281 0.477375 0.000000
0.625200 0.477061 0.000000
0.660457 0.476723 0.000000
0.695758 0.476364 0.000000
0.731100 0.475983 0.000000
0.766481 0.475584 0.000000
0.801898 0.475165 0.000000
0.840248 0.476337 0.000000
0.879870 0.478022 0.000000
0.919690 0.479608 0.000000
0.960190 0.481292 0.000000
1.000000 0.482892 0.000000
1.000000 0.484409 0.000000
1.000000 0.485845 0.000000
1.000000 0.487699 0.000000
0.000000 0.510921 0.000000
0.019675 0.511423 0.000000
0.052446 0.511842 0.000000
0.085364 0.512185 0.000000
0.118417 0.512457 0.000000
0.151593 0.512666 0.000000
0.184883 0.512816 0.000000
0.218278 0.512911 0.000000
0.251770 0.512956 0.000000
0.285352 0.512955 0.000000
0.319016 0.512910 0.000000
0.352758 0.512826 0.000000
0.386572 0.512704 0.000000
0.420453 0.512547 0.000000
0.454396 0.512358 0.000000
0.488398 0.512139 0.000000
0.522455 0.511891 0.000000
0.556564 0.511617 0.000000
0.590720 0.511317 0.000000
0.625670 0.510994 0.000000
0.660943 0.510649 0.000000
0.696257 0.510282 0.000000
0.731610 0.509896 0.000000
0.769526 0.511131 0.000000
0.808771 0.513006 0.000000
0.848226 0.514776 0.000000
0.888374 0.516637 0.000000
0.928727 0.518409 0.000000
0.969259 0.520090 0.000000
1.000000 0.521686 0.000000
1.000000 0.523199 0.000000
1.000000 0.524635 0.000000
1.000000 0.526676 0.000000
0.000000 0.545545 0.000000
0.018952 0.545968 0.000000
0.051859 0.546316 0.000000
0.084898 0.546596 0.000000
0.118058 0.546813 0.000000
0.151330 0.546972 0.000000
0.184705 0.547078 0.000000
0.218175 0.547134 0.000000
0.251734 0.547144 0.000000
0.285376 0.547112 0.000000
0.319094 0.547040 0.000000
0.352883 0.546931 0.000000
0.386739 0.546787 0.000000
0.420658 0.546611 0.000000
0.454635 0.546405 0.000000
0.488667 0.546170 0.000000
0.522750 0.545908 0.000000
0.556882 0.545622 0.000000
0.591059 0.545312 0.000000
0.626038 0.544979 0.000000
0.661327 0.544625 0.000000
0.698833 0.545911 0.000000
0.737698 0.547977 0.000000
0.776788 0.549931 0.000000
0.816583 0.551969 0.000000
0.856595 0.553912 0.000000
0.896799 0.555759 0.000000
0.937184 0.557515 0.000000
0.977742 0.559184 0.000000
1.000000 0.560770 0.000000
1.000000 0.562277 0.000000
1.000000 0.563736 0.000000
1.000000 0.565919 0.000000
0.000000 0.580169 0.000000
0.018213 0.580521 0.000000
0.051242 0.580806 0.000000
0.084390 0.581029 0.000000
0.117648 0.581196 0.000000
0.151007 0.581309 0.000000
0.184460 0.581375 0.000000
0.218001 0.581395 0.000000
0.251623 0.581372 0.000000
0.285320 0.581311 0.000000
0.319089 0.581212 0.000000
0.352923 0.581080 0.000000
0.386820 0.580915 0.000000
0.420775 0.580720 0.000000
0.454785 0.580497 0.000000
0.488846 0.580247 0.000000
0.522955 0.579972 0.000000
0.557110 0.579673 0.000000
0.591308 0.579352 0.000000
0.628168 0.580677 0.000000
0.666653 0.582934 0.000000
0.705376 0.585072 0.000000
0.744817 0.587289 0.000000
0.784488 0.589404 0.000000
0.824362 0.591417 0.000000
0.864428 0.593333 0.000000
0.904678 0.595157 0.000000
0.945102 0.596893 0.000000
0.985692 0.598545 0.000000
1.000000 0.600118 0.000000
1.000000 0.601614 0.000000
1.000000 0.603228 0.000000
1.000000 0.605405 0.000000
0.000000 0.614794 0.000000
0.017460 0.615081 0.000000
0.050599 0.615309 0.000000
0.083847 0.615481 0.000000
0.117193 0.615601 0.000000
0.150633 0.615673 0.000000
0.184158 0.615701 0.000000
0.217764 0.615687 0.000000
0.251444 0.615635 0.000000
0.285195 0.615545 0.000000
0.319011 0.615422 0.000000
0.352889 0.615267 0.000000
0.386825 0.615082 0.000000
0.420815 0.614869 0.000000
0.454856 0.614630 0.000000
0.488946 0.614365 0.000000
0.523081 0.614077 0.000000
0.558768 0.615429 0.000000
0.595762 0.617878 0.000000
0.633990 0.620201 0.000000
0.673077 0.622596 0.000000
0.712406 0.624883 0.000000
0.751949 0.627063 0.000000
0.791696 0.629140 0.000000
0.831637 0.631119 0.000000
0.871762 0.633005 0.000000
0.912063 0.634803 0.000000
0.952531 0.636517 0.000000
0.993159 0.638150 0.000000
1.000000 0.639707 0.000000
1.000000 0.641190 0.000000
1.000000 0.642945 0.000000
1.000000 0.645114 0.000000
0.000000 0.649418 0.000000
0.016694 0.649648 0.000000
0.049934 0.649824 0.000000
0.083272 0.649949 0.000000
0.116701 0.650026 0.000000
0.150214 0.650060 0.000000
0.183806 0.650053 0.000000
0.217473 0.650008 0.000000
0.251208 0.649927 0.000000
0.285009 0.649812 0.000000
0.318870 0.649665 0.000000
0.352789 0.649489 0.000000
0.386762 0.649285 0.000000
0.420786 0.649054 0.000000
0.454858 0.648799 0.000000
0.490216 0.650166 0.000000
0.526839 0.652808 0.000000
0.563719 0.655316 0.000000
0.601362 0.657890 0.000000
0.640348 0.660350 0.000000
0.679560 0.662696 0.000000
0.718986 0.664934 0.000000
0.758617 0.667070 0.000000
0.798443 0.669107 0.000000
0.838453 0.671051 0.000000
0.878641 0.672906 0.000000
0.918997 0.674677 0.000000
0.959513 0.676366 0.000000
1.000000 0.677978 0.000000
1.000000 0.679516 0.000000
1.000000 0.680983 0.000000
1.000000 0.682869 0.000000
1.000000 0.685028 0.000000
0.000000 0.684042 0.000000
0.015918 0.684220 0.000000
0.049250 0.684348 0.000000
0.082670 0.684430 0.000000
0.116174 0.684469 0.000000
0.149756 0.684468 0.000000
0.183411 0.684428 0.000000
0.217134 0.684354 0.000000
0.250921 0.684246 0.000000
0.284768 0.684106 0.000000
0.318673 0.683938 0.000000
0.352631 0.683741 0.000000
0.386639 0.683518 0.000000
0.421692 0.684889 0.000000
0.457942 0.687724 0.000000
0.494463 0.690418 0.000000
0.531721 0.693171 0.000000
0.569237 0.695805 0.000000
0.607194 0.698318 0.000000
0.646299 0.700718 0.000000
0.685620 0.703010 0.000000
0.725145 0.705198 0.000000
0.764865 0.707289 0.000000
0.804771 0.709286 0.000000
0.844854 0.711193 0.000000
0.885106 0.713016 0.000000
0.925520 0.714757 0.000000
0.966088 0.716420 0.000000
1.000000 0.718009 0.000000
1.000000 0.719527 0.000000
1.000000 0.720976 0.000000
1.000000 0.722983 0.000000
1.000000 0.725128 0.000000
0.000000 0.718666 0.000000
0.015134 0.718797 0.000000
0.048549 0.718881 0.000000
0.082046 0.718924 0.000000
0.115619 0.718927 0.000000
0.149264 0.718892 0.000000
0.182977 0.718823 0.000000
0.216753 0.718721 0.000000
0.250588 0.718588 0.000000
0.284480 0.718426 0.000000
0.318425 0.718236 0.000000
0.353195 0.719598 0.000000
0.389072 0.722626 0.000000
0.425233 0.725507 0.000000
0.462144 0.728440 0.000000
0.499325 0.731247 0.000000
0.536749 0.733928 0.000000
0.574404 0.736490 0.000000
0.612645 0.738938 0.000000
0.651869 0.741278 0.000000
0.691298 0.743515 0.000000
0.730921 0.745654 0.000000
0.770731 0.747700 0.000000
0.810718 0.749656 0.000000
0.850875 0.751526 0.000000
0.891193 0.753315 0.000000
0.931667 0.755026 0.000000
0.972290 0.756662 0.000000
1.000000 0.758227 0.000000
1.000000 0.759723 0.000000
1.000000 0.761153 0.000000
1.000000 0.763271 0.000000
1.000000 0.765403 0.000000
0.000000 0.753291 0.000000
0.014341 0.753377 0.000000
0.047833 0.753422 0.000000
0.081400 0.753428 0.000000
0.115038 0.753398 0.000000
0.148742 0.753333 0.000000
0.182509 0.753235 0.000000
0.216334 0.753108 0.000000
0.250216 0.752951 0.000000
0.284725 0.754292 0.000000
0.320228 0.757514 0.000000
0.356029 0.760582 0.000000
0.392592 0.763696 0.000000
0.429438 0.766677 0.000000
0.466538 0.769526 0.000000
0.503879 0.772250 0.000000
0.541449 0.774855 0.000000
0.579238 0.777348 0.000000
0.617751 0.779732 0.000000
0.657092 0.782013 0.000000
0.696627 0.784197 0.000000
0.736349 0.786286 0.000000
0.776248 0.788287 0.000000
0.816317 0.790202 0.000000
0.856548 0.792035 0.000000
0.896935 0.793789 0.000000
0.937470 0.795469 0.000000
0.978149 0.797077 0.000000
1.000000 0.798616 0.000000
1.000000 0.800089 0.000000
1.000000 0.801549 0.000000
1.000000 0.803721 0.000000
1.000000 0.805836 0.000000
0.000000 0.787915 0.000000
0.013542 0.787961 0.000000
0.047104 0.787970 0.000000
0.080737 0.787942 0.000000
0.114434 0.787881 0.000000
0.148193 0.787787 0.000000
0.182011 0.787664 0.000000
0.216283 0.788973 0.000000
0.251411 0.792389 0.000000
0.286851 0.795644 0.000000
0.323065 0.798938 0.000000
0.359574 0.802094 0.000000
0.396349 0.805112 0.000000
0.433376 0.807999 0.000000
0.470643 0.810762 0.000000
0.508138 0.813406 0.000000
0.545850 0.815938 0.000000
0.583770 0.818362 0.000000
0.622543 0.820684 0.000000
0.661998 0.822907 0.000000
0.701639 0.825038 0.000000
0.741457 0.827079 0.000000
0.781445 0.829034 0.000000
0.821596 0.830908 0.000000
0.861902 0.832703 0.000000
0.902358 0.834424 0.000000
0.942956 0.836072 0.000000
0.983692 0.837651 0.000000
1.000000 0.839164 0.000000
1.000000 0.840613 0.000000
1.000000 0.842167 0.000000
1.000000 0.844320 0.000000
1.000000 0.846418 0.000000
0.000000 0.822539 0.000000
0.012736 0.822549 0.000000
0.046364 0.822523 0.000000
0.080057 0.822464 0.000000
0.113810 0.822374 0.000000
0.147869 0.823638 0.000000
0.182621 0.827250 0.000000
0.217698 0.830693 0.000000
0.253562 0.834168 0.000000
0.289734 0.837499 0.000000
0.326183 0.840686 0.000000
0.362896 0.843736 0.000000
0.399858 0.846656 0.000000
0.437059 0.849453 0.000000
0.474486 0.852133 0.000000
0.512130 0.854700 0.000000
0.549980 0.857161 0.000000
0.588027 0.859519 0.000000
0.627049 0.861779 0.000000
0.666616 0.863947 0.000000
0.706361 0.866025 0.000000
0.746274 0.868018 0.000000
0.786351 0.869929 0.000000
0.826582 0.871762 0.000000
0.866964 0.873520 0.000000
0.907488 0.875205 0.000000
0.948150 0.876821 0.000000
0.988943 0.878371 0.000000
1.000000 0.879857 0.000000
1.000000 0.881282 0.000000
1.000000 0.882923 0.000000
1.000000 0.885056 0.000000
1.000000 0.884105 0.000000
0.000000 0.857163 0.000000
0.011925 0.857139 0.000000
0.045614 0.857082 0.000000
0.079483 0.858290 0.000000
0.113858 0.862097 0.000000
0.148571 0.865728 0.000000
0.184085 0.869385 0.000000
0.219919 0.872891 0.000000
0.256041 0.876247 0.000000
0.292438 0.879461 0.000000
0.329095 0.882540 0.000000
0.366001 0.885490 0.000000
0.403143 0.888318 0.000000
0.440510 0.891028 0.000000
0.478092 0.893628 0.000000
0.515879 0.896120 0.000000
0.553862 0.898512 0.000000
0.592032 0.900806 0.000000
0.631293 0.903007 0.000000
0.670970 0.905120 0.000000
0.710815 0.907147 0.000000
0.750823 0.909092 0.000000
0.790987 0.910960 0.000000
0.831299 0.912752 0.000000
0.871755 0.914472 0.000000
0.912348 0.916123 0.000000
0.953073 0.917707 0.000000
