flutter_app/assets/lut/cameras/cpm35_kodak_gold_warm.cube
TITLE "CPM35 Kodak Gold 200 Warm"
LUT_3D_SIZE 5
DOMAIN_MIN 0.0 0.0 0.0
DOMAIN_MAX 1.0 1.0 1.0
0.017994 0.000000 0.000000
0.266951 0.000000 0.000000
0.564456 0.000000 0.000000
0.854567 0.000000 0.000000
1.000000 0.000000 0.000000
0.000000 0.238765 0.000000
0.245866 0.235785 0.000000
0.546800 0.232196 0.000000
0.840203 0.228667 0.000000
1.000000 0.226345 0.000000
0.000000 0.523221 0.000000
0.231221 0.520275 0.000000
0.533970 0.516727 0.000000
0.828022 0.513239 0.000000
1.000000 0.510943 0.000000
0.000000 0.799707 0.000000
0.218948 0.796793 0.000000
0.521903 0.793285 0.000000
0.816619 0.789835 0.000000
1.000000 0.787565 0.000000
0.000000 0.980002 0.000000
0.211629 0.977110 0.000000
0.515833 0.973627 0.000000
0.811834 0.970203 0.000000
1.000000 0.967949 0.000000
0.015161 0.000000 0.215897
0.264416 0.000000 0.218756
0.562272 0.000000 0.220909
0.852719 0.000000 0.221654
1.000000 0.000000 0.221401
0.000000 0.237753 0.221652
0.244236 0.234772 0.221243
0.545510 0.231184 0.219461
0.839182 0.227655 0.216411
1.000000 0.225332 0.214203
0.000000 0.522221 0.214533
0.230174 0.519274 0.211697
0.532936 0.515726 0.208283
0.827001 0.512238 0.204927
1.000000 0.509942 0.202717
0.000000 0.798717 0.203242
0.217901 0.795803 0.200405
0.520963 0.792295 0.196867
0.815847 0.788845 0.192952
1.000000 0.786575 0.190130
0.000000 0.979020 0.195540
0.210870 0.976127 0.192128
0.515246 0.972645 0.187594
0.811411 0.969220 0.182683
1.000000 0.966966 0.179204
0.011872 0.000000 0.499195
0.261485 0.000000 0.501629
0.559762 0.000000 0.503285
0.850614 0.000000 0.503556
1.000000 0.000000 0.503000
0.000000 0.236534 0.503564
0.242394 0.233554 0.502767
0.544077 0.229965 0.500532
0.837952 0.226436 0.497286
1.000000 0.224113 0.495102
0.000000 0.521016 0.495428
0.228914 0.518069 0.492625
0.531692 0.514521 0.489249
0.825770 0.511033 0.485930
1.000000 0.508736 0.483746
0.000000 0.797526 0.484264
0.216641 0.794612 0.481459
0.519892 0.791103 0.477821
0.814978 0.787654 0.473797
1.000000 0.785383 0.470906
0.000000 0.977837 0.476456
0.210018 0.974945 0.472952
0.514599 0.971462 0.468313
0.810961 0.968037 0.463303
1.000000 0.965783 0.459763
0.008770 0.000000 0.774414
0.258732 0.000000 0.776439
0.557421 0.000000 0.777617
0.848669 0.000000 0.777433
1.000000 0.000000 0.776586
0.000000 0.235336 0.777450
0.240714 0.232356 0.776280
0.542797 0.228766 0.773610
0.836744 0.225237 0.770330
1.000000 0.222914 0.768170
0.000000 0.519832 0.768492
0.227675 0.516885 0.765720
0.530468 0.513337 0.762381
0.824561 0.509848 0.759099
1.000000 0.507551 0.756938
0.000000 0.796355 0.757451
0.215447 0.793441 0.754641
0.518904 0.789932 0.750892
0.814188 0.786482 0.746763
1.000000 0.784211 0.743805
0.000000 0.976675 0.749489
0.209246 0.973782 0.745898
0.514027 0.970299 0.741158
0.810582 0.966874 0.736054
1.000000 0.964620 0.732454
0.006798 0.000000 0.953809
0.256990 0.000000 0.955570
0.555950 0.000000 0.956439
0.847458 0.000000 0.955961
1.000000 0.000000 0.954926
0.000000 0.234548 0.955984
0.239677 0.231567 0.954572
0.541991 0.227978 0.951660
0.835948 0.224448 0.948402
1.000000 0.222125 0.946258
0.000000 0.519052 0.946579
0.226860 0.516105 0.943826
0.529662 0.512557 0.940512
0.823765 0.509068 0.937253
1.000000 0.506772 0.935108
0.000000 0.795584 0.935617
0.214696 0.792670 0.932777
0.518288 0.789161 0.928956
0.813702 0.785711 0.924759
1.000000 0.783440 0.921758
0.000000 0.975909 0.927528
0.208773 0.973017 0.923881
0.513686 0.969533 0.919076
0.810367 0.966109 0.913911
1.000000 0.963854 0.910273
