flutter_app/assets/lut/cameras/cpm35_kodak_warm_clean.cube
TITLE "CPM35 Kodak Warm Clean"
LUT_3D_SIZE 5
DOMAIN_MIN 0.0 0.0 0.0
DOMAIN_MAX 1.0 1.0 1.0
0.000000 0.000000 0.000000
0.222517 0.000000 0.000000
0.467025 0.000000 0.000000
0.762749 0.000000 0.000000
1.000000 0.000000 0.000000
0.000000 0.227966 0.000000
0.245932 0.240959 0.000000
0.514874 0.242462 0.000000
0.794244 0.239828 0.000000
1.000000 0.235679 0.000000
0.000000 0.510921 0.000000
0.251770 0.512956 0.000000
0.522455 0.511891 0.000000
0.808771 0.513006 0.000000
1.000000 0.526676 0.000000
0.000000 0.787915 0.000000
0.251411 0.792389 0.000000
0.545850 0.815938 0.000000
0.861902 0.832703 0.000000
1.000000 0.846418 0.000000
0.000000 1.000000 0.000000
0.268051 1.000000 0.000000
0.573184 1.000000 0.000000
0.860251 1.000000 0.000000
1.000000 1.000000 0.000000
0.000000 0.000000 0.205400
0.217317 0.000000 0.199767
0.479757 0.000000 0.211755
0.769729 0.000000 0.217652
1.000000 0.000000 0.215930
0.000000 0.231650 0.217337
0.244247 0.239187 0.224008
0.512508 0.238101 0.222569
0.791632 0.234726 0.218974
1.000000 0.230161 0.214258
0.000000 0.508601 0.229196
0.246744 0.509169 0.225750
0.517889 0.507291 0.221130
0.815392 0.514606 0.219870
1.000000 0.526655 0.219247
0.000000 0.784255 0.227997
0.249562 0.798365 0.226685
0.546586 0.819005 0.224970
0.863766 0.833617 0.221283
1.000000 0.836874 0.216651
0.000000 1.000000 0.233624
0.264794 1.000000 0.231213
0.566373 1.000000 0.224988
0.843992 1.000000 0.208207
1.000000 1.000000 0.193722
0.000000 0.000000 0.410530
0.215218 0.000000 0.410813
0.487097 0.000000 0.446566
0.771403 0.000000 0.457907
1.000000 0.000000 0.459686
0.000000 0.232401 0.451843
0.240730 0.235618 0.464040
0.509459 0.233379 0.466092
0.788462 0.229425 0.464993
1.000000 0.224609 0.462328
0.000000 0.505584 0.472488
0.241507 0.505006 0.471551
0.513092 0.502462 0.468810
0.821113 0.515465 0.478540
1.000000 0.525958 0.484929
0.000000 0.780257 0.475468
0.247658 0.803160 0.484998
0.546640 0.821122 0.490012
0.864912 0.833848 0.491793
1.000000 0.819561 0.479681
0.000000 1.000000 0.498714
0.261239 1.000000 0.501682
0.553088 1.000000 0.487931
0.828541 1.000000 0.464450
1.000000 1.000000 0.443966
0.000000 0.000000 0.610795
0.220727 0.000000 0.645034
0.491007 0.000000 0.684380
0.771518 0.000000 0.697004
1.000000 0.000000 0.701067
0.000000 0.231298 0.689622
0.236615 0.231460 0.703092
0.505880 0.228376 0.707434
0.784838 0.223961 0.708071
1.000000 0.221852 0.716314
0.000000 0.502029 0.713790
0.236099 0.500536 0.714596
0.514564 0.503772 0.722149
0.825611 0.515513 0.738475
1.000000 0.524671 0.750638
0.000000 0.784876 0.727973
0.245270 0.806767 0.744792
0.546097 0.822408 0.755283
0.865421 0.833475 0.761574
1.000000 0.803154 0.732142
0.000000 1.000000 0.764246
0.257421 1.000000 0.771668
0.540459 1.000000 0.740484
0.813822 1.000000 0.710836
1.000000 1.000000 0.684989
0.000000 0.000000 0.811060
0.222518 0.000000 0.887609
0.491826 0.000000 0.925956
0.770469 0.000000 0.938644
1.000000 0.000000 0.944216
0.000000 0.228666 0.931524
0.232078 0.226888 0.944716
0.501881 0.223152 0.950560
0.780842 0.218364 0.952453
1.000000 0.219428 0.961997
0.000000 0.498047 0.956893
0.230550 0.495814 0.958957
0.516365 0.505112 0.968525
0.830074 0.515954 0.958754
1.000000 0.524560 0.951135
0.000000 0.790385 0.975532
0.243433 0.810416 0.965978
0.546551 0.824640 0.956206
0.851051 0.819495 0.947305
1.000000 0.788480 0.941740
0.000000 1.000000 0.966240
0.250574 1.000000 0.957383
0.529278 1.000000 0.949069
0.800030 1.000000 0.941166
1.000000 1.000000 0.922457
