flutter_app/assets/lut/cameras/cpm35_kodak_portrait.cube
TITLE "CPM35 Kodak Gold Portrait"
LUT_3D_SIZE 33
DOMAIN_MIN 0.0 0.0 0.0
DOMAIN_MAX 1.0 1.0 1.0
0.021990 0.000000 0.000000
0.047451 0.000000 0.000000
0.072895 0.000000 0.000000
0.107377 0.000000 0.000000
0.141977 0.000000 0.000000
0.175729 0.000000 0.000000
0.209452 0.000000 0.000000
0.243146 0.000000 0.000000
0.276812 0.000000 0.000000
0.314892 0.000000 0.000000
0.353082 0.000000 0.000000
0.391235 0.000000 0.000000
0.429352 0.000000 0.000000
0.467432 0.000000 0.000000
0.505475 0.000000 0.000000
0.543481 0.000000 0.000000
0.581451 0.000000 0.000000
0.624688 0.000000 0.000000
0.668240 0.000000 0.000000
0.711743 0.000000 0.000000
0.755199 0.000000 0.000000
0.786708 0.000000 0.000000
0.817379 0.000000 0.000000
0.848027 0.000000 0.000000
0.878650 0.000000 0.000000
0.909249 0.000000 0.000000
0.939824 0.000000 0.000000
0.970376 0.000000 0.000000
1.000000 0.000000 0.000000
1.000000 0.000000 0.000000
1.000000 0.000000 0.000000
1.000000 0.000000 0.000000
1.000000 0.000000 0.000000
0.018440 0.024072 0.000000
0.043937 0.023671 0.000000
0.069417 0.023271 0.000000
0.103949 0.022729 0.000000
0.138598 0.022184 0.000000
0.172397 0.021652 0.000000
0.206167 0.021119 0.000000
0.239909 0.020587 0.000000
0.273622 0.020055 0.000000
0.311756 0.019453 0.000000
0.350000 0.018848 0.000000
0.388207 0.018243 0.000000
0.426376 0.017638 0.000000
0.464509 0.017034 0.000000
0.502606 0.016429 0.000000
0.540665 0.015824 0.000000
0.578687 0.015219 0.000000
0.621984 0.014529 0.000000
0.665596 0.013834 0.000000
0.709159 0.013139 0.000000
0.752674 0.012443 0.000000
0.784227 0.011939 0.000000
0.814940 0.011447 0.000000
0.845629 0.010955 0.000000
0.876294 0.010464 0.000000
0.906935 0.009972 0.000000
0.937552 0.009480 0.000000
0.968145 0.008989 0.000000
0.998714 0.008497 0.000000
1.000000 0.008191 0.000000
1.000000 0.007905 0.000000
1.000000 0.007619 0.000000
1.000000 0.007333 0.000000
0.014999 0.048120 0.000000
0.040532 0.047720 0.000000
0.066048 0.047320 0.000000
0.100629 0.046778 0.000000
0.135327 0.046234 0.000000
0.169174 0.045702 0.000000
0.202992 0.045171 0.000000
0.236781 0.044639 0.000000
0.270542 0.044107 0.000000
0.308729 0.043506 0.000000
0.347026 0.042901 0.000000
0.385286 0.042297 0.000000
0.423509 0.041693 0.000000
0.461695 0.041089 0.000000
0.499844 0.040484 0.000000
0.537956 0.039880 0.000000
0.576031 0.039276 0.000000
0.619387 0.038587 0.000000
0.663059 0.037892 0.000000
0.706682 0.037198 0.000000
0.750257 0.036503 0.000000
0.781852 0.035999 0.000000
0.812607 0.035508 0.000000
0.843338 0.035016 0.000000
0.874045 0.034525 0.000000
0.904727 0.034034 0.000000
0.935386 0.033543 0.000000
0.966020 0.033051 0.000000
0.996630 0.032560 0.000000
1.000000 0.032255 0.000000
1.000000 0.031969 0.000000
1.000000 0.031684 0.000000
1.000000 0.031398 0.000000
0.010508 0.080699 0.000000
0.036089 0.080299 0.000000
0.061655 0.079900 0.000000
0.096301 0.079359 0.000000
0.131065 0.078815 0.000000
0.164977 0.078284 0.000000
0.198859 0.077753 0.000000
0.232712 0.077222 0.000000
0.266537 0.076691 0.000000
0.304796 0.076090 0.000000
0.343165 0.075487 0.000000
0.381497 0.074883 0.000000
0.419792 0.074280 0.000000
0.458050 0.073677 0.000000
0.496270 0.073073 0.000000
0.534453 0.072470 0.000000
0.572599 0.071866 0.000000
0.616036 0.071178 0.000000
0.659789 0.070484 0.000000
0.703493 0.069791 0.000000
0.747148 0.069097 0.000000
0.778802 0.068593 0.000000
0.809613 0.068103 0.000000
0.840401 0.067612 0.000000
0.871164 0.067122 0.000000
0.901902 0.066631 0.000000
0.932617 0.066140 0.000000
0.963307 0.065650 0.000000
0.993972 0.065159 0.000000
1.000000 0.064854 0.000000
1.000000 0.064569 0.000000
1.000000 0.064284 0.000000
1.000000 0.063998 0.000000
0.006200 0.113374 0.000000
0.031831 0.112975 0.000000
0.057445 0.112576 0.000000
0.092157 0.112036 0.000000
0.126988 0.111493 0.000000
0.160963 0.110962 0.000000
0.194910 0.110432 0.000000
0.228828 0.109902 0.000000
0.262716 0.109372 0.000000
0.301047 0.108771 0.000000
0.339489 0.108169 0.000000
0.377893 0.107566 0.000000
0.416259 0.106963 0.000000
0.454589 0.106361 0.000000
0.492880 0.105758 0.000000
0.531135 0.105155 0.000000
0.569352 0.104553 0.000000
0.612869 0.103866 0.000000
0.656703 0.103173 0.000000
0.700488 0.102480 0.000000
0.744223 0.101787 0.000000
0.775935 0.101284 0.000000
0.806804 0.100794 0.000000
0.837647 0.100304 0.000000
0.868467 0.099814 0.000000
0.899261 0.099324 0.000000
0.930032 0.098835 0.000000
0.960778 0.098345 0.000000
0.991499 0.097855 0.000000
1.000000 0.097550 0.000000
1.000000 0.097265 0.000000
1.000000 0.096980 0.000000
1.000000 0.096695 0.000000
0.002191 0.145234 0.000000
0.027869 0.144835 0.000000
0.053530 0.144437 0.000000
0.088307 0.143897 0.000000
0.123202 0.143355 0.000000
0.157240 0.142825 0.000000
0.191250 0.142296 0.000000
0.225229 0.141766 0.000000
0.259180 0.141237 0.000000
0.297581 0.140637 0.000000
0.336093 0.140035 0.000000
0.374567 0.139434 0.000000
0.413004 0.138832 0.000000
0.451402 0.138230 0.000000
0.489764 0.137628 0.000000
0.528087 0.137026 0.000000
0.566373 0.136424 0.000000
0.609969 0.135738 0.000000
0.653882 0.135046 0.000000
0.697745 0.134354 0.000000
0.741558 0.133662 0.000000
0.773327 0.133160 0.000000
0.804251 0.132670 0.000000
0.835149 0.132181 0.000000
0.866023 0.131692 0.000000
0.896873 0.131202 0.000000
0.927698 0.130713 0.000000
0.958498 0.130224 0.000000
0.989274 0.129734 0.000000
1.000000 0.129430 0.000000
1.000000 0.129146 0.000000
1.000000 0.128861 0.000000
1.000000 0.128577 0.000000
0.000000 0.177053 0.000000
0.024101 0.176655 0.000000
0.049810 0.176258 0.000000
0.084651 0.175718 0.000000
0.119609 0.175177 0.000000
0.153710 0.174648 0.000000
0.187782 0.174119 0.000000
0.221824 0.173590 0.000000
0.255836 0.173061 0.000000
0.294307 0.172462 0.000000
0.332889 0.171861 0.000000
0.371433 0.171260 0.000000
0.409939 0.170659 0.000000
0.448407 0.170058 0.000000
0.486837 0.169457 0.000000
0.525230 0.168856 0.000000
0.563585 0.168255 0.000000
0.607259 0.167569 0.000000
0.651250 0.166878 0.000000
0.695191 0.166187 0.000000
0.739083 0.165496 0.000000
0.770908 0.164994 0.000000
0.801886 0.164506 0.000000
0.832839 0.164017 0.000000
0.863768 0.163528 0.000000
0.894672 0.163040 0.000000
0.925551 0.162551 0.000000
0.956405 0.162062 0.000000
0.987235 0.161573 0.000000
1.000000 0.161270 0.000000
1.000000 0.160986 0.000000
1.000000 0.160701 0.000000
1.000000 0.160417 0.000000
0.000000 0.208832 0.000000
0.020527 0.208435 0.000000
0.046283 0.208037 0.000000
0.081188 0.207499 0.000000
0.116210 0.206958 0.000000
0.150373 0.206430 0.000000
0.184507 0.205901 0.000000
0.218610 0.205373 0.000000
0.252684 0.204845 0.000000
0.291225 0.204247 0.000000
0.329877 0.203647 0.000000
0.368490 0.203046 0.000000
0.407066 0.202446 0.000000
0.445603 0.201846 0.000000
0.484102 0.201245 0.000000
0.522563 0.200645 0.000000
0.560986 0.200044 0.000000
0.604738 0.199360 0.000000
0.648807 0.198670 0.000000
0.692826 0.197980 0.000000
0.736795 0.197289 0.000000
0.768677 0.196788 0.000000
0.799710 0.196300 0.000000
0.830717 0.195812 0.000000
0.861700 0.195324 0.000000
0.892658 0.194836 0.000000
0.923591 0.194348 0.000000
0.954499 0.193860 0.000000
0.985379 0.193372 0.000000
1.000000 0.193069 0.000000
1.000000 0.192785 0.000000
1.000000 0.192501 0.000000
1.000000 0.192217 0.000000
0.000000 0.240570 0.000000
0.017147 0.240173 0.000000
0.042950 0.239777 0.000000
0.077918 0.239239 0.000000
0.113004 0.238698 0.000000
0.147229 0.238171 0.000000
0.181424 0.237643 0.000000
0.215590 0.237116 0.000000
0.249725 0.236588 0.000000
0.288336 0.235991 0.000000
0.327057 0.235392 0.000000
0.365739 0.234792 0.000000
0.404383 0.234192 0.000000
0.442989 0.233593 0.000000
0.481557 0.232993 0.000000
0.520086 0.232394 0.000000
0.558578 0.231794 0.000000
0.602407 0.231110 0.000000
0.646554 0.230421 0.000000
0.690651 0.229732 0.000000
0.734697 0.229042 0.000000
0.766634 0.228542 0.000000
0.797721 0.228055 0.000000
0.828783 0.227567 0.000000
0.859819 0.227080 0.000000
0.890818 0.226592 0.000000
0.921778 0.226105 0.000000
0.952698 0.225617 0.000000
0.983580 0.225130 0.000000
1.000000 0.224827 0.000000
1.000000 0.224543 0.000000
1.000000 0.224260 0.000000
1.000000 0.223977 0.000000
0.000000 0.276453 0.000000
0.013555 0.276057 0.000000
0.039411 0.275661 0.000000
0.074450 0.275124 0.000000
0.109608 0.274584 0.000000
0.143903 0.274058 0.000000
0.178168 0.273531 0.000000
0.212402 0.273004 0.000000
0.246607 0.272477 0.000000
0.285296 0.271881 0.000000
0.324095 0.271282 0.000000
0.362856 0.270684 0.000000
0.401578 0.270085 0.000000
0.440261 0.269486 0.000000
0.478906 0.268887 0.000000
0.517512 0.268289 0.000000
0.556081 0.267690 0.000000
0.599997 0.267007 0.000000
0.644232 0.266319 0.000000
0.688416 0.265631 0.000000
0.732548 0.264942 0.000000
0.764533 0.264443 0.000000
0.795652 0.263956 0.000000
0.826732 0.263469 0.000000
0.857773 0.262983 0.000000
0.888774 0.262496 0.000000
0.919736 0.262009 0.000000
0.950660 0.261522 0.000000
0.981544 0.261036 0.000000
1.000000 0.260733 0.000000
1.000000 0.260450 0.000000
1.000000 0.260167 0.000000
1.000000 0.259884 0.000000
0.000000 0.312423 0.000000
0.010199 0.312028 0.000000
0.036108 0.311632 0.000000
0.071219 0.311096 0.000000
0.106448 0.310557 0.000000
0.140813 0.310031 0.000000
0.175147 0.309505 0.000000
0.209451 0.308979 0.000000
0.243725 0.308453 0.000000
0.282492 0.307857 0.000000
0.321369 0.307260 0.000000
0.360208 0.306662 0.000000
0.399008 0.306064 0.000000
0.437768 0.305466 0.000000
0.476491 0.304868 0.000000
0.515174 0.304270 0.000000
0.553819 0.303672 0.000000
0.597821 0.302991 0.000000
0.642121 0.302303 0.000000
0.686341 0.301616 0.000000
0.730482 0.300929 0.000000
0.762470 0.300430 0.000000
0.793592 0.299944 0.000000
0.824675 0.299458 0.000000
0.855718 0.298972 0.000000
0.886722 0.298486 0.000000
0.917687 0.298000 0.000000
0.948613 0.297514 0.000000
0.979500 0.297028 0.000000
0.998680 0.296725 0.000000
1.000000 0.296443 0.000000
1.000000 0.296160 0.000000
1.000000 0.295878 0.000000
0.000000 0.348341 0.000000
0.007094 0.347946 0.000000
0.033055 0.347551 0.000000
0.068238 0.347015 0.000000
0.103539 0.346477 0.000000
0.137973 0.345952 0.000000
0.172376 0.345427 0.000000
0.206749 0.344902 0.000000
0.241092 0.344377 0.000000
0.279937 0.343782 0.000000
0.318892 0.343185 0.000000
0.357808 0.342588 0.000000
0.396685 0.341991 0.000000
0.435523 0.341394 0.000000
0.474318 0.340797 0.000000
0.513055 0.340200 0.000000
0.551732 0.339603 0.000000
0.595745 0.338922 0.000000
0.640048 0.338236 0.000000
0.684272 0.337550 0.000000
0.728417 0.336863 0.000000
0.760408 0.336365 0.000000
0.791532 0.335880 0.000000
0.822617 0.335394 0.000000
0.853663 0.334909 0.000000
0.884670 0.334424 0.000000
0.915637 0.333938 0.000000
0.946566 0.333453 0.000000
0.977455 0.332968 0.000000
0.996637 0.332666 0.000000
1.000000 0.332384 0.000000
1.000000 0.332101 0.000000
1.000000 0.331819 0.000000
0.000000 0.384207 0.000000
0.004240 0.383812 0.000000
0.030254 0.383418 0.000000
0.065507 0.382883 0.000000
0.100879 0.382346 0.000000
0.135382 0.381822 0.000000
0.169855 0.381297 0.000000
0.204296 0.380773 0.000000
0.238708 0.380248 0.000000
0.277629 0.379654 0.000000
0.316662 0.379058 0.000000
0.355646 0.378462 0.000000
0.394569 0.377866 0.000000
0.433431 0.377270 0.000000
0.472232 0.376674 0.000000
0.510972 0.376078 0.000000
0.549652 0.375481 0.000000
0.593669 0.374802 0.000000
0.637976 0.374116 0.000000
0.682203 0.373431 0.000000
0.726352 0.372746 0.000000
0.758345 0.372248 0.000000
0.789472 0.371764 0.000000
0.820560 0.371279 0.000000
0.851608 0.370794 0.000000
0.882618 0.370310 0.000000
0.913588 0.369825 0.000000
0.944519 0.369340 0.000000
0.975411 0.368856 0.000000
0.994594 0.368554 0.000000
1.000000 0.368273 0.000000
1.000000 0.367991 0.000000
1.000000 0.367709 0.000000
0.000000 0.420021 0.000000
0.001638 0.419627 0.000000
0.027703 0.419233 0.000000
0.063027 0.418699 0.000000
0.098470 0.418163 0.000000
0.133041 0.417639 0.000000
0.167582 0.417115 0.000000
0.202091 0.416592 0.000000
0.236554 0.416068 0.000000
0.275513 0.415475 0.000000
0.314562 0.414880 0.000000
0.353549 0.414285 0.000000
0.392475 0.413689 0.000000
0.431340 0.413094 0.000000
0.470145 0.412499 0.000000
0.508888 0.411903 0.000000
0.547571 0.411308 0.000000
0.591592 0.410629 0.000000
0.635903 0.409945 0.000000
0.680134 0.409261 0.000000
0.724286 0.408576 0.000000
0.756282 0.408080 0.000000
0.787412 0.407596 0.000000
0.818502 0.407112 0.000000
0.849553 0.406628 0.000000
0.880565 0.406144 0.000000
0.911538 0.405660 0.000000
0.942471 0.405176 0.000000
0.973366 0.404692 0.000000
0.992551 0.404391 0.000000
1.000000 0.404110 0.000000
1.000000 0.403828 0.000000
1.000000 0.403547 0.000000
0.000000 0.455783 0.000000
0.000000 0.455390 0.000000
0.025404 0.454997 0.000000
0.060797 0.454464 0.000000
0.096296 0.453928 0.000000
0.130906 0.453405 0.000000
0.165467 0.452882 0.000000
0.199981 0.452359 0.000000
0.234447 0.451836 0.000000
0.273410 0.451244 0.000000
0.312462 0.450650 0.000000
0.351452 0.450055 0.000000
0.390382 0.449461 0.000000
0.429250 0.448866 0.000000
0.468058 0.448272 0.000000
0.506804 0.447678 0.000000
0.545491 0.447083 0.000000
0.589515 0.446405 0.000000
0.633830 0.445722 0.000000
0.678065 0.445039 0.000000
0.722221 0.444355 0.000000
0.754219 0.443859 0.000000
0.785351 0.443376 0.000000
0.816444 0.442893 0.000000
0.847498 0.442410 0.000000
0.878512 0.441926 0.000000
0.909488 0.441443 0.000000
0.940424 0.440960 0.000000
0.971321 0.440477 0.000000
0.990508 0.440176 0.000000
1.000000 0.439895 0.000000
1.000000 0.439614 0.000000
1.000000 0.439333 0.000000
0.000000 0.491494 0.000000
0.000000 0.491102 0.000000
0.023274 0.490709 0.000000
0.058675 0.490176 0.000000
0.094177 0.489642 0.000000
0.128790 0.489119 0.000000
0.163355 0.488597 0.000000
0.197871 0.488075 0.000000
0.232340 0.487553 0.000000
0.271306 0.486961 0.000000
0.310361 0.486368 0.000000
0.349355 0.485774 0.000000
0.388288 0.485181 0.000000
0.427159 0.484587 0.000000
0.465970 0.483994 0.000000
0.504720 0.483400 0.000000
0.543410 0.482806 0.000000
0.587438 0.482130 0.000000
0.631756 0.481447 0.000000
0.675995 0.480765 0.000000
0.720155 0.480083 0.000000
0.752156 0.479587 0.000000
0.783291 0.479105 0.000000
0.814386 0.478622 0.000000
0.845443 0.478140 0.000000
0.876460 0.477657 0.000000
0.907437 0.477175 0.000000
0.938376 0.476692 0.000000
0.969276 0.476210 0.000000
0.988464 0.475910 0.000000
1.000000 0.475629 0.000000
1.000000 0.475348 0.000000
1.000000 0.475068 0.000000
0.000000 0.527154 0.000000
0.000000 0.526762 0.000000
0.021149 0.526369 0.000000
0.056554 0.525838 0.000000
0.092059 0.525304 0.000000
0.126674 0.524782 0.000000
0.161241 0.524261 0.000000
0.195761 0.523739 0.000000
0.230233 0.523218 0.000000
0.269202 0.522627 0.000000
0.308261 0.522035 0.000000
0.347258 0.521442 0.000000
0.386194 0.520849 0.000000
0.425069 0.520257 0.000000
0.463883 0.519664 0.000000
0.502636 0.519071 0.000000
0.541329 0.518478 0.000000
0.585361 0.517803 0.000000
0.629683 0.517121 0.000000
0.673925 0.516440 0.000000
0.718088 0.515759 0.000000
0.750093 0.515264 0.000000
0.781230 0.514782 0.000000
0.812328 0.514300 0.000000
0.843387 0.513818 0.000000
0.874407 0.513337 0.000000
0.905387 0.512855 0.000000
0.936328 0.512373 0.000000
0.967231 0.511891 0.000000
0.986421 0.511591 0.000000
1.000000 0.511311 0.000000
1.000000 0.511031 0.000000
1.000000 0.510751 0.000000
0.000000 0.567739 0.000000
0.000000 0.567348 0.000000
0.018727 0.566956 0.000000
0.054135 0.566425 0.000000
0.089643 0.565892 0.000000
0.124262 0.565371 0.000000
0.158833 0.564851 0.000000
0.193356 0.564330 0.000000
0.227831 0.563810 0.000000
0.266804 0.563220 0.000000
0.305866 0.562628 0.000000
0.344867 0.562037 0.000000
0.383807 0.561445 0.000000
0.422685 0.560853 0.000000
0.461503 0.560262 0.000000
0.500260 0.559670 0.000000
0.538957 0.559078 0.000000
0.582993 0.558403 0.000000
0.627319 0.557723 0.000000
0.671566 0.557043 0.000000
0.715733 0.556363 0.000000
0.747740 0.555869 0.000000
0.778881 0.555388 0.000000
0.809982 0.554907 0.000000
0.841044 0.554426 0.000000
0.872066 0.553945 0.000000
0.903050 0.553464 0.000000
0.933994 0.552982 0.000000
0.964899 0.552501 0.000000
0.984091 0.552202 0.000000
1.000000 0.551923 0.000000
1.000000 0.551643 0.000000
1.000000 0.551363 0.000000
0.000000 0.608597 0.000000
0.000000 0.608207 0.000000
0.016284 0.607816 0.000000
0.051695 0.607286 0.000000
0.087207 0.606753 0.000000
0.121829 0.606234 0.000000
0.156403 0.605714 0.000000
0.190930 0.605194 0.000000
0.225408 0.604675 0.000000
0.264385 0.604086 0.000000
0.303451 0.603495 0.000000
0.342456 0.602905 0.000000
0.381399 0.602314 0.000000
0.420282 0.601723 0.000000
0.459103 0.601132 0.000000
0.497864 0.600542 0.000000
0.536564 0.599951 0.000000
0.580605 0.599277 0.000000
0.624935 0.598598 0.000000
0.669186 0.597919 0.000000
0.713358 0.597240 0.000000
0.745368 0.596747 0.000000
0.776512 0.596267 0.000000
0.807616 0.595786 0.000000
0.838680 0.595306 0.000000
0.869706 0.594826 0.000000
0.900692 0.594346 0.000000
0.931640 0.593865 0.000000
0.962548 0.593385 0.000000
0.981741 0.593086 0.000000
0.999681 0.592807 0.000000
1.000000 0.592528 0.000000
1.000000 0.592249 0.000000
0.000000 0.649388 0.000000
0.000000 0.648998 0.000000
0.013841 0.648608 0.000000
0.049255 0.648079 0.000000
0.084771 0.647548 0.000000
0.119396 0.647029 0.000000
0.153974 0.646510 0.000000
0.188503 0.645991 0.000000
0.222985 0.645472 0.000000
0.261966 0.644885 0.000000
0.301036 0.644295 0.000000
0.340044 0.643705 0.000000
0.378992 0.643115 0.000000
0.417878 0.642525 0.000000
0.456703 0.641936 0.000000
0.495468 0.641346 0.000000
0.534172 0.640756 0.000000
0.578216 0.640084 0.000000
0.622551 0.639406 0.000000
0.666806 0.638728 0.000000
0.710982 0.638050 0.000000
0.742996 0.637557 0.000000
0.774142 0.637078 0.000000
0.805249 0.636599 0.000000
0.836317 0.636119 0.000000
0.867345 0.635640 0.000000
0.898335 0.635160 0.000000
0.929285 0.634681 0.000000
0.960196 0.634201 0.000000
0.979392 0.633903 0.000000
0.997336 0.633624 0.000000
1.000000 0.633345 0.000000
1.000000 0.633067 0.000000
0.000000 0.690112 0.000000
0.000000 0.689723 0.000000
0.011397 0.689333 0.000000
0.046815 0.688805 0.000000
0.082334 0.688274 0.000000
0.116963 0.687756 0.000000
0.151544 0.687238 0.000000
0.186077 0.686720 0.000000
0.220562 0.686202 0.000000
0.259547 0.685616 0.000000
0.298620 0.685027 0.000000
0.337633 0.684438 0.000000
0.376584 0.683849 0.000000
0.415474 0.683260 0.000000
0.454303 0.682672 0.000000
0.493071 0.682083 0.000000
0.531779 0.681494 0.000000
0.575828 0.680823 0.000000
0.620167 0.680146 0.000000
0.664426 0.679469 0.000000
0.708607 0.678792 0.000000
0.740623 0.678301 0.000000
0.771772 0.677822 0.000000
0.802882 0.677343 0.000000
0.833954 0.676865 0.000000
0.864994 0.676386 0.000000
0.896002 0.675907 0.000000
0.926980 0.675429 0.000000
0.957927 0.674950 0.000000
0.977148 0.674652 0.000000
0.995116 0.674374 0.000000
1.000000 0.674096 0.000000
1.000000 0.673817 0.000000
0.000000 0.719627 0.000000
0.000000 0.719238 0.000000
0.009624 0.718849 0.000000
0.045044 0.718321 0.000000
0.080566 0.717791 0.000000
0.115197 0.717274 0.000000
0.149780 0.716757 0.000000
0.184316 0.716239 0.000000
0.218803 0.715722 0.000000
0.257791 0.715136 0.000000
0.296867 0.714548 0.000000
0.335882 0.713960 0.000000
0.374836 0.713372 0.000000
0.413729 0.712784 0.000000
0.452560 0.712196 0.000000
0.491331 0.711607 0.000000
0.530042 0.711019 0.000000
0.574094 0.710349 0.000000
0.618436 0.709673 0.000000
0.662699 0.708997 0.000000
0.706882 0.708321 0.000000
0.738904 0.707830 0.000000
0.770068 0.707352 0.000000
0.801200 0.706874 0.000000
0.832301 0.706396 0.000000
0.863371 0.705917 0.000000
0.894410 0.705439 0.000000
0.925418 0.704961 0.000000
0.956395 0.704483 0.000000
0.975635 0.704186 0.000000
0.993621 0.703908 0.000000
1.000000 0.703630 0.000000
1.000000 0.703352 0.000000
0.000000 0.748346 0.000000
0.000000 0.747957 0.000000
0.007896 0.747569 0.000000
0.043319 0.747042 0.000000
0.078843 0.746512 0.000000
0.113476 0.745996 0.000000
0.148062 0.745479 0.000000
0.182600 0.744962 0.000000
0.217090 0.744445 0.000000
0.256080 0.743860 0.000000
0.295159 0.743273 0.000000
0.334177 0.742685 0.000000
0.373133 0.742098 0.000000
0.412028 0.741510 0.000000
0.450863 0.740923 0.000000
0.489637 0.740335 0.000000
0.528350 0.739748 0.000000
0.572405 0.739078 0.000000
0.616751 0.738403 0.000000
0.661030 0.737728 0.000000
0.705246 0.737052 0.000000
0.737299 0.736562 0.000000
0.768492 0.736085 0.000000
0.799654 0.735607 0.000000
0.830785 0.735130 0.000000
0.861884 0.734652 0.000000
0.892953 0.734174 0.000000
0.923990 0.733697 0.000000
0.954996 0.733219 0.000000
0.974254 0.732922 0.000000
0.992257 0.732645 0.000000
1.000000 0.732367 0.000000
1.000000 0.732089 0.000000
0.000000 0.777031 0.000000
0.000000 0.776643 0.000000
0.006168 0.776255 0.000000
0.041593 0.775728 0.000000
0.077119 0.775200 0.000000
0.111756 0.774683 0.000000
0.146344 0.774167 0.000000
0.180884 0.773651 0.000000
0.215376 0.773135 0.000000
0.254369 0.772550 0.000000
0.293451 0.771964 0.000000
0.332471 0.771377 0.000000
0.371430 0.770790 0.000000
0.410328 0.770204 0.000000
0.449165 0.769617 0.000000
0.487942 0.769030 0.000000
0.526662 0.768443 0.000000
0.570739 0.767774 0.000000
0.615124 0.767100 0.000000
0.659445 0.766425 0.000000
0.703704 0.765751 0.000000
0.735787 0.765261 0.000000
0.767010 0.764784 0.000000
0.798201 0.764307 0.000000
0.829361 0.763830 0.000000
0.860490 0.763353 0.000000
0.891587 0.762876 0.000000
0.922654 0.762399 0.000000
0.953689 0.761922 0.000000
0.972965 0.761626 0.000000
0.990985 0.761348 0.000000
1.000000 0.761071 0.000000
1.000000 0.760794 0.000000
0.000000 0.805683 0.000000
0.000000 0.805295 0.000000
0.004440 0.804907 0.000000
0.039867 0.804382 0.000000
0.075396 0.803854 0.000000
0.110035 0.803338 0.000000
0.144625 0.802822 0.000000
0.179168 0.802307 0.000000
0.213663 0.801791 0.000000
0.252658 0.801207 0.000000
0.291742 0.800621 0.000000
0.330765 0.800035 0.000000
0.369727 0.799449 0.000000
0.408630 0.798863 0.000000
0.447483 0.798277 0.000000
0.486288 0.797691 0.000000
0.525044 0.797105 0.000000
0.569164 0.796437 0.000000
0.613591 0.795763 0.000000
0.657954 0.795089 0.000000
0.702254 0.794416 0.000000
0.734368 0.793927 0.000000
0.765620 0.793450 0.000000
0.796841 0.792974 0.000000
0.828030 0.792497 0.000000
0.859188 0.792021 0.000000
0.890315 0.791545 0.000000
0.921410 0.791068 0.000000
0.952474 0.790592 0.000000
0.971769 0.790295 0.000000
0.989805 0.790018 0.000000
1.000000 0.789741 0.000000
1.000000 0.789464 0.000000
0.000000 0.834301 0.000000
0.000000 0.833914 0.000000
0.002711 0.833527 0.000000
0.038142 0.833002 0.000000
0.073673 0.832474 0.000000
0.108314 0.831959 0.000000
0.142907 0.831444 0.000000
0.177452 0.830929 0.000000
0.211949 0.830414 0.000000
0.250947 0.829831 0.000000
0.290034 0.829246 0.000000
0.329070 0.828660 0.000000
0.368057 0.828075 0.000000
0.406996 0.827490 0.000000
0.445886 0.826904 0.000000
0.484727 0.826319 0.000000
0.523521 0.825734 0.000000
0.567682 0.825066 0.000000
0.612151 0.824393 0.000000
0.656556 0.823720 0.000000
0.700898 0.823047 0.000000
0.733042 0.822559 0.000000
0.764323 0.822083 0.000000
0.795573 0.821607 0.000000
0.826792 0.821131 0.000000
0.857979 0.820655 0.000000
0.889134 0.820179 0.000000
0.920259 0.819704 0.000000
0.951352 0.819228 0.000000
0.970664 0.818932 0.000000
0.988717 0.818655 0.000000
1.000000 0.818378 0.000000
1.000000 0.818102 0.000000
0.000000 0.862887 0.000000
0.000000 0.862500 0.000000
0.000983 0.862113 0.000000
0.036416 0.861588 0.000000
0.071949 0.861062 0.000000
0.106593 0.860547 0.000000
0.141188 0.860033 0.000000
0.175735 0.859518 0.000000
0.210241 0.859004 0.000000
0.249261 0.858422 0.000000
0.288383 0.857837 0.000000
0.327456 0.857252 0.000000
0.366480 0.856668 0.000000
0.405455 0.856083 0.000000
0.444382 0.855498 0.000000
0.483261 0.854913 0.000000
0.522091 0.854329 0.000000
0.566294 0.853662 0.000000
0.610804 0.852990 0.000000
0.655251 0.852318 0.000000
0.699635 0.851646 0.000000
0.731809 0.851158 0.000000
0.763119 0.850682 0.000000
0.794398 0.850207 0.000000
0.825646 0.849732 0.000000
0.856862 0.849256 0.000000
0.888047 0.848781 0.000000
