flutter_app/assets/lut/cameras/cpm35_kodak_gold_warm.cube
TITLE "CPM35 Kodak Gold 200 Warm"
LUT_3D_SIZE 9
DOMAIN_MIN 0.0 0.0 0.0
DOMAIN_MAX 1.0 1.0 1.0
0.017994 0.000000 0.000000
0.135231 0.000000 0.000000
0.266951 0.000000 0.000000
0.415936 0.000000 0.000000
0.564456 0.000000 0.000000
0.734075 0.000000 0.000000
0.854567 0.000000 0.000000
0.973868 0.000000 0.000000
1.000000 0.000000 0.000000
0.005587 0.112521 0.000000
0.123476 0.111113 0.000000
0.255923 0.109525 0.000000
0.405724 0.107723 0.000000
0.555053 0.105918 0.000000
0.725587 0.103848 0.000000
0.846724 0.102372 0.000000
0.966661 0.100905 0.000000
1.000000 0.100038 0.000000
0.000000 0.238765 0.000000
0.112611 0.237364 0.000000
0.245866 0.235785 0.000000
0.396574 0.233991 0.000000
0.546800 0.232196 0.000000
0.718350 0.230136 0.000000
0.840203 0.228667 0.000000
0.960733 0.227208 0.000000
1.000000 0.226345 0.000000
0.000000 0.381333 0.000000
0.103346 0.379940 0.000000
0.237502 0.378369 0.000000
0.389189 0.376586 0.000000
0.540138 0.374801 0.000000
0.712158 0.372753 0.000000
0.834116 0.371293 0.000000
0.954676 0.369842 0.000000
1.000000 0.368983 0.000000
0.000000 0.523221 0.000000
0.096786 0.521836 0.000000
0.231221 0.520275 0.000000
0.382985 0.518502 0.000000
0.533970 0.516727 0.000000
0.706033 0.514691 0.000000
0.828022 0.513239 0.000000
0.948611 0.511796 0.000000
1.000000 0.510943 0.000000
0.000000 0.684981 0.000000
0.089584 0.683605 0.000000
0.224058 0.682054 0.000000
0.375865 0.680292 0.000000
0.526894 0.678529 0.000000
0.699006 0.676507 0.000000
0.821031 0.675064 0.000000
0.941712 0.673630 0.000000
1.000000 0.672783 0.000000
0.000000 0.799707 0.000000
0.084447 0.798337 0.000000
0.218948 0.796793 0.000000
0.370786 0.795040 0.000000
0.521903 0.793285 0.000000
0.694288 0.791271 0.000000
0.816619 0.789835 0.000000
0.937638 0.788409 0.000000
1.000000 0.787565 0.000000
0.000000 0.913149 0.000000
0.079382 0.911786 0.000000
0.214062 0.910249 0.000000
0.366236 0.908504 0.000000
0.517772 0.906757 0.000000
0.690633 0.904753 0.000000
0.813299 0.903323 0.000000
0.934648 0.901903 0.000000
1.000000 0.901063 0.000000
0.000000 0.980002 0.000000
0.076729 0.978642 0.000000
0.211629 0.977110 0.000000
0.364052 0.975369 0.000000
0.515833 0.973627 0.000000
0.688973 0.971629 0.000000
0.811834 0.970203 0.000000
0.933376 0.968787 0.000000
1.000000 0.967949 0.000000
0.016650 0.000000 0.090119
0.133954 0.000000 0.091675
0.265748 0.000000 0.093169
0.414815 0.000000 0.094533
0.563418 0.000000 0.095545
0.733130 0.000000 0.096269
0.853687 0.000000 0.096501
0.973053 0.000000 0.096496
1.000000 0.000000 0.096383
0.004446 0.112043 0.094493
0.122400 0.110635 0.095322
0.254920 0.109047 0.095998
0.404803 0.107245 0.096433
0.554212 0.105440 0.096515
0.724838 0.103370 0.096172
0.846040 0.101894 0.095643
0.966040 0.100427 0.094883
1.000000 0.099559 0.094323
0.000000 0.238289 0.096495
0.111762 0.236888 0.096506
0.245088 0.235309 0.096260
0.395877 0.233515 0.095647
0.546183 0.231720 0.094681
0.717823 0.229660 0.093136
0.839723 0.228191 0.091770
0.960255 0.226732 0.090376
1.000000 0.225869 0.089551
0.000000 0.380860 0.095006
0.102754 0.379467 0.094088
0.236981 0.377896 0.092794
0.388701 0.376113 0.091092
0.539652 0.374328 0.089375
0.711675 0.372280 0.087407
0.833636 0.370819 0.086003
0.954198 0.369368 0.084608
1.000000 0.368510 0.083783
0.000000 0.522751 0.089882
0.096292 0.521366 0.088543
0.230729 0.519805 0.087033
0.382496 0.518032 0.085318
0.533484 0.516257 0.083602
0.705551 0.514221 0.081633
0.827542 0.512768 0.080228
0.948134 0.511326 0.078833
1.000000 0.510472 0.078008
0.000000 0.684514 0.083259
0.089090 0.683138 0.081920
0.223566 0.681587 0.080409
0.375376 0.679825 0.078694
0.526408 0.678062 0.076977
0.698523 0.676039 0.075007
0.820559 0.674596 0.073595
0.941273 0.673163 0.072126
1.000000 0.672315 0.071221
0.000000 0.799241 0.078535
0.083952 0.797872 0.077195
0.218455 0.796328 0.075684
0.370299 0.794575 0.073967
0.521455 0.792819 0.072174
0.693887 0.790806 0.069972
0.816251 0.789370 0.068308
0.937302 0.787943 0.066577
1.000000 0.787099 0.065517
0.000000 0.912686 0.073837
0.078921 0.911323 0.072441
0.213637 0.909786 0.070781
0.365852 0.908041 0.068786
0.517428 0.906294 0.066672
0.690335 0.904290 0.064104
0.813034 0.902860 0.062177
0.934414 0.901440 0.060186
1.000000 0.900600 0.058972
0.000000 0.979540 0.070864
0.076330 0.978181 0.069320
0.211267 0.976648 0.067493
0.363730 0.974908 0.065309
0.515551 0.973165 0.063006
0.688736 0.971167 0.060220
0.811630 0.969741 0.058139
0.933203 0.968325 0.055993
1.000000 0.967487 0.054688
0.015161 0.000000 0.215897
0.132539 0.000000 0.217362
0.264416 0.000000 0.218756
0.413577 0.000000 0.220008
0.562272 0.000000 0.220909
0.732088 0.000000 0.221509
0.852719 0.000000 0.221654
0.972158 0.000000 0.221564
1.000000 0.000000 0.221401
0.003183 0.111504 0.219972
0.121211 0.110096 0.220714
0.253813 0.108508 0.221294
0.403788 0.106705 0.221622
0.553289 0.104901 0.221598
0.724018 0.102831 0.221137
0.845292 0.101354 0.220524
0.965364 0.099887 0.219682
1.000000 0.099020 0.219074
0.000000 0.237753 0.221652
0.110828 0.236352 0.221581
0.244236 0.234772 0.221243
0.395115 0.232979 0.220529
0.545510 0.231184 0.219461
0.717252 0.229124 0.217803
0.839182 0.227655 0.216411
0.959716 0.226195 0.215024
1.000000 0.225332 0.214203
0.000000 0.380326 0.219817
0.102112 0.378933 0.218821
0.236417 0.377363 0.217442
0.388150 0.375580 0.215736
0.539104 0.373794 0.214028
0.711131 0.371747 0.212070
0.833095 0.370286 0.210672
0.953659 0.368835 0.209284
1.000000 0.367977 0.208463
0.000000 0.522221 0.214533
0.095734 0.520836 0.213200
0.230174 0.519274 0.211697
0.381944 0.517501 0.209991
0.532936 0.515726 0.208283
0.705006 0.513690 0.206324
0.827001 0.512238 0.204927
0.947595 0.510795 0.203538
1.000000 0.509942 0.202717
0.000000 0.683987 0.207943
0.088532 0.682611 0.206610
0.223011 0.681060 0.205107
0.374825 0.679298 0.203400
0.525860 0.677535 0.201692
0.697979 0.675512 0.199732
0.820039 0.674069 0.198309
0.940791 0.672636 0.196819
1.000000 0.671788 0.195901
0.000000 0.798717 0.203242
0.083394 0.797347 0.201908
0.217901 0.795803 0.200405
0.369760 0.794050 0.198686
0.520963 0.792295 0.196867
0.693447 0.790282 0.194637
0.815847 0.788845 0.192952
0.936935 0.787419 0.191202
1.000000 0.786575 0.190130
0.000000 0.912164 0.198555
0.078414 0.910801 0.197138
0.213170 0.909264 0.195455
0.365432 0.907519 0.193436
0.517053 0.905772 0.191298
0.690012 0.903768 0.188702
0.812746 0.902338 0.186757
0.934163 0.900918 0.184748
1.000000 0.900078 0.183523
0.000000 0.979020 0.195540
0.075893 0.977660 0.193976
0.210870 0.976127 0.192128
0.363379 0.974387 0.189921
0.515246 0.972645 0.187594
0.688481 0.970646 0.184782
0.811411 0.969220 0.182683
0.933019 0.967804 0.180520
1.000000 0.966966 0.179204
0.013501 0.000000 0.357902
0.130963 0.000000 0.359266
0.262934 0.000000 0.360548
0.412201 0.000000 0.361674
0.561001 0.000000 0.362451
0.730936 0.000000 0.362911
0.851651 0.000000 0.362958
0.971172 0.000000 0.362771
1.000000 0.000000 0.362552
0.001781 0.110892 0.361642
0.119892 0.109483 0.362288
0.252587 0.107896 0.362760
0.402667 0.106093 0.362967
0.552271 0.104289 0.362824
0.723117 0.102219 0.362229
0.844474 0.100742 0.361522
0.964627 0.099275 0.360588
1.000000 0.098407 0.359927
0.000000 0.237144 0.362961
0.109800 0.235743 0.362797
0.243299 0.234163 0.362356
0.394281 0.232370 0.361527
0.544778 0.230574 0.360347
0.716631 0.228515 0.358567
0.838567 0.227046 0.357178
0.959105 0.225586 0.355799
1.000000 0.224723 0.354982
0.000000 0.379721 0.360736
0.101413 0.378328 0.359654
0.235788 0.376757 0.358203
0.387524 0.374974 0.356507
0.538482 0.373189 0.354809
0.710513 0.371141 0.352861
0.832480 0.369680 0.351472
0.953048 0.368229 0.350092
1.000000 0.367371 0.349275
0.000000 0.521619 0.355310
0.095101 0.520234 0.353985
0.229544 0.518672 0.352491
0.381318 0.516899 0.350794
0.532314 0.515124 0.349096
0.704389 0.513088 0.347148
0.826386 0.511636 0.345758
0.946983 0.510193 0.344378
1.000000 0.509339 0.343561
0.000000 0.683389 0.348758
0.087899 0.682013 0.347432
0.222381 0.680462 0.345938
0.374199 0.678700 0.344241
0.525238 0.676937 0.342542
0.697364 0.674914 0.340591
0.819465 0.673471 0.339145
0.940257 0.672038 0.337632
1.000000 0.671190 0.336700
0.000000 0.798122 0.344083
0.082761 0.796752 0.342757
0.217271 0.795208 0.341262
0.369165 0.793455 0.339529
0.520420 0.791699 0.337681
0.692963 0.789686 0.335418
0.815405 0.788250 0.333711
0.936534 0.786823 0.331938
1.000000 0.785979 0.330854
0.000000 0.911572 0.339395
0.077853 0.910208 0.337956
0.212656 0.908671 0.336248
0.364970 0.906926 0.334201
0.516643 0.905179 0.332036
0.689660 0.903175 0.329410
0.812435 0.901745 0.327443
0.933892 0.900325 0.325413
1.000000 0.899485 0.324176
0.000000 0.978429 0.336334
0.075413 0.977069 0.334749
0.210436 0.975536 0.332876
0.362997 0.973796 0.330642
0.514914 0.972054 0.328289
0.688207 0.970055 0.325448
0.811178 0.968629 0.323328
0.932826 0.967213 0.321146
1.000000 0.966375 0.319819
0.011872 0.000000 0.499195
0.129419 0.000000 0.500459
0.261485 0.000000 0.501629
0.410857 0.000000 0.502631
0.559762 0.000000 0.503285
0.729815 0.000000 0.503607
0.850614 0.000000 0.503556
0.970217 0.000000 0.503275
1.000000 0.000000 0.503000
0.000412 0.110279 0.502603
0.118606 0.108871 0.503152
0.251394 0.107283 0.503518
0.401577 0.105480 0.503606
0.551285 0.103676 0.503345
0.722247 0.101606 0.502617
0.843687 0.100129 0.501818
0.963921 0.098662 0.500794
1.000000 0.097794 0.500079
0.000000 0.236534 0.503564
0.108804 0.235133 0.503309
0.242394 0.233554 0.502767
0.393479 0.231760 0.501824
0.544077 0.229965 0.500532
0.716013 0.227905 0.498667
0.837952 0.226436 0.497286
0.958493 0.224976 0.495914
1.000000 0.224113 0.495102
0.000000 0.379115 0.500955
0.100748 0.377722 0.499785
0.235158 0.376151 0.498304
0.386897 0.374368 0.496618
0.537859 0.372582 0.494929
0.709895 0.370535 0.492993
0.831865 0.369074 0.491611
0.952436 0.367623 0.490239
1.000000 0.366764 0.489427
0.000000 0.521016 0.495428
0.094467 0.519631 0.494110
0.228914 0.518069 0.492625
0.380692 0.516296 0.490938
0.531692 0.514521 0.489249
0.703770 0.512485 0.487312
0.825770 0.511033 0.485930
0.946371 0.509590 0.484558
1.000000 0.508736 0.483746
0.000000 0.682790 0.488912
0.087265 0.681414 0.487594
0.221750 0.679863 0.486108
0.373572 0.678101 0.484421
0.524615 0.676338 0.482732
0.696762 0.674315 0.480778
0.818906 0.672872 0.479308
0.939740 0.671439 0.477772
1.000000 0.670591 0.476827
0.000000 0.797526 0.484264
0.082127 0.796156 0.482946
0.216641 0.794612 0.481459
0.368585 0.792859 0.479698
0.519892 0.791103 0.477821
0.692495 0.789090 0.475527
0.814978 0.787654 0.473797
0.936148 0.786227 0.472003
1.000000 0.785383 0.470906
0.000000 0.910978 0.479562
0.077309 0.909615 0.478100
0.212159 0.908078 0.476368
0.364524 0.906333 0.474294
0.516249 0.904586 0.472102
0.689324 0.902581 0.469445
0.812141 0.901152 0.467458
0.933638 0.899732 0.465408
1.000000 0.898891 0.464159
0.000000 0.977837 0.476456
0.074949 0.976478 0.474848
0.210018 0.974945 0.472952
0.362630 0.973204 0.470691
0.514599 0.971462 0.468313
0.687950 0.969463 0.465443
0.810961 0.968037 0.463303
0.932649 0.966621 0.461101
1.000000 0.965783 0.459763
0.010046 0.000000 0.660231
0.127689 0.000000 0.661381
0.259862 0.000000 0.662425
0.409356 0.000000 0.663286
0.558380 0.000000 0.663801
0.728569 0.000000 0.663966
0.849464 0.000000 0.663805
0.969161 0.000000 0.663416
1.000000 0.000000 0.663078
0.000000 0.109576 0.663262
0.117171 0.108168 0.663703
0.250065 0.106580 0.663947
0.400368 0.104777 0.663900
0.550194 0.102973 0.663506
0.721290 0.100903 0.662629
0.842824 0.099426 0.661724
0.963151 0.097959 0.660597
1.000000 0.097091 0.659822
0.000000 0.235835 0.663818
0.107703 0.234434 0.663459
0.241398 0.232854 0.662802
0.392600 0.231061 0.661731
0.543314 0.229265 0.660313
0.715304 0.227205 0.658399
0.837247 0.225736 0.657027
0.957791 0.224277 0.655664
1.000000 0.223413 0.654858
0.000000 0.378419 0.660772
0.100018 0.377026 0.659515
0.234435 0.375456 0.658039
0.386179 0.373672 0.656364
0.537145 0.371887 0.654686
0.709186 0.369839 0.652762
0.831159 0.368378 0.651389
0.951733 0.366927 0.650026
1.000000 0.366069 0.649219
0.000000 0.520325 0.655182
0.093740 0.518940 0.653872
0.228191 0.517378 0.652396
0.379973 0.515605 0.650720
0.530977 0.513830 0.649042
0.703061 0.511794 0.647118
0.825065 0.510341 0.645745
0.945668 0.508898 0.644381
1.000000 0.508045 0.643574
0.000000 0.682103 0.648708
0.086537 0.680727 0.647398
0.221027 0.679176 0.645922
0.372853 0.677414 0.644245
0.523900 0.675651 0.642567
0.696093 0.673628 0.640594
0.818284 0.672185 0.639097
0.939167 0.670751 0.637534
1.000000 0.669904 0.636574
0.000000 0.796842 0.644090
0.081399 0.795472 0.642780
0.215936 0.793928 0.641288
0.367940 0.792175 0.639494
0.519307 0.790420 0.637585
0.691978 0.788406 0.635254
0.814509 0.786970 0.633499
0.935726 0.785543 0.631680
1.000000 0.784699 0.630569
0.000000 0.910298 0.639356
0.076706 0.908935 0.637869
0.211608 0.907397 0.636108
0.364033 0.905652 0.634003
0.515817 0.903905 0.631780
0.688959 0.901901 0.629090
0.811822 0.900471 0.627079
0.933366 0.899051 0.625006
1.000000 0.898211 0.623744
0.000000 0.977159 0.636197
0.074438 0.975799 0.634565
0.209559 0.974266 0.632642
0.362230 0.972525 0.630352
0.514257 0.970783 0.627944
0.687674 0.968784 0.625041
0.810732 0.967358 0.622879
0.932467 0.965942 0.620655
1.000000 0.965104 0.619303
0.008770 0.000000 0.774414
0.126482 0.000000 0.775484
0.258732 0.000000 0.776439
0.408312 0.000000 0.777200
0.557421 0.000000 0.777617
0.727707 0.000000 0.777672
0.848669 0.000000 0.777433
0.968434 0.000000 0.776968
1.000000 0.000000 0.776586
0.000000 0.109075 0.777180
0.116175 0.107667 0.777544
0.249145 0.106079 0.777703
0.399533 0.104276 0.777560
0.549442 0.102471 0.777073
0.720634 0.100401 0.776089
0.842235 0.098924 0.775111
0.962628 0.097457 0.773910
1.000000 0.096590 0.773112
0.000000 0.235336 0.777450
0.106944 0.233935 0.777018
0.240714 0.232356 0.776280
0.391999 0.230562 0.775118
0.542797 0.228766 0.773610
0.714798 0.226706 0.771695
0.836744 0.225237 0.770330
0.957290 0.223778 0.768973
1.000000 0.222914 0.768170
0.000000 0.377923 0.774096
0.099499 0.376530 0.772806
0.233919 0.374960 0.771337
0.385666 0.373176 0.769669
0.536636 0.371391 0.767999
0.708680 0.369343 0.766084
0.830656 0.367882 0.764718
0.951233 0.366431 0.763360
1.000000 0.365573 0.762558
0.000000 0.519832 0.768492
0.093222 0.518447 0.767189
0.227675 0.516885 0.765720
0.379461 0.515112 0.764051
0.530468 0.513337 0.762381
0.702555 0.511300 0.760466
0.824561 0.509848 0.759099
0.945167 0.508405 0.757741
1.000000 0.507551 0.756938
0.000000 0.681614 0.762048
0.086019 0.680237 0.760745
0.220511 0.678686 0.759275
0.372340 0.676924 0.757606
0.523391 0.675161 0.755936
0.695628 0.673138 0.753938
0.817855 0.671695 0.752423
0.938771 0.670261 0.750841
1.000000 0.669413 0.749870
0.000000 0.796355 0.757451
0.080880 0.794985 0.756147
0.215447 0.793441 0.754641
0.367494 0.791687 0.752825
0.518904 0.789932 0.750892
0.691622 0.787918 0.748536
0.814188 0.786482 0.746763
0.935438 0.785055 0.744927
1.000000 0.784211 0.743805
0.000000 0.909813 0.752684
0.076289 0.908449 0.751179
0.211229 0.906912 0.749399
0.363697 0.905167 0.747272
0.515522 0.903419 0.745028
0.688712 0.901415 0.742314
0.811609 0.899986 0.740286
0.933185 0.898565 0.738196
1.000000 0.897725 0.736925
0.000000 0.976675 0.749489
0.074087 0.975315 0.747840
0.209246 0.973782 0.745898
0.361959 0.972041 0.743586
0.514027 0.970299 0.741158
0.687491 0.968300 0.738232
0.810582 0.966874 0.736054
0.932349 0.965458 0.733814
1.000000 0.964620 0.732454
0.007524 0.000000 0.887297
0.125305 0.000000 0.888288
0.257631 0.000000 0.889156
0.407296 0.000000 0.889818
0.556490 0.000000 0.890139
0.726872 0.000000 0.890085
0.847902 0.000000 0.889770
0.967733 0.000000 0.889230
1.000000 0.000000 0.888804
0.000000 0.108577 0.889802
0.115207 0.107168 0.890090
0.248252 0.105581 0.890165
0.398724 0.103778 0.889928
0.548717 0.101973 0.889348
0.720003 0.099903 0.888261
0.841671 0.098426 0.887209
0.962127 0.096959 0.885940
1.000000 0.096091 0.885141
0.000000 0.234841 0.889790
0.106213 0.233440 0.889286
0.240056 0.231860 0.888468
0.391425 0.230066 0.887217
0.542291 0.228271 0.885638
0.714296 0.226211 0.883731
0.836244 0.224742 0.882372
0.956793 0.223282 0.881021
1.000000 0.222419 0.880222
0.000000 0.377431 0.886134
0.098984 0.376038 0.884837
0.233407 0.374467 0.883374
0.385157 0.372684 0.881714
0.536130 0.370898 0.880052
0.708178 0.368850 0.878145
0.830156 0.367389 0.876785
0.950735 0.365938 0.875434
1.000000 0.365080 0.874635
0.000000 0.519342 0.880543
0.092706 0.517957 0.879246
0.227163 0.516395 0.877783
0.378951 0.514622 0.876122
0.529962 0.512847 0.874460
0.702052 0.510810 0.872552
0.824061 0.509358 0.871192
0.944670 0.507915 0.869841
1.000000 0.507061 0.869041
0.000000 0.681127 0.874128
0.085504 0.679751 0.872830
0.219999 0.678199 0.871367
0.371831 0.676438 0.869706
0.522892 0.674674 0.868037
0.695178 0.672651 0.866014
0.817439 0.671208 0.864479
0.938389 0.669775 0.862879
1.000000 0.668927 0.861898
0.000000 0.795870 0.869552
0.080368 0.794501 0.868252
0.214972 0.792956 0.866725
0.367062 0.791203 0.864886
0.518514 0.789447 0.862931
0.691280 0.787434 0.860549
0.813879 0.785997 0.858759
0.935163 0.784571 0.856906
1.000000 0.783727 0.855774
0.000000 0.909331 0.864744
0.075886 0.907967 0.863221
0.210864 0.906430 0.861422
0.363373 0.904684 0.859273
0.515240 0.902937 0.857008
0.688477 0.900933 0.854270
0.811407 0.899503 0.852226
0.933016 0.898083 0.850121
1.000000 0.897243 0.848840
0.000000 0.976194 0.861513
0.073749 0.974834 0.859847
0.208945 0.973301 0.857886
0.361700 0.971560 0.855553
0.513809 0.969818 0.853105
0.687320 0.967819 0.850157
0.810444 0.966393 0.847963
0.932243 0.964977 0.845708
1.000000 0.964139 0.844338
0.006798 0.000000 0.953809
0.124619 0.000000 0.954754
0.256990 0.000000 0.955570
0.406706 0.000000 0.956175
0.555950 0.000000 0.956439
0.726388 0.000000 0.956321
0.847458 0.000000 0.955961
0.967328 0.000000 0.955378
1.000000 0.000000 0.954926
0.000000 0.108282 0.956160
0.114645 0.106874 0.956405
0.247734 0.105286 0.956430
0.398256 0.103483 0.956138
0.548299 0.101679 0.955504
0.719641 0.099608 0.954355
0.841347 0.098132 0.953261
0.961833 0.096665 0.951961
1.000000 0.095797 0.951165
0.000000 0.234548 0.955984
0.105790 0.233147 0.955438
0.239677 0.231567 0.954572
0.391095 0.229773 0.953269
0.541991 0.227978 0.951660
0.713999 0.225918 0.949758
0.835948 0.224448 0.948402
0.956499 0.222989 0.947055
1.000000 0.222125 0.946258
0.000000 0.377139 0.952154
0.098680 0.375746 0.950861
0.233104 0.374176 0.949403
0.384856 0.372392 0.947747
0.535831 0.370607 0.946089
0.707881 0.368559 0.944187
0.829860 0.367098 0.942831
0.950441 0.365647 0.941484
1.000000 0.364788 0.940687
0.000000 0.519052 0.946579
0.092402 0.517667 0.945285
0.226860 0.516105 0.943826
0.378650 0.514332 0.942170
0.529662 0.512557 0.940512
0.701755 0.510521 0.938610
0.823765 0.509068 0.937253
0.944375 0.507625 0.935905
1.000000 0.506772 0.935108
0.000000 0.680839 0.940181
0.085199 0.679463 0.938887
0.219696 0.677911 0.937428
0.371530 0.676150 0.935771
0.522602 0.674386 0.934099
0.694917 0.672363 0.932060
0.817197 0.670920 0.930514
0.938167 0.669487 0.928904
1.000000 0.668639 0.927916
0.000000 0.795584 0.935617
0.080070 0.794214 0.934316
0.214696 0.792670 0.932777
0.366811 0.790916 0.930924
0.518288 0.789161 0.928956
0.691083 0.787147 0.926559
0.813702 0.785711 0.924759
0.935005 0.784284 0.922896
1.000000 0.783440 0.921758
0.000000 0.909045 0.930781
0.075653 0.907682 0.929248
0.210653 0.906145 0.927437
0.363187 0.904399 0.925275
0.515079 0.902652 0.922998
0.688343 0.900648 0.920247
0.811293 0.899218 0.918193
0.932922 0.897798 0.916078
1.000000 0.896957 0.914792
0.000000 0.975909 0.927528
0.073554 0.974550 0.925853
0.208773 0.973017 0.923881
0.361552 0.971276 0.921536
0.513686 0.969533 0.919076
0.687224 0.967535 0.916114
0.810367 0.966109 0.913911
0.932186 0.964692 0.911647
1.000000 0.963854 0.910273
