flutter_app/assets/lut/cameras/cpm35_kodak_warm_clean.cube
TITLE "CPM35 Kodak Warm Clean"
LUT_3D_SIZE 9
DOMAIN_MIN 0.0 0.0 0.0
DOMAIN_MAX 1.0 1.0 1.0
0.000000 0.000000 0.000000
0.111258 0.000000 0.000000
0.222517 0.000000 0.000000
0.333775 0.000000 0.000000
0.467025 0.000000 0.000000
0.612892 0.000000 0.000000
0.762749 0.000000 0.000000
0.911350 0.000000 0.000000
1.000000 0.000000 0.000000
0.000000 0.109119 0.000000
0.108496 0.106302 0.000000
0.230087 0.108351 0.000000
0.363961 0.110689 0.000000
0.501732 0.111008 0.000000
0.642191 0.110047 0.000000
0.784457 0.108074 0.000000
0.927432 0.105743 0.000000
1.000000 0.103163 0.000000
0.000000 0.227966 0.000000
0.116094 0.236529 0.000000
0.245932 0.240959 0.000000
0.379905 0.242801 0.000000
0.514874 0.242462 0.000000
0.652780 0.241398 0.000000
0.794244 0.239828 0.000000
0.936438 0.237891 0.000000
1.000000 0.235679 0.000000
0.000000 0.370659 0.000000
0.119113 0.375417 0.000000
0.250867 0.376745 0.000000
0.384749 0.376969 0.000000
0.520113 0.376426 0.000000
0.658248 0.375325 0.000000
0.799607 0.373809 0.000000
0.941600 0.371973 0.000000
1.000000 0.372987 0.000000
0.000000 0.510921 0.000000
0.118417 0.512457 0.000000
0.251770 0.512956 0.000000
0.386572 0.512704 0.000000
0.522455 0.511891 0.000000
0.660943 0.510649 0.000000
0.808771 0.513006 0.000000
0.969259 0.520090 0.000000
1.000000 0.526676 0.000000
0.000000 0.649418 0.000000
0.116701 0.650026 0.000000
0.251208 0.649927 0.000000
0.386762 0.649285 0.000000
0.526839 0.652808 0.000000
0.679560 0.662696 0.000000
0.838453 0.671051 0.000000
1.000000 0.677978 0.000000
1.000000 0.685028 0.000000
0.000000 0.787915 0.000000
0.114434 0.787881 0.000000
0.251411 0.792389 0.000000
0.396349 0.805112 0.000000
0.545850 0.815938 0.000000
0.701639 0.825038 0.000000
0.861902 0.832703 0.000000
1.000000 0.839164 0.000000
1.000000 0.846418 0.000000
0.000000 0.931749 0.000000
0.115826 0.947335 0.000000
0.260517 0.960655 0.000000
0.409117 0.971948 0.000000
0.560966 0.981557 0.000000
0.719010 0.989750 0.000000
0.880608 0.996744 0.000000
1.000000 0.987132 0.000000
1.000000 0.969410 0.000000
0.000000 1.000000 0.000000
0.119948 1.000000 0.000000
0.268051 1.000000 0.000000
0.419289 1.000000 0.000000
0.573184 1.000000 0.000000
0.721988 1.000000 0.000000
0.860251 1.000000 0.000000
0.995110 1.000000 0.000000
1.000000 1.000000 0.000000
0.000000 0.000000 0.102700
0.108658 0.000000 0.099883
0.219917 0.000000 0.097067
0.331888 0.000000 0.094453
0.474241 0.000000 0.098007
0.618292 0.000000 0.098871
0.766754 0.000000 0.098309
0.912818 0.000000 0.096614
1.000000 0.000000 0.094339
0.000000 0.106519 0.099938
0.105896 0.103702 0.097121
0.232332 0.107937 0.100896
0.365979 0.109287 0.101953
0.503360 0.109050 0.101515
0.642368 0.107570 0.099911
0.784351 0.105425 0.097683
0.927075 0.102974 0.095167
1.000000 0.100306 0.092446
0.000000 0.230272 0.103770
0.114792 0.236880 0.105025
0.245244 0.240225 0.104715
0.378797 0.241001 0.103205
0.513789 0.240333 0.101025
0.651621 0.239040 0.098545
0.793015 0.237305 0.095853
0.935127 0.235244 0.093005
1.000000 0.232937 0.090038
0.000000 0.371179 0.107908
0.116698 0.374308 0.106495
0.248781 0.375145 0.104364
0.382833 0.375030 0.101922
0.518280 0.374241 0.099259
0.656392 0.372958 0.096434
0.797752 0.371301 0.093487
0.939728 0.369356 0.090445
1.000000 0.372749 0.088634
0.000000 0.509860 0.107701
0.115697 0.510943 0.105296
0.249287 0.511115 0.102663
0.384233 0.510620 0.099862
0.520204 0.509622 0.096934
0.658676 0.508235 0.093909
0.812011 0.513832 0.092045
0.973084 0.520525 0.089214
1.000000 0.526756 0.087271
0.000000 0.647926 0.106065
0.113818 0.648230 0.103288
0.248501 0.647899 0.100380
0.384174 0.647076 0.097371
0.527871 0.654751 0.095513
0.681491 0.664104 0.092757
0.840604 0.671851 0.089671
1.000000 0.678272 0.086313
1.000000 0.685003 0.084833
0.000000 0.786131 0.103825
0.111454 0.785879 0.100833
0.250307 0.795462 0.098975
0.396368 0.807501 0.096295
0.546310 0.817599 0.093275
0.702437 0.826094 0.089975
0.862929 0.833251 0.086439
1.000000 0.839280 0.082707
1.000000 0.845902 0.081594
0.000000 0.935963 0.102432
0.113971 0.950716 0.099829
0.259333 0.963186 0.096875
0.408439 0.973773 0.093633
0.560670 0.982789 0.090149
0.719001 0.990480 0.086462
0.880820 0.997043 0.082601
1.000000 0.977653 0.076923
1.000000 0.960417 0.073110
0.000000 1.000000 0.101794
0.117817 1.000000 0.099184
0.266462 1.000000 0.096263
0.418122 1.000000 0.093078
0.572347 1.000000 0.089671
0.714154 1.000000 0.083340
0.852015 1.000000 0.077145
0.986563 1.000000 0.071231
1.000000 1.000000 0.066252
0.000000 0.000000 0.205400
0.106058 0.000000 0.202583
0.217317 0.000000 0.199767
0.339456 0.000000 0.203472
0.479757 0.000000 0.211755
0.622515 0.000000 0.215884
0.769729 0.000000 0.217652
0.913809 0.000000 0.217141
1.000000 0.000000 0.215930
0.000000 0.103919 0.202638
0.106436 0.104176 0.205896
0.233667 0.107041 0.214553
0.367276 0.107618 0.218900
0.504392 0.106923 0.220847
0.642192 0.105012 0.220408
0.783957 0.102720 0.219251
0.926479 0.100164 0.217596
1.000000 0.097418 0.215583
0.000000 0.231650 0.217337
0.113210 0.236728 0.221906
0.244247 0.239187 0.224008
0.377471 0.239052 0.223672
0.512508 0.238101 0.222569
0.650285 0.236608 0.220955
0.791632 0.234726 0.218974
0.933680 0.232554 0.216720
1.000000 0.230161 0.214258
0.000000 0.371249 0.227150
0.114194 0.372981 0.226933
0.246587 0.373395 0.225884
0.380808 0.372983 0.224311
0.516341 0.371977 0.222363
0.654435 0.370530 0.220135
0.795804 0.368746 0.217695
0.941711 0.368212 0.215975
1.000000 0.372641 0.216764
0.000000 0.508601 0.229196
0.112932 0.509286 0.227666
0.246744 0.509169 0.225750
0.381831 0.508457 0.223549
0.517889 0.507291 0.221130
0.658671 0.507515 0.219295
0.815392 0.514606 0.219870
0.976546 0.520750 0.219142
1.000000 0.526655 0.219247
0.000000 0.646303 0.229136
0.110908 0.646335 0.226961
0.245758 0.645794 0.224564
0.382602 0.646592 0.222608
0.529150 0.656584 0.223280
0.683152 0.665253 0.222634
0.842490 0.672436 0.221411
1.000000 0.678385 0.219710
1.000000 0.684821 0.219866
0.000000 0.784255 0.227997
0.108682 0.785441 0.225915
0.249562 0.798365 0.226685
0.396214 0.809584 0.226121
0.546586 0.819005 0.224970
0.703044 0.826936 0.223331
0.863766 0.833617 0.221283
1.000000 0.839241 0.218889
1.000000 0.836874 0.216651
0.000000 0.939947 0.230083
0.112034 0.953742 0.229604
0.258042 0.965422 0.228525
0.407638 0.975350 0.226948
0.560241 0.983811 0.224956
0.718851 0.991029 0.222611
0.872228 0.987731 0.218001
1.000000 0.968435 0.210133
1.000000 0.951656 0.204158
0.000000 1.000000 0.233624
0.115626 1.000000 0.232660
0.264794 1.000000 0.231213
0.416864 1.000000 0.229356
0.566373 1.000000 0.224988
0.706527 1.000000 0.216345
0.843992 1.000000 0.208207
0.978230 1.000000 0.200511
1.000000 1.000000 0.193722
0.000000 0.000000 0.308100
0.103458 0.000000 0.305283
0.214717 0.000000 0.302467
0.345005 0.000000 0.317143
0.483951 0.000000 0.328549
0.625778 0.000000 0.335043
0.770792 0.000000 0.338016
0.914388 0.000000 0.338587
1.000000 0.000000 0.338252
0.000000 0.101319 0.305337
0.106349 0.104033 0.319506
0.234294 0.105771 0.331293
0.367986 0.105733 0.338014
0.504076 0.104479 0.341183
0.641713 0.102384 0.341832
0.783311 0.099964 0.341553
0.925671 0.097316 0.340622
1.000000 0.094501 0.339215
0.000000 0.232309 0.334023
0.111399 0.236169 0.340975
0.242587 0.237499 0.344346
0.375958 0.236976 0.345073
0.511059 0.235779 0.344852
0.648794 0.234111 0.343965
0.790109 0.232098 0.342592
0.932109 0.229826 0.340855
1.000000 0.227354 0.338836
0.000000 0.370387 0.347503
0.111614 0.371466 0.348311
0.244300 0.371514 0.348148
0.378685 0.370841 0.347306
0.514308 0.369641 0.345968
0.652386 0.368046 0.344258
0.793771 0.366148 0.342262
0.946123 0.367975 0.343745
1.000000 0.372342 0.346594
0.000000 0.507168 0.351442
0.110125 0.507505 0.350644
0.244150 0.507130 0.349342
0.379372 0.506221 0.347660
0.515517 0.504903 0.345687
0.660848 0.508422 0.347008
0.818417 0.515145 0.349416
0.979671 0.520780 0.350583
1.000000 0.526385 0.352555
0.000000 0.644564 0.352713
0.107973 0.644350 0.351061
0.242982 0.643618 0.349111
0.382523 0.648656 0.350264
0.530184 0.658127 0.352775
0.684560 0.666163 0.354030
0.844129 0.672821 0.354496
1.000000 0.678330 0.354306
1.000000 0.684491 0.355969
0.000000 0.782294 0.352534
0.106386 0.788675 0.353514
0.248675 0.800923 0.356129
0.395900 0.811382 0.357472
0.546693 0.820174 0.358015
0.703471 0.827578 0.357891
0.864423 0.833813 0.357207
1.000000 0.839055 0.356046
1.000000 0.828098 0.349997
0.000000 0.943529 0.359477
0.110022 0.956436 0.360909
0.256650 0.967382 0.361529
0.406721 0.976695 0.361472
0.559689 0.984636 0.360847
0.718568 0.991410 0.359738
0.863359 0.978116 0.351634
0.999169 0.959464 0.341772
1.000000 0.943118 0.333775
0.000000 1.000000 0.366805
0.113379 1.000000 0.367340
0.263052 1.000000 0.367243
0.415520 1.000000 0.366609
0.559644 1.000000 0.358400
0.699098 1.000000 0.347783
0.836170 1.000000 0.337836
0.970101 1.000000 0.328475
1.000000 1.000000 0.319984
0.000000 0.000000 0.410530
0.100858 0.000000 0.407784
0.215218 0.000000 0.410813
0.349046 0.000000 0.433434
0.487097 0.000000 0.446566
0.628251 0.000000 0.454572
0.771403 0.000000 0.457907
0.914612 0.000000 0.459309
1.000000 0.000000 0.459686
0.000000 0.099857 0.412423
0.105700 0.103336 0.435715
0.234362 0.104205 0.449211
0.368213 0.103671 0.457440
0.503457 0.101948 0.460976
0.640972 0.099696 0.462456
0.782444 0.097165 0.462890
0.924675 0.094436 0.462577
1.000000 0.091559 0.461711
0.000000 0.232401 0.451843
0.109401 0.235273 0.460298
0.240730 0.235618 0.464040
0.374285 0.234789 0.465600
0.509459 0.233379 0.466092
0.647163 0.231555 0.465823
0.788462 0.229425 0.464993
0.930426 0.227062 0.463736
1.000000 0.224609 0.462328
0.000000 0.369169 0.467099
0.108970 0.369790 0.468740
0.241931 0.369519 0.469291
0.376477 0.368613 0.469068
0.512191 0.367240 0.468273
0.650254 0.365513 0.467044
0.791660 0.363509 0.465479
0.950108 0.367545 0.471476
1.000000 0.371867 0.476049
0.000000 0.505584 0.472488
0.107282 0.505611 0.472310
0.241507 0.505006 0.471551
0.376862 0.503920 0.470352
0.513092 0.502462 0.468810
0.662716 0.509076 0.474609
0.821113 0.515465 0.478540
0.982482 0.520628 0.481344
1.000000 0.525958 0.484929
0.000000 0.642720 0.474828
0.105016 0.642284 0.473657
0.240177 0.641378 0.472140
0.382260 0.650405 0.477735
0.530993 0.659402 0.481772
0.685735 0.666850 0.484666
0.845537 0.673019 0.486617
1.000000 0.678116 0.487777
1.000000 0.684022 0.490752
0.000000 0.780257 0.475468
0.104025 0.791530 0.480855
0.247658 0.803160 0.484998
0.395436 0.812916 0.487983
0.546640 0.821122 0.490012
0.703729 0.828032 0.491240
0.864912 0.833848 0.491793
1.000000 0.835171 0.489792
1.000000 0.819561 0.479681
0.000000 0.946739 0.488219
0.107940 0.958823 0.491295
0.255165 0.969085 0.493403
0.405697 0.977823 0.494700
0.559019 0.985275 0.495313
0.715706 0.988395 0.493808
0.854737 0.968770 0.481544
0.990226 0.950729 0.470122
1.000000 0.934790 0.460481
0.000000 1.000000 0.498714
0.111080 1.000000 0.500570
0.261239 1.000000 0.501682
0.413102 1.000000 0.500985
0.553088 1.000000 0.487931
0.691857 1.000000 0.475792
0.828541 1.000000 0.464450
0.962165 1.000000 0.453805
1.000000 1.000000 0.443966
0.000000 0.000000 0.510662
0.098258 0.000000 0.507916
0.218573 0.000000 0.526573
0.351931 0.000000 0.550252
0.489398 0.000000 0.564696
0.629468 0.000000 0.573399
0.771627 0.000000 0.577092
0.914525 0.000000 0.579173
1.000000 0.000000 0.580130
0.000000 0.100032 0.528241
0.104619 0.102216 0.552535
0.233980 0.102401 0.567327
0.367762 0.101384 0.576343
0.502578 0.099342 0.580147
0.640002 0.096955 0.582307
0.781382 0.094328 0.583323
0.923511 0.091526 0.583511
1.000000 0.088593 0.583080
0.000000 0.232036 0.569944
0.107184 0.233964 0.579281
0.238733 0.233599 0.583198
0.372471 0.232506 0.585438
0.507728 0.230909 0.586514
0.645408 0.228946 0.586748
0.786701 0.226711 0.586353
0.928642 0.224267 0.585476
1.000000 0.223295 0.588459
0.000000 0.367747 0.586244
0.106268 0.367972 0.588566
0.239490 0.367422 0.589702
0.374191 0.366311 0.589982
0.509997 0.364782 0.589624
0.648047 0.362933 0.588777
0.794906 0.363260 0.591429
0.954284 0.367165 0.599136
1.000000 0.371229 0.605592
0.000000 0.503866 0.592887
0.104407 0.503619 0.593214
0.238823 0.502805 0.592893
0.374304 0.501559 0.592076
0.513713 0.503006 0.594392
0.664885 0.509723 0.602228
0.823503 0.515583 0.607839
0.985001 0.520308 0.612149
1.000000 0.525384 0.617252
0.000000 0.640781 0.596161
0.102038 0.640144 0.595373
0.238625 0.642530 0.597347
0.382396 0.652090 0.605312
0.531593 0.660427 0.611033
0.686691 0.667330 0.615436
0.846728 0.673042 0.618745
1.000000 0.677754 0.621135
1.000000 0.683421 0.625360
0.000000 0.781832 0.600294
0.102171 0.794263 0.608391
0.246520 0.805101 0.614221
0.394833 0.814203 0.618719
0.546438 0.821862 0.622109
0.703830 0.828310 0.624570
0.865241 0.833733 0.626243
1.000000 0.826436 0.618765
1.000000 0.811251 0.606621
0.000000 0.949605 0.617404
0.105792 0.960924 0.621997
0.253593 0.970547 0.625469
0.404570 0.978747 0.628001
0.558239 0.985739 0.629737
0.707736 0.978641 0.622828
0.846349 0.959680 0.608738
0.981518 0.942217 0.595637
1.000000 0.926663 0.584270
0.000000 1.000000 0.630942
0.108730 1.000000 0.634015
0.259361 1.000000 0.636236
0.407293 1.000000 0.629778
0.546696 1.000000 0.614919
0.684793 1.000000 0.601120
0.821094 1.000000 0.588245
0.954414 1.000000 0.576182
1.000000 1.000000 0.564874
0.000000 0.000000 0.610795
0.095658 0.000000 0.608049
0.220727 0.000000 0.645034
0.353909 0.000000 0.669106
0.491007 0.000000 0.684380
0.629639 0.000000 0.692702
0.771518 0.000000 0.697004
0.914167 0.000000 0.699630
1.000000 0.000000 0.701067
0.000000 0.099565 0.646773
0.103202 0.100765 0.671405
0.233229 0.100402 0.687007
0.366626 0.098881 0.695639
0.501475 0.096673 0.700051
0.638831 0.094169 0.702755
0.780146 0.091455 0.704252
0.922195 0.088589 0.704863
1.000000 0.085607 0.704805
0.000000 0.231298 0.689622
0.104719 0.232157 0.698569
0.236615 0.231460 0.703092
0.370534 0.230139 0.705877
0.505880 0.228376 0.707434
0.643541 0.226291 0.708091
0.784838 0.223961 0.708071
0.926764 0.221443 0.707525
1.000000 0.221852 0.716314
0.000000 0.366150 0.706129
0.103517 0.366032 0.708995
0.236984 0.365234 0.710613
0.371837 0.363940 0.711318
0.507734 0.362271 0.711334
0.645771 0.360312 0.710819
0.797978 0.362905 0.719225
0.958070 0.366610 0.728302
1.000000 0.370439 0.736458
0.000000 0.502029 0.713790
0.101503 0.501536 0.714542
0.236099 0.500536 0.714596
0.371703 0.499144 0.714111
0.514564 0.503772 0.722149
0.666762 0.510143 0.731357
0.825611 0.515513 0.738475
0.987247 0.519831 0.744145
1.000000 0.524671 0.750638
0.000000 0.638756 0.717856
0.099042 0.637937 0.717402
0.237321 0.644429 0.725065
0.382348 0.653495 0.734406
0.531998 0.661221 0.741637
0.687443 0.667616 0.747403
0.847718 0.672902 0.751947
1.000000 0.677252 0.755462
1.000000 0.682697 0.760841
0.000000 0.784876 0.727973
0.100233 0.796662 0.737448
0.245270 0.806767 0.744792
0.394101 0.815259 0.750655
0.546097 0.822408 0.755283
0.703782 0.828423 0.758871
0.865421 0.833475 0.761574
1.000000 0.817941 0.746179
1.000000 0.803154 0.732142
0.000000 0.952150 0.747942
0.103584 0.962758 0.753903
0.251939 0.971785 0.758615
0.403349 0.979478 0.762276
0.557356 0.986039 0.765043
0.699983 0.969164 0.750285
0.838184 0.950831 0.734503
0.973033 0.933917 0.719841
1.000000 0.918726 0.706857
0.000000 1.000000 0.764246
0.106335 1.000000 0.768431
0.257421 1.000000 0.771668
0.401625 1.000000 0.757013
0.540459 1.000000 0.740484
0.677898 1.000000 0.725141
0.813822 1.000000 0.710836
0.946840 1.000000 0.697446
1.000000 1.000000 0.684989
0.000000 0.000000 0.710927
0.095488 0.000000 0.726409
0.221973 0.000000 0.765533
0.355164 0.000000 0.789587
0.492044 0.000000 0.805351
0.629454 0.000000 0.812779
0.771120 0.000000 0.817549
0.913568 0.000000 0.820610
1.000000 0.000000 0.822444
0.000000 0.098616 0.767347
0.101516 0.099050 0.791910
0.232174 0.098242 0.807982
0.365274 0.096299 0.815713
0.500179 0.093947 0.820589
0.637485 0.091341 0.823729
0.778754 0.088553 0.825622
0.920742 0.085629 0.826591
1.000000 0.082602 0.826854
0.000000 0.230253 0.810602
0.102170 0.230199 0.818641
0.234392 0.229219 0.823626
0.368488 0.227698 0.826844
0.503927 0.225789 0.828798
0.641573 0.223593 0.829813
0.782883 0.221178 0.830114
0.927704 0.219265 0.832382
1.000000 0.220454 0.845918
0.000000 0.364402 0.826657
0.100722 0.363983 0.829957
0.234421 0.362967 0.831971
0.369420 0.361508 0.833033
0.505408 0.359712 0.833371
0.645019 0.358511 0.835120
0.800667 0.362355 0.848598
0.961493 0.365892 0.858862
1.000000 0.369507 0.868556
0.000000 0.500085 0.835141
0.098572 0.499373 0.836251
0.233341 0.498204 0.836627
0.369695 0.497530 0.837850
0.515155 0.504283 0.851489
0.668370 0.510353 0.861886
0.827454 0.515268 0.870357
0.989238 0.519205 0.877257
1.000000 0.523828 0.885021
0.000000 0.636654 0.839881
0.096127 0.636321 0.840570
0.235871 0.646012 0.854372
0.382129 0.654640 0.864904
0.532223 0.661799 0.873489
0.688005 0.667722 0.880488
0.848517 0.672608 0.886156
1.000000 0.676619 0.890700
1.000000 0.675516 0.889063
0.000000 0.787542 0.857246
0.098218 0.798752 0.867915
0.243914 0.808176 0.876616
0.393247 0.816101 0.883714
0.545625 0.822771 0.889468
0.703595 0.828379 0.894086
0.858266 0.826398 0.890772
0.994696 0.809673 0.872118
1.000000 0.795261 0.856318
0.000000 0.954398 0.879737
0.101319 0.964343 0.886935
0.250208 0.972811 0.892775
0.402037 0.980030 0.897468
0.552332 0.979230 0.895030
0.692436 0.959949 0.876262
0.830229 0.942211 0.858912
0.964761 0.925819 0.842798
1.000000 0.910972 0.828298
0.000000 1.000000 0.898558
0.103895 1.000000 0.903760
0.253733 1.000000 0.902344
0.396092 1.000000 0.882775
0.534370 1.000000 0.864697
0.671164 1.000000 0.847919
0.806715 1.000000 0.832281
0.939434 1.000000 0.817648
1.000000 1.000000 0.804198
0.000000 0.000000 0.811060
0.095218 0.000000 0.850317
0.222518 0.000000 0.887609
0.355832 0.000000 0.911387
0.491826 0.000000 0.925956
0.628965 0.000000 0.933521
0.770469 0.000000 0.938644
0.912757 0.000000 0.942054
1.000000 0.000000 0.944216
0.000000 0.097294 0.889498
0.099613 0.097121 0.913738
0.230539 0.095812 0.928744
0.363736 0.093649 0.936455
0.498712 0.091173 0.941682
0.635982 0.088478 0.945169
0.777224 0.085622 0.947389
0.919166 0.082647 0.948659
1.000000 0.079580 0.949199
0.000000 0.228666 0.931524
0.099550 0.228114 0.939384
0.232078 0.226888 0.944716
0.366347 0.225191 0.948280
0.501881 0.223152 0.950560
0.639515 0.220857 0.951877
0.780842 0.218364 0.952453
0.932079 0.217853 0.961785
1.000000 0.219428 0.961997
0.000000 0.362521 0.947745
0.097888 0.361838 0.951388
0.231806 0.360627 0.953728
0.366946 0.359020 0.955092
0.503025 0.357109 0.955706
0.647141 0.358247 0.964494
0.803903 0.362192 0.965015
0.965281 0.365775 0.960098
1.000000 0.369549 0.956653
0.000000 0.498047 0.956893
0.095618 0.497137 0.958305
0.230550 0.495814 0.958957
0.369544 0.498427 0.967194
0.516365 0.505112 0.968525
0.670416 0.511103 0.963665
0.830074 0.515954 0.958754
0.992311 0.519854 0.953800
1.000000 0.524560 0.951135
0.000000 0.634480 0.962207
0.093740 0.638390 0.969885
0.235131 0.647843 0.972030
0.382409 0.656267 0.967228
0.533260 0.663258 0.962368
0.689699 0.669058 0.957459
0.850715 0.673857 0.952510
1.000000 0.677804 0.947525
1.000000 0.669438 0.945977
0.000000 0.790385 0.975532
0.096774 0.801264 0.970788
0.243433 0.810416 0.965978
0.393542 0.818131 0.961115
0.546551 0.824640 0.956206
0.705084 0.830123 0.951258
0.851051 0.819495 0.947305
0.986768 0.802915 0.943869
1.000000 0.788480 0.941740
0.000000 0.957425 0.969585
0.100252 0.967072 0.964768
0.249918 0.975305 0.959899
0.402389 0.982336 0.954988
0.547251 0.971338 0.950952
0.686307 0.952291 0.947458
0.823346 0.934741 0.944017
0.957239 0.918499 0.940623
1.000000 0.903662 0.937639
0.000000 1.000000 0.966240
0.103154 1.000000 0.961781
0.250574 1.000000 0.957383
0.391886 1.000000 0.953168
0.529278 1.000000 0.949069
0.665143 1.000000 0.945072
0.800030 1.000000 0.941166
0.932190 1.000000 0.936854
1.000000 1.000000 0.922457
