flutter_app/assets/lut/cameras/cpm35_kodak_colorplus.cube
TITLE "CPM35 Kodak ColorPlus 200"
LUT_3D_SIZE 5
DOMAIN_MIN 0.0 0.0 0.0
DOMAIN_MAX 1.0 1.0 1.0
0.011997 0.000000 0.000000
0.260816 0.000000 0.000000
0.534135 0.000000 0.000000
0.805564 0.000000 0.000000
1.000000 0.000000 0.000000
0.000000 0.243076 0.000000
0.248335 0.241546 0.000000
0.523859 0.239852 0.000000
0.797447 0.238155 0.000000
0.995189 0.236918 0.000000
0.000000 0.509519 0.000000
0.241218 0.508006 0.000000
0.517797 0.506330 0.000000
0.791747 0.504651 0.000000
0.989534 0.503427 0.000000
0.000000 0.773536 0.000000
0.235378 0.772039 0.000000
0.512030 0.770380 0.000000
0.786263 0.768719 0.000000
0.984445 0.767509 0.000000
0.000000 0.964219 0.000000
0.231559 0.962733 0.000000
0.508917 0.961088 0.000000
0.783936 0.959440 0.000000
0.982680 0.958238 0.000000
0.010241 0.000000 0.226258
0.259268 0.000000 0.228757
0.532813 0.000000 0.230705
0.804463 0.000000 0.231793
1.000000 0.000000 0.232041
0.000000 0.242557 0.231872
0.247428 0.241027 0.232009
0.523170 0.239333 0.231341
0.796928 0.237636 0.229868
0.994674 0.236398 0.228672
0.000000 0.509005 0.229115
0.240686 0.507492 0.227635
0.517272 0.505816 0.225995
0.791227 0.504137 0.224353
0.989019 0.502913 0.223156
0.000000 0.773028 0.223591
0.234847 0.771530 0.222110
0.511539 0.769872 0.220435
0.785871 0.768211 0.218525
0.984125 0.767000 0.216967
0.000000 0.963715 0.219412
0.231202 0.962229 0.217572
0.508659 0.960583 0.215285
0.783774 0.958935 0.212734
0.982588 0.957734 0.210709
0.008373 0.000000 0.490641
0.257629 0.000000 0.492852
0.531423 0.000000 0.494490
0.803317 0.000000 0.495276
1.000000 0.000000 0.495311
0.000000 0.241981 0.495317
0.246498 0.240451 0.495190
0.522483 0.238757 0.494240
0.796352 0.237060 0.492651
0.994103 0.235823 0.491466
0.000000 0.508436 0.491905
0.240098 0.506922 0.490441
0.516690 0.505246 0.488818
0.790651 0.503567 0.487193
0.988448 0.502343 0.486009
0.000000 0.772464 0.486439
0.234258 0.770967 0.484974
0.511030 0.769309 0.483255
0.785472 0.767648 0.481278
0.983803 0.766437 0.479673
0.000000 0.963156 0.482195
0.230841 0.961670 0.480295
0.508407 0.960024 0.477945
0.783629 0.958376 0.475333
0.982519 0.957175 0.473266
0.006582 0.000000 0.752541
0.256068 0.000000 0.754470
0.530110 0.000000 0.755804
0.802248 0.000000 0.756295
0.999162 0.000000 0.756120
0.000000 0.241405 0.756297
0.245647 0.239875 0.755913
0.521872 0.238181 0.754687
0.795776 0.236484 0.753079
0.993531 0.235247 0.751907
0.000000 0.507866 0.752342
0.239508 0.506352 0.750892
0.516107 0.504676 0.749287
0.790075 0.502997 0.747679
0.987876 0.501773 0.746507
0.000000 0.771900 0.746933
0.233675 0.770403 0.745478
0.510555 0.768745 0.743693
0.785107 0.767083 0.741649
0.983516 0.765873 0.739998
0.000000 0.962596 0.742596
0.230516 0.961110 0.740637
0.508191 0.959465 0.738225
0.783520 0.957816 0.735553
0.982486 0.956615 0.733444
0.005327 0.000000 0.941649
0.254979 0.000000 0.943376
0.529202 0.000000 0.944493
0.801517 0.000000 0.944772
0.998558 0.000000 0.944447
0.000000 0.240985 0.944746
0.245077 0.239455 0.944178
0.521447 0.237761 0.942790
0.795356 0.236064 0.941195
0.993114 0.234826 0.940032
0.000000 0.507450 0.940463
0.239079 0.505937 0.939025
0.515682 0.504260 0.937432
0.789654 0.502581 0.935836
0.987459 0.501358 0.934673
0.000000 0.771489 0.935096
0.233271 0.769992 0.933631
0.510232 0.768333 0.931797
0.784863 0.766672 0.929706
0.983329 0.765461 0.928021
0.000000 0.962188 0.930673
0.230302 0.960702 0.928673
0.508056 0.959057 0.926217
0.783462 0.957408 0.923502
0.982483 0.956207 0.921363
