flutter_app/assets/lut/cameras/cpm35_kodak_portrait.cube
TITLE "CPM35 Kodak Gold Portrait"
LUT_3D_SIZE 9
DOMAIN_MIN 0.0 0.0 0.0
DOMAIN_MAX 1.0 1.0 1.0
0.021990 0.000000 0.000000
0.141977 0.000000 0.000000
0.276812 0.000000 0.000000
0.429352 0.000000 0.000000
0.581451 0.000000 0.000000
0.755199 0.000000 0.000000
0.878650 0.000000 0.000000
1.000000 0.000000 0.000000
1.000000 0.000000 0.000000
0.006200 0.113374 0.000000
0.126988 0.111493 0.000000
0.262716 0.109372 0.000000
0.416259 0.106963 0.000000
0.569352 0.104553 0.000000
0.744223 0.101787 0.000000
0.868467 0.099814 0.000000
0.991499 0.097855 0.000000
1.000000 0.096695 0.000000
0.000000 0.240570 0.000000
0.113004 0.238698 0.000000
0.249725 0.236588 0.000000
0.404383 0.234192 0.000000
0.558578 0.231794 0.000000
0.734697 0.229042 0.000000
0.859819 0.227080 0.000000
0.983580 0.225130 0.000000
1.000000 0.223977 0.000000
0.000000 0.384207 0.000000
0.100879 0.382346 0.000000
0.238708 0.380248 0.000000
0.394569 0.377866 0.000000
0.549652 0.375481 0.000000
0.726352 0.372746 0.000000
0.851608 0.370794 0.000000
0.975411 0.368856 0.000000
1.000000 0.367709 0.000000
0.000000 0.527154 0.000000
0.092059 0.525304 0.000000
0.230233 0.523218 0.000000
0.386194 0.520849 0.000000
0.541329 0.518478 0.000000
0.718088 0.515759 0.000000
0.843387 0.513818 0.000000
0.967231 0.511891 0.000000
1.000000 0.510751 0.000000
0.000000 0.690112 0.000000
0.082334 0.688274 0.000000
0.220562 0.686202 0.000000
0.376584 0.683849 0.000000
0.531779 0.681494 0.000000
0.708607 0.678792 0.000000
0.833954 0.676865 0.000000
0.957927 0.674950 0.000000
1.000000 0.673817 0.000000
0.000000 0.805683 0.000000
0.075396 0.803854 0.000000
0.213663 0.801791 0.000000
0.369727 0.799449 0.000000
0.525044 0.797105 0.000000
0.702254 0.794416 0.000000
0.828030 0.792497 0.000000
0.952474 0.790592 0.000000
1.000000 0.789464 0.000000
0.000000 0.919957 0.000000
0.068558 0.918137 0.000000
0.207074 0.916084 0.000000
0.363609 0.913753 0.000000
0.519513 0.911419 0.000000
0.697388 0.908742 0.000000
0.823632 0.906833 0.000000
0.948538 0.904936 0.000000
1.000000 0.903814 0.000000
0.000000 0.987299 0.000000
0.064993 0.985483 0.000000
0.203819 0.983436 0.000000
0.360700 0.981111 0.000000
0.516947 0.978784 0.000000
0.695211 0.976115 0.000000
0.821729 0.974210 0.000000
0.946904 0.972319 0.000000
1.000000 0.971200 0.000000
0.020286 0.000000 0.084840
0.140354 0.000000 0.086763
0.275279 0.000000 0.088601
0.427921 0.000000 0.090264
0.580122 0.000000 0.091479
0.753983 0.000000 0.092317
0.877515 0.000000 0.092552
0.999847 0.000000 0.092488
1.000000 0.000000 0.092309
0.004742 0.112735 0.090216
0.125609 0.110854 0.091214
0.261427 0.108733 0.092010
0.415071 0.106325 0.092491
0.568263 0.103914 0.092522
0.743247 0.101148 0.092003
0.867570 0.099175 0.091270
0.990681 0.097215 0.090243
1.000000 0.096056 0.089495
0.000000 0.239934 0.092548
0.111903 0.238063 0.092505
0.248712 0.235953 0.092127
0.403469 0.233557 0.091275
0.557761 0.231158 0.089972
0.733991 0.228407 0.087921
0.859172 0.226444 0.086124
0.982936 0.224494 0.084289
1.000000 0.223341 0.083204
0.000000 0.383575 0.090408
0.100093 0.381714 0.089182
0.238008 0.379616 0.087471
0.393909 0.377234 0.085230
0.548996 0.374849 0.082973
0.725701 0.372113 0.080383
0.850961 0.370162 0.078536
0.974767 0.368223 0.076700
1.000000 0.367077 0.075615
0.000000 0.526525 0.083640
0.091391 0.524675 0.081877
0.229569 0.522590 0.079891
0.385534 0.520221 0.077635
0.540673 0.517850 0.075377
0.717437 0.515130 0.072786
0.842739 0.513190 0.070938
0.966586 0.511262 0.069102
1.000000 0.510122 0.068016
0.000000 0.689488 0.074926
0.081666 0.687650 0.073164
0.219898 0.685578 0.071176
0.375923 0.683225 0.068919
0.531123 0.680870 0.066660
0.707955 0.678168 0.064069
0.833318 0.676240 0.062211
0.957337 0.674325 0.060282
1.000000 0.673193 0.059096
0.000000 0.805062 0.068710
0.074728 0.803232 0.066947
0.212998 0.801170 0.064959
0.369069 0.798828 0.062700
0.524442 0.796484 0.060345
0.701717 0.793794 0.057463
0.827539 0.791876 0.055290
0.952028 0.789970 0.053034
1.000000 0.788843 0.051654
0.000000 0.919339 0.062529
0.067937 0.917518 0.060695
0.206504 0.915465 0.058521
0.363096 0.913134 0.055914
0.519056 0.910801 0.053158
0.696995 0.908124 0.049817
0.823285 0.906214 0.047316
0.948235 0.904317 0.044734
1.000000 0.903195 0.043162
0.000000 0.986682 0.058630
0.064460 0.984866 0.056611
0.203336 0.982819 0.054228
0.360274 0.980494 0.051385
0.516577 0.978167 0.048392
0.694904 0.975498 0.044779
0.821467 0.973593 0.042083
0.946685 0.971702 0.039309
1.000000 0.970583 0.037622
0.018394 0.000000 0.211420
0.138553 0.000000 0.213228
0.273581 0.000000 0.214939
0.426338 0.000000 0.216461
0.578651 0.000000 0.217535
0.752641 0.000000 0.218215
0.876264 0.000000 0.218340
0.998685 0.000000 0.218166
1.000000 0.000000 0.217924
0.003127 0.112015 0.216417
0.124085 0.110133 0.217305
0.260004 0.108013 0.217980
0.413761 0.105604 0.218325
0.567065 0.103193 0.218221
0.742175 0.100427 0.217550
0.866588 0.098455 0.216711
0.989786 0.096495 0.215581
1.000000 0.095335 0.214772
0.000000 0.239218 0.218341
0.110691 0.237346 0.218193
0.247600 0.235236 0.217699
0.402468 0.232840 0.216718
0.556870 0.230441 0.215287
0.733225 0.227690 0.213092
0.858442 0.225727 0.211261
0.982210 0.223777 0.209436
1.000000 0.222624 0.208356
0.000000 0.382862 0.215761
0.099236 0.381002 0.214437
0.237248 0.378904 0.212617
0.393165 0.376521 0.210373
0.548257 0.374137 0.208126
0.724967 0.371401 0.205549
0.850230 0.369449 0.203711
0.974040 0.367511 0.201885
1.000000 0.366364 0.200805
0.000000 0.525817 0.208790
0.090638 0.523967 0.207037
0.228820 0.521881 0.205060
0.384790 0.519513 0.202815
0.539934 0.517141 0.200568
0.716703 0.514421 0.197991
0.842009 0.512481 0.196152
0.965860 0.510554 0.194325
1.000000 0.509413 0.193245
0.000000 0.688784 0.200120
0.080913 0.686946 0.198366
0.219149 0.684874 0.196389
0.375179 0.682521 0.194143
0.530383 0.680166 0.191896
0.707221 0.677464 0.189317
0.832618 0.675536 0.187446
0.956688 0.673621 0.185492
1.000000 0.672489 0.184291
0.000000 0.804361 0.193935
0.073974 0.802532 0.192181
0.212249 0.800469 0.190203
0.368343 0.798127 0.187942
0.523781 0.795783 0.185555
0.701129 0.793094 0.182638
0.827002 0.791175 0.180440
0.951542 0.789269 0.178160
1.000000 0.788142 0.176766
0.000000 0.918642 0.187769
0.067255 0.916821 0.185910
0.205879 0.914768 0.183708
0.362535 0.912437 0.181071
0.518558 0.910103 0.178286
0.696570 0.907426 0.174911
0.822910 0.905517 0.172387
0.947909 0.903620 0.169783
1.000000 0.902498 0.168197
0.000000 0.985987 0.183819
0.063876 0.984171 0.181776
0.202808 0.982124 0.179367
0.359810 0.979799 0.176494
0.516176 0.977472 0.173473
0.694575 0.974802 0.169828
0.821188 0.972898 0.167110
0.946456 0.971006 0.164314
1.000000 0.969887 0.162615
0.016284 0.000000 0.354317
0.136547 0.000000 0.355997
0.271690 0.000000 0.357565
0.424577 0.000000 0.358926
0.577020 0.000000 0.359843
0.751156 0.000000 0.360346
0.874881 0.000000 0.360346
0.997403 0.000000 0.360051
1.000000 0.000000 0.359737
0.001333 0.111197 0.358888
0.122393 0.109316 0.359653
0.258426 0.107195 0.360191
0.412312 0.104786 0.360382
0.565742 0.102375 0.360128
0.740996 0.099609 0.359288
0.865510 0.097637 0.358330
0.988808 0.095676 0.357082
1.000000 0.094517 0.356206
0.000000 0.238404 0.360353
0.109354 0.236533 0.360088
0.246374 0.234422 0.359464
0.401369 0.232026 0.358337
0.555896 0.229627 0.356762
0.732387 0.226876 0.354414
0.857613 0.224913 0.352587
0.981385 0.222963 0.350771
1.000000 0.221809 0.349698
0.000000 0.382054 0.357279
0.098302 0.380193 0.355844
0.236398 0.378095 0.353934
0.392321 0.375712 0.351703
0.547417 0.373327 0.349469
0.724134 0.370592 0.346907
0.849401 0.368640 0.345079
0.973215 0.366701 0.343264
1.000000 0.365554 0.342190
0.000000 0.525013 0.350129
0.089783 0.523163 0.348386
0.227970 0.521077 0.346420
0.383945 0.518708 0.344188
0.539094 0.516337 0.341954
0.715870 0.513617 0.339391
0.841179 0.511677 0.337563
0.965034 0.509749 0.335747
1.000000 0.508609 0.334672
0.000000 0.687985 0.341509
0.080058 0.686147 0.339765
0.218298 0.684075 0.337798
0.374334 0.681722 0.335566
0.529543 0.679367 0.333331
0.706390 0.676664 0.330764
0.831845 0.674737 0.328865
0.955973 0.672822 0.326882
1.000000 0.671689 0.325665
0.000000 0.803566 0.335358
0.073119 0.801737 0.333614
0.211398 0.799674 0.331647
0.367540 0.797332 0.329369
0.523051 0.794988 0.326947
0.700482 0.792298 0.323990
0.826413 0.790380 0.321764
0.951011 0.788474 0.319457
1.000000 0.787346 0.318048
0.000000 0.917850 0.329193
0.066501 0.916029 0.327307
0.205190 0.913977 0.325074
0.361919 0.911645 0.322403
0.518015 0.909312 0.319584
0.696108 0.906635 0.316172
0.822506 0.904725 0.313622
0.947562 0.902828 0.310993
1.000000 0.901706 0.309393
0.000000 0.985198 0.325186
0.063235 0.983382 0.323117
0.202232 0.981334 0.320678
0.359306 0.979009 0.317772
0.515743 0.976682 0.314719
0.694222 0.974012 0.311038
0.820892 0.972108 0.308296
0.946216 0.970216 0.305476
1.000000 0.969097 0.303763
0.014212 0.000000 0.496481
0.134580 0.000000 0.498034
0.269839 0.000000 0.499461
0.422856 0.000000 0.500664
0.575427 0.000000 0.501425
0.749708 0.000000 0.501752
0.873536 0.000000 0.501629
0.996159 0.000000 0.501213
1.000000 0.000000 0.500829
0.000000 0.110378 0.500630
0.120740 0.108497 0.501274
0.256887 0.106376 0.501676
0.410901 0.103967 0.501716
0.564458 0.101556 0.501313
0.739856 0.098790 0.500304
0.864470 0.096818 0.499228
0.987868 0.094857 0.497866
1.000000 0.093698 0.496922
0.000000 0.237590 0.501642
0.108055 0.235718 0.501261
0.245189 0.233608 0.500508
0.400309 0.231212 0.499236
0.554961 0.228813 0.497520
0.731553 0.226061 0.495063
0.856783 0.224098 0.493246
0.980560 0.222148 0.491442
1.000000 0.220995 0.490374
0.000000 0.381244 0.498079
0.097407 0.379383 0.496535
0.235548 0.377285 0.494586
0.391475 0.374902 0.492368
0.546577 0.372517 0.490147
0.723299 0.369781 0.487599
0.848571 0.367830 0.485782
0.972389 0.365891 0.483976
1.000000 0.364744 0.482908
0.000000 0.524208 0.490803
0.088927 0.522358 0.489069
0.227119 0.520272 0.487115
0.383099 0.517903 0.484896
0.538254 0.515532 0.482674
0.715035 0.512811 0.480126
0.840349 0.510871 0.478308
0.964208 0.508943 0.476502
1.000000 0.507803 0.475434
0.000000 0.687186 0.482231
0.079201 0.685348 0.480497
0.217447 0.683275 0.478542
0.373488 0.680922 0.476322
0.528702 0.678566 0.474100
0.705579 0.675864 0.471530
0.831093 0.673937 0.469602
0.955280 0.672022 0.467591
1.000000 0.670889 0.466356
0.000000 0.802770 0.476116
0.072263 0.800941 0.474381
0.210548 0.798878 0.472425
0.366760 0.796536 0.470113
0.522344 0.794191 0.467656
0.699858 0.791502 0.464660
0.825847 0.789583 0.462407
0.950502 0.787677 0.460073
1.000000 0.786550 0.458648
0.000000 0.917058 0.469935
0.065771 0.915237 0.468021
0.204525 0.913184 0.465758
0.361327 0.910853 0.463053
0.517494 0.908519 0.460201
0.695669 0.905842 0.456753
0.822124 0.903932 0.454177
0.947236 0.902035 0.451523
1.000000 0.900913 0.449908
0.000000 0.984407 0.465872
0.062617 0.982591 0.463776
0.201678 0.980544 0.461308
0.358824 0.978219 0.458370
0.515333 0.975892 0.455285
0.693893 0.973222 0.451569
0.820620 0.971318 0.448802
0.945999 0.969426 0.445958
1.000000 0.968307 0.444231
0.011887 0.000000 0.658491
0.132373 0.000000 0.659900
0.267764 0.000000 0.661166
0.420930 0.000000 0.662190
0.573648 0.000000 0.662774
0.748096 0.000000 0.662903
0.872041 0.000000 0.662640
0.994780 0.000000 0.662087
1.000000 0.000000 0.661623
0.000000 0.109439 0.662162
0.118894 0.107558 0.662668
0.255172 0.105437 0.662916
0.409332 0.103028 0.662785
0.563034 0.100617 0.662212
0.738596 0.097851 0.661014
0.863327 0.095878 0.659804
0.986838 0.093918 0.658311
1.000000 0.092758 0.657291
0.000000 0.236656 0.662659
0.106617 0.234784 0.662147
0.243878 0.232674 0.661247
0.399143 0.230277 0.659813
0.553938 0.227878 0.657936
0.730597 0.225126 0.655419
0.855832 0.223163 0.653614
0.979613 0.221213 0.651821
1.000000 0.220060 0.650760
0.000000 0.380315 0.658543
0.096421 0.378454 0.656887
0.234572 0.376356 0.654945
0.390505 0.373973 0.652741
0.545614 0.371588 0.650535
0.722343 0.368852 0.648003
0.847619 0.366901 0.646198
0.971442 0.364962 0.644404
1.000000 0.363815 0.643343
0.000000 0.523284 0.651186
0.087945 0.521434 0.649464
0.226143 0.519348 0.647522
0.382129 0.516979 0.645317
0.537290 0.514608 0.643110
0.714078 0.511888 0.640578
0.839397 0.509947 0.638772
0.963261 0.508019 0.636978
1.000000 0.506879 0.635916
0.000000 0.686268 0.642670
0.078219 0.684430 0.640947
0.216470 0.682358 0.639005
0.372517 0.680005 0.636799
0.527738 0.677649 0.634591
0.704678 0.674946 0.631999
0.830259 0.673019 0.630037
0.954513 0.671104 0.627994
1.000000 0.669971 0.626741
0.000000 0.801857 0.636594
0.071280 0.800027 0.634871
0.209597 0.797965 0.632909
0.365893 0.795623 0.630557
0.521561 0.793278 0.628060
0.699170 0.790588 0.625019
0.825226 0.788670 0.622735
0.949947 0.786763 0.620371
1.000000 0.785636 0.618929
0.000000 0.916149 0.630376
0.064962 0.914328 0.628430
0.203791 0.912275 0.626133
0.360676 0.909944 0.623390
0.516926 0.907610 0.620501
0.695193 0.904933 0.617011
0.821714 0.903023 0.614407
0.946891 0.901126 0.611724
1.000000 0.900003 0.610093
0.000000 0.983501 0.626249
0.061937 0.981685 0.624123
0.201072 0.979638 0.621621
0.358301 0.977313 0.618647
0.514891 0.974985 0.615526
0.693543 0.972315 0.611770
0.820335 0.970411 0.608976
0.945779 0.968519 0.606105
1.000000 0.967400 0.604362
0.010261 0.000000 0.773352
0.130832 0.000000 0.774660
0.266317 0.000000 0.775813
0.419589 0.000000 0.776710
0.572412 0.000000 0.777170
0.746979 0.000000 0.777158
0.871007 0.000000 0.776797
0.993829 0.000000 0.776147
1.000000 0.000000 0.775627
0.000000 0.108770 0.776687
0.117610 0.106888 0.777095
0.253981 0.104767 0.777235
0.408246 0.102358 0.776982
0.562051 0.099947 0.776291
0.737730 0.097181 0.774958
0.862543 0.095208 0.773654
0.986136 0.093248 0.772069
1.000000 0.092088 0.771018
0.000000 0.235989 0.776820
0.105623 0.234118 0.776216
0.242976 0.232007 0.775213
0.398344 0.229611 0.773663
0.553240 0.227212 0.771674
0.729914 0.224460 0.769155
0.855153 0.222497 0.767358
0.978938 0.220547 0.765573
1.000000 0.219393 0.764518
0.000000 0.379653 0.772314
0.095722 0.377792 0.770616
0.233876 0.375693 0.768683
0.389814 0.373311 0.766489
0.544926 0.370926 0.764293
0.721660 0.368189 0.761773
0.846940 0.366238 0.759976
0.970767 0.364299 0.758191
1.000000 0.363152 0.757134
0.000000 0.522626 0.764942
0.087245 0.520775 0.763227
0.225446 0.518689 0.761295
0.381437 0.516320 0.759100
0.536602 0.513949 0.756903
0.713395 0.511229 0.754382
0.838718 0.509288 0.752585
0.962585 0.507360 0.750799
1.000000 0.506220 0.749742
0.000000 0.685614 0.756465
0.077519 0.683776 0.754750
0.215774 0.681703 0.752816
0.371825 0.679350 0.750621
0.527050 0.676994 0.748423
0.704053 0.674292 0.745801
0.829683 0.672364 0.743816
0.953984 0.670449 0.741750
1.000000 0.669316 0.740483
0.000000 0.801206 0.750417
0.070580 0.799376 0.748702
0.208938 0.797313 0.746722
0.365294 0.794971 0.744342
0.521022 0.792626 0.741816
0.698698 0.789937 0.738744
0.824802 0.788018 0.736439
0.949569 0.786112 0.734054
1.000000 0.784984 0.732599
0.000000 0.915501 0.744158
0.064404 0.913680 0.742191
0.203286 0.911627 0.739870
0.360230 0.909295 0.737100
0.516539 0.906962 0.734185
0.694873 0.904284 0.730665
0.821440 0.902374 0.728040
0.946663 0.900477 0.725338
1.000000 0.899355 0.723696
0.000000 0.982855 0.739986
0.061471 0.981039 0.737839
0.200658 0.978991 0.735315
0.357946 0.976666 0.732315
0.514594 0.974339 0.729169
0.693312 0.971668 0.725385
0.820150 0.969764 0.722571
0.945639 0.967872 0.719681
1.000000 0.966753 0.717927
0.008673 0.000000 0.886896
0.129327 0.000000 0.888103
0.264907 0.000000 0.889145
0.418283 0.000000 0.889918
0.571210 0.000000 0.890255
0.745895 0.000000 0.890105
0.870006 0.000000 0.889646
0.992909 0.000000 0.888902
1.000000 0.000000 0.888326
0.000000 0.108104 0.889899
0.116361 0.106223 0.890211
0.252824 0.104102 0.890244
0.407193 0.101693 0.889872
0.561101 0.099282 0.889063
0.736896 0.096515 0.887598
0.861791 0.094542 0.886202
0.985461 0.092582 0.884529
1.000000 0.091423 0.883478
0.000000 0.235327 0.889675
0.104663 0.233456 0.888979
0.242107 0.231345 0.887875
0.397577 0.228949 0.886212
0.552557 0.226550 0.884131
0.729237 0.223798 0.881624
0.854478 0.221834 0.879835
0.978267 0.219884 0.878058
1.000000 0.218731 0.877007
0.000000 0.378995 0.884784
0.095026 0.377133 0.883078
0.233184 0.375035 0.881154
0.389127 0.372652 0.878970
0.544243 0.370267 0.876784
0.720982 0.367531 0.874276
0.846266 0.365579 0.872487
0.970095 0.363640 0.870709
1.000000 0.362493 0.869658
0.000000 0.521971 0.877430
0.086550 0.520121 0.875723
0.224755 0.518035 0.873799
0.380750 0.515666 0.871614
0.535919 0.513294 0.869427
0.712717 0.510574 0.866919
0.838043 0.508633 0.865129
0.961914 0.506706 0.863351
1.000000 0.505565 0.862299
0.000000 0.684964 0.868991
0.076823 0.683126 0.867284
0.215082 0.681053 0.865360
0.371137 0.678700 0.863174
0.526377 0.676344 0.860979
0.703448 0.673641 0.858324
0.829126 0.671714 0.856316
0.953474 0.669799 0.854228
1.000000 0.668666 0.852948
0.000000 0.800559 0.862971
0.069888 0.798729 0.861261
0.208298 0.796666 0.859257
0.364714 0.794324 0.856848
0.520501 0.791979 0.854295
0.698244 0.789289 0.851192
0.824395 0.787371 0.848865
0.949208 0.785464 0.846459
1.000000 0.784337 0.844992
0.000000 0.914857 0.856663
0.063866 0.913036 0.854674
0.202799 0.910983 0.852329
0.359803 0.908651 0.849532
0.516169 0.906317 0.846591
0.694569 0.903640 0.843043
0.821183 0.901730 0.840398
0.946452 0.899833 0.837677
1.000000 0.898710 0.836023
0.000000 0.982212 0.852446
0.061024 0.980396 0.850279
0.200263 0.978349 0.847731
0.357609 0.976024 0.844706
0.514314 0.973696 0.841535
0.693098 0.971026 0.837723
0.819982 0.969121 0.834890
0.945516 0.967229 0.831982
1.000000 0.966110 0.830217
0.007747 0.000000 0.953792
0.128450 0.000000 0.954941
0.264085 0.000000 0.955917
0.417524 0.000000 0.956617
0.570512 0.000000 0.956882
0.745266 0.000000 0.956651
0.869427 0.000000 0.956136
0.992378 0.000000 0.955336
1.000000 0.000000 0.954727
0.000000 0.107711 0.956600
0.115636 0.105829 0.956856
0.252153 0.103708 0.956827
0.406583 0.101299 0.956385
0.560551 0.098888 0.955507
0.736415 0.096122 0.953965
0.861358 0.094149 0.952514
0.985064 0.092188 0.950803
1.000000 0.091029 0.949755
0.000000 0.234936 0.956167
0.104108 0.233064 0.955417
0.241606 0.230954 0.954254
0.397135 0.228557 0.952524
0.552153 0.226158 0.950406
0.728836 0.223406 0.947905
0.854080 0.221443 0.946121
0.977870 0.219492 0.944349
1.000000 0.218339 0.943301
0.000000 0.378605 0.951057
0.094615 0.376744 0.949355
0.232775 0.374646 0.947437
0.388720 0.372263 0.945259
0.543839 0.369878 0.943078
0.720581 0.367142 0.940577
0.845867 0.365190 0.938793
0.969698 0.363251 0.937020
1.000000 0.362104 0.935972
0.000000 0.521584 0.943722
0.086138 0.519734 0.942020
0.224345 0.517648 0.940102
0.380343 0.515279 0.937923
0.535515 0.512907 0.935742
0.712316 0.510187 0.933240
0.837644 0.508246 0.931455
0.961517 0.506318 0.929682
1.000000 0.505178 0.928633
0.000000 0.684579 0.935307
0.076412 0.682741 0.933604
0.214672 0.680669 0.931685
0.370731 0.678315 0.929505
0.525986 0.675959 0.927307
0.703097 0.673257 0.924632
0.828803 0.671329 0.922611
0.953179 0.669414 0.920510
1.000000 0.668281 0.919223
0.000000 0.800176 0.929303
0.069485 0.798346 0.927591
0.207927 0.796284 0.925572
0.364379 0.793941 0.923147
0.520200 0.791596 0.920578
0.697983 0.788906 0.917457
0.824161 0.786988 0.915117
0.949002 0.785082 0.912699
1.000000 0.783954 0.911224
0.000000 0.914476 0.922960
0.063555 0.912655 0.920959
0.202519 0.910602 0.918599
0.359557 0.908270 0.915787
0.515958 0.905936 0.912831
0.694397 0.903259 0.909266
0.821038 0.901349 0.906610
0.946334 0.899452 0.903877
1.000000 0.898329 0.902216
0.000000 0.981833 0.918718
0.060767 0.980016 0.916538
0.200036 0.977969 0.913977
0.357417 0.975644 0.910937
0.514156 0.973316 0.907752
0.692978 0.970646 0.903924
0.819889 0.968741 0.901079
0.945451 0.966849 0.898160
1.000000 0.965730 0.896389
