flutter_app/assets/lut/cameras/d_classic.cube
TITLE "D Classic"
# DAZZ Camera LUT - D Classic
# Fixed v2 - Professional color science
LUT_3D_SIZE 33
0.027878 0.000000 0.000000
0.061074 0.000000 0.000000
0.095330 0.000000 0.000000
0.130310 0.000000 0.000000
0.165843 0.000000 0.000000
0.201826 0.000000 0.000000
0.238188 0.000000 0.000000
0.274879 0.000000 0.000000
0.311860 0.000000 0.000000
0.349142 0.000000 0.000000
0.386999 0.000000 0.000000
0.425075 0.000000 0.000000
0.463352 0.000000 0.000000
0.501816 0.000000 0.000000
0.540454 0.000000 0.000000
0.579257 0.000000 0.000000
0.618213 0.000000 0.000000
0.657315 0.000000 0.000000
0.696556 0.000000 0.000000
0.735927 0.000000 0.000000
0.775424 0.000000 0.000000
0.811722 0.000000 0.000000
0.847083 0.000000 0.000000
0.882541 0.000000 0.000000
0.918094 0.000000 0.000000
0.953737 0.000000 0.000000
0.989467 0.000000 0.000000
1.000000 0.000000 0.000000
1.000000 0.000000 0.000000
1.000000 0.000000 0.000000
1.000000 0.000000 0.000000
1.000000 0.000000 0.000000
1.000000 0.000000 0.000000
0.024471 0.000000 0.000000
0.057666 0.000000 0.000000
0.091923 0.000000 0.000000
0.126903 0.000000 0.000000
0.162436 0.000000 0.000000
0.198418 0.000000 0.000000
0.234780 0.000000 0.000000
0.271471 0.000000 0.000000
0.308453 0.000000 0.000000
0.345734 0.000000 0.000000
0.383592 0.000000 0.000000
0.421667 0.000000 0.000000
0.459944 0.000000 0.000000
0.498408 0.000000 0.000000
0.537047 0.000000 0.000000
0.575849 0.000000 0.000000
0.614806 0.000000 0.000000
0.653908 0.000000 0.000000
0.693148 0.000000 0.000000
0.732520 0.000000 0.000000
0.772017 0.000000 0.000000
0.808315 0.000000 0.000000
0.843675 0.000000 0.000000
0.879134 0.000000 0.000000
0.914686 0.000000 0.000000
0.950329 0.000000 0.000000
0.986060 0.000000 0.000000
1.000000 0.000000 0.000000
1.000000 0.000000 0.000000
1.000000 0.000000 0.000000
1.000000 0.000000 0.000000
1.000000 0.000000 0.000000
1.000000 0.000000 0.000000
0.021081 0.031211 0.000000
0.054276 0.030321 0.000000
0.088533 0.029402 0.000000
0.123513 0.028465 0.000000
0.159045 0.027512 0.000000
0.195028 0.026547 0.000000
0.231390 0.025573 0.000000
0.268081 0.024589 0.000000
0.305063 0.023598 0.000000
0.342344 0.022598 0.000000
0.380201 0.021583 0.000000
0.418277 0.020562 0.000000
0.456554 0.019536 0.000000
0.495018 0.018505 0.000000
0.533657 0.017469 0.000000
0.572459 0.016429 0.000000
0.611415 0.015385 0.000000
0.650518 0.014336 0.000000
0.689758 0.013284 0.000000
0.729129 0.012229 0.000000
0.768626 0.011170 0.000000
0.804924 0.010197 0.000000
0.840285 0.009249 0.000000
0.875744 0.008298 0.000000
0.911296 0.007345 0.000000
0.946939 0.006390 0.000000
0.982670 0.005432 0.000000
1.000000 0.004472 0.000000
1.000000 0.003509 0.000000
1.000000 0.002483 0.000000
1.000000 0.001397 0.000000
1.000000 0.000772 0.000000
1.000000 0.000772 0.000000
0.017707 0.066245 0.000000
0.050903 0.065355 0.000000
0.085159 0.064437 0.000000
0.120139 0.063499 0.000000
0.155672 0.062546 0.000000
0.191654 0.061582 0.000000
0.228017 0.060607 0.000000
0.264708 0.059623 0.000000
0.301689 0.058632 0.000000
0.338971 0.057632 0.000000
0.376828 0.056617 0.000000
0.414904 0.055597 0.000000
0.453181 0.054571 0.000000
0.491645 0.053539 0.000000
0.530283 0.052504 0.000000
0.569086 0.051463 0.000000
0.608042 0.050419 0.000000
0.647144 0.049371 0.000000
0.686384 0.048319 0.000000
0.725756 0.047263 0.000000
0.765253 0.046204 0.000000
0.801551 0.045231 0.000000
0.836912 0.044283 0.000000
0.872370 0.043333 0.000000
0.907923 0.042380 0.000000
0.943566 0.041424 0.000000
0.979296 0.040466 0.000000
1.000000 0.039506 0.000000
1.000000 0.038544 0.000000
1.000000 0.037517 0.000000
1.000000 0.036431 0.000000
1.000000 0.035806 0.000000
1.000000 0.035806 0.000000
0.014334 0.101279 0.000000
0.047529 0.100389 0.000000
0.081786 0.099471 0.000000
0.116766 0.098533 0.000000
0.152299 0.097581 0.000000
0.188281 0.096616 0.000000
0.224643 0.095641 0.000000
0.261334 0.094658 0.000000
0.298316 0.093666 0.000000
0.335597 0.092667 0.000000
0.373455 0.091652 0.000000
0.411530 0.090631 0.000000
0.449807 0.089605 0.000000
0.488271 0.088574 0.000000
0.526910 0.087538 0.000000
0.565712 0.086498 0.000000
0.604669 0.085453 0.000000
0.643771 0.084405 0.000000
0.683011 0.083353 0.000000
0.722383 0.082297 0.000000
0.761879 0.081239 0.000000
0.798178 0.080265 0.000000
0.833538 0.079317 0.000000
0.868997 0.078367 0.000000
0.904549 0.077414 0.000000
0.940192 0.076458 0.000000
0.975923 0.075500 0.000000
1.000000 0.074540 0.000000
1.000000 0.073578 0.000000
1.000000 0.072551 0.000000
1.000000 0.071465 0.000000
1.000000 0.070841 0.000000
1.000000 0.070841 0.000000
0.010960 0.136314 0.000000
0.044156 0.135424 0.000000
0.078412 0.134505 0.000000
0.113392 0.133567 0.000000
0.148925 0.132615 0.000000
0.184908 0.131650 0.000000
0.221270 0.130675 0.000000
0.257961 0.129692 0.000000
0.294943 0.128700 0.000000
0.332224 0.127701 0.000000
0.370081 0.126686 0.000000
0.408157 0.125665 0.000000
0.446434 0.124639 0.000000
0.484898 0.123608 0.000000
0.523536 0.122572 0.000000
0.562339 0.121532 0.000000
0.601295 0.120487 0.000000
0.640397 0.119439 0.000000
0.679638 0.118387 0.000000
0.719009 0.117332 0.000000
0.758506 0.116273 0.000000
0.794804 0.115300 0.000000
0.830165 0.114352 0.000000
0.865623 0.113401 0.000000
0.901176 0.112448 0.000000
0.936819 0.111492 0.000000
0.972549 0.110535 0.000000
1.000000 0.109574 0.000000
1.000000 0.108612 0.000000
1.000000 0.107585 0.000000
1.000000 0.106499 0.000000
1.000000 0.105875 0.000000
1.000000 0.105875 0.000000
0.007587 0.171348 0.000000
0.040782 0.170458 0.000000
0.075039 0.169540 0.000000
0.110019 0.168602 0.000000
0.145552 0.167649 0.000000
0.181534 0.166685 0.000000
0.217896 0.165710 0.000000
0.254587 0.164726 0.000000
0.291569 0.163735 0.000000
0.328851 0.162735 0.000000
0.366708 0.161720 0.000000
0.404783 0.160700 0.000000
0.443060 0.159673 0.000000
0.481524 0.158642 0.000000
0.520163 0.157606 0.000000
0.558965 0.156566 0.000000
0.597922 0.155522 0.000000
0.637024 0.154473 0.000000
0.676264 0.153421 0.000000
0.715636 0.152366 0.000000
0.755133 0.151307 0.000000
0.791431 0.150334 0.000000
0.826792 0.149386 0.000000
0.862250 0.148435 0.000000
0.897803 0.147482 0.000000
0.933446 0.146527 0.000000
0.969176 0.145569 0.000000
1.000000 0.144609 0.000000
1.000000 0.143646 0.000000
1.000000 0.142620 0.000000
1.000000 0.141534 0.000000
1.000000 0.140909 0.000000
1.000000 0.140909 0.000000
0.004214 0.206382 0.000000
0.037409 0.205492 0.000000
0.071666 0.204574 0.000000
0.106646 0.203636 0.000000
0.142178 0.202683 0.000000
0.178161 0.201719 0.000000
0.214523 0.200744 0.000000
0.251214 0.199760 0.000000
0.288196 0.198769 0.000000
0.325477 0.197769 0.000000
0.363334 0.196755 0.000000
0.401410 0.195734 0.000000
0.439687 0.194708 0.000000
0.478151 0.193676 0.000000
0.516790 0.192641 0.000000
0.555592 0.191600 0.000000
0.594548 0.190556 0.000000
0.633651 0.189508 0.000000
0.672891 0.188456 0.000000
0.712262 0.187400 0.000000
0.751759 0.186341 0.000000
0.788057 0.185368 0.000000
0.823418 0.184420 0.000000
0.858877 0.183470 0.000000
0.894429 0.182517 0.000000
0.930072 0.181561 0.000000
0.965802 0.180603 0.000000
1.000000 0.179643 0.000000
1.000000 0.178681 0.000000
1.000000 0.177654 0.000000
1.000000 0.176568 0.000000
1.000000 0.175943 0.000000
1.000000 0.175943 0.000000
0.000840 0.241416 0.000000
0.034035 0.240526 0.000000
0.068292 0.239608 0.000000
0.103272 0.238670 0.000000
0.138805 0.237718 0.000000
0.174787 0.236753 0.000000
0.211149 0.235778 0.000000
0.247841 0.234795 0.000000
0.284822 0.233803 0.000000
0.322104 0.232804 0.000000
0.359961 0.231789 0.000000
0.398037 0.230768 0.000000
0.436314 0.229742 0.000000
0.474778 0.228711 0.000000
0.513416 0.227675 0.000000
0.552219 0.226635 0.000000
0.591175 0.225590 0.000000
0.630277 0.224542 0.000000
0.669517 0.223490 0.000000
0.708889 0.222434 0.000000
0.748386 0.221376 0.000000
0.784684 0.220403 0.000000
0.820045 0.219455 0.000000
0.855503 0.218504 0.000000
0.891056 0.217551 0.000000
0.926699 0.216595 0.000000
0.962429 0.215637 0.000000
0.998244 0.214677 0.000000
1.000000 0.213715 0.000000
1.000000 0.212688 0.000000
1.000000 0.211602 0.000000
1.000000 0.210978 0.000000
1.000000 0.210978 0.000000
0.000000 0.276451 0.000000
0.030662 0.275561 0.000000
0.064919 0.274642 0.000000
0.099899 0.273705 0.000000
0.135432 0.272752 0.000000
0.171414 0.271787 0.000000
0.207776 0.270812 0.000000
0.244467 0.269829 0.000000
0.281449 0.268837 0.000000
0.318730 0.267838 0.000000
0.356588 0.266823 0.000000
0.394663 0.265802 0.000000
0.432940 0.264776 0.000000
0.471404 0.263745 0.000000
0.510043 0.262709 0.000000
0.548845 0.261669 0.000000
0.587802 0.260625 0.000000
0.626904 0.259576 0.000000
0.666144 0.258524 0.000000
0.705516 0.257469 0.000000
0.745012 0.256410 0.000000
0.781311 0.255437 0.000000
0.816671 0.254489 0.000000
0.852130 0.253538 0.000000
0.887682 0.252585 0.000000
0.923325 0.251630 0.000000
0.959056 0.250672 0.000000
0.994870 0.249712 0.000000
1.000000 0.248749 0.000000
1.000000 0.247722 0.000000
1.000000 0.246636 0.000000
1.000000 0.246012 0.000000
1.000000 0.246012 0.000000
0.000000 0.311485 0.000000
0.027289 0.310595 0.000000
0.061545 0.309677 0.000000
0.096525 0.308739 0.000000
0.132058 0.307786 0.000000
0.168041 0.306822 0.000000
0.204403 0.305847 0.000000
0.241094 0.304863 0.000000
0.278075 0.303872 0.000000
0.315357 0.302872 0.000000
0.353214 0.301857 0.000000
0.391290 0.300837 0.000000
0.429567 0.299810 0.000000
0.468031 0.298779 0.000000
0.506669 0.297743 0.000000
0.545472 0.296703 0.000000
0.584428 0.295659 0.000000
0.623530 0.294610 0.000000
0.662771 0.293559 0.000000
0.702142 0.292503 0.000000
0.741639 0.291444 0.000000
0.777937 0.290471 0.000000
0.813298 0.289523 0.000000
0.848756 0.288572 0.000000
0.884309 0.287619 0.000000
0.919952 0.286664 0.000000
0.955682 0.285706 0.000000
0.991497 0.284746 0.000000
1.000000 0.283783 0.000000
1.000000 0.282757 0.000000
1.000000 0.281671 0.000000
1.000000 0.281046 0.000000
1.000000 0.281046 0.000000
0.000000 0.346795 0.000000
0.023889 0.345905 0.000000
0.058145 0.344987 0.000000
0.093125 0.344049 0.000000
0.128658 0.343096 0.000000
0.164641 0.342132 0.000000
0.201003 0.341157 0.000000
0.237694 0.340173 0.000000
0.274675 0.339182 0.000000
0.311957 0.338182 0.000000
0.349814 0.337168 0.000000
0.387890 0.336147 0.000000
0.426167 0.335121 0.000000
0.464631 0.334089 0.000000
0.503269 0.333054 0.000000
0.542072 0.332013 0.000000
0.581028 0.330969 0.000000
0.620130 0.329921 0.000000
0.659371 0.328869 0.000000
0.698742 0.327813 0.000000
0.738239 0.326754 0.000000
0.774537 0.325781 0.000000
0.809898 0.324833 0.000000
0.845356 0.323883 0.000000
0.880909 0.322930 0.000000
0.916552 0.321974 0.000000
0.952282 0.321016 0.000000
0.988097 0.320056 0.000000
1.000000 0.319094 0.000000
1.000000 0.318067 0.000000
1.000000 0.316981 0.000000
1.000000 0.316356 0.000000
1.000000 0.316356 0.000000
0.000000 0.382183 0.000000
0.020481 0.381293 0.000000
0.054738 0.380375 0.000000
0.089718 0.379437 0.000000
0.125251 0.378485 0.000000
0.161233 0.377520 0.000000
0.197595 0.376545 0.000000
0.234286 0.375561 0.000000
0.271268 0.374570 0.000000
0.308550 0.373571 0.000000
0.346407 0.372556 0.000000
0.384482 0.371535 0.000000
0.422759 0.370509 0.000000
0.461223 0.369478 0.000000
0.499862 0.368442 0.000000
0.538664 0.367401 0.000000
0.577621 0.366357 0.000000
0.616723 0.365309 0.000000
0.655963 0.364257 0.000000
0.695335 0.363201 0.000000
0.734832 0.362142 0.000000
0.771130 0.361169 0.000000
0.806490 0.360221 0.000000
0.841949 0.359271 0.000000
0.877501 0.358318 0.000000
0.913145 0.357362 0.000000
0.948875 0.356404 0.000000
0.984689 0.355444 0.000000
1.000000 0.354482 0.000000
1.000000 0.353455 0.000000
1.000000 0.352369 0.000000
1.000000 0.351744 0.000000
1.000000 0.351744 0.000000
0.000000 0.417571 0.000000
0.017074 0.416681 0.000000
0.051330 0.415763 0.000000
0.086310 0.414825 0.000000
0.121843 0.413873 0.000000
0.157826 0.412908 0.000000
0.194188 0.411933 0.000000
0.230879 0.410950 0.000000
0.267861 0.409958 0.000000
0.305142 0.408959 0.000000
0.342999 0.407944 0.000000
0.381075 0.406923 0.000000
0.419352 0.405897 0.000000
0.457816 0.404866 0.000000
0.496454 0.403830 0.000000
0.535257 0.402790 0.000000
0.574213 0.401745 0.000000
0.613315 0.400697 0.000000
0.652556 0.399645 0.000000
0.691927 0.398590 0.000000
0.731424 0.397531 0.000000
0.767722 0.396558 0.000000
0.803083 0.395610 0.000000
0.838541 0.394659 0.000000
0.874094 0.393706 0.000000
0.909737 0.392750 0.000000
0.945467 0.391792 0.000000
0.981282 0.390832 0.000000
1.000000 0.389870 0.000000
1.000000 0.388843 0.000000
1.000000 0.387757 0.000000
1.000000 0.387133 0.000000
1.000000 0.387133 0.000000
0.000000 0.452960 0.000000
0.013666 0.452070 0.000000
0.047923 0.451151 0.000000
0.082903 0.450213 0.000000
0.118436 0.449261 0.000000
0.154418 0.448296 0.000000
0.190780 0.447321 0.000000
0.227471 0.446338 0.000000
0.264453 0.445346 0.000000
0.301735 0.444347 0.000000
0.339592 0.443332 0.000000
0.377667 0.442311 0.000000
0.415944 0.441285 0.000000
0.454408 0.440254 0.000000
0.493047 0.439218 0.000000
0.531849 0.438178 0.000000
0.570806 0.437133 0.000000
0.609908 0.436085 0.000000
0.649148 0.435033 0.000000
0.688520 0.433978 0.000000
0.728017 0.432919 0.000000
0.764315 0.431946 0.000000
0.799675 0.430998 0.000000
0.835134 0.430047 0.000000
0.870687 0.429094 0.000000
0.906330 0.428138 0.000000
0.942060 0.427181 0.000000
0.977874 0.426220 0.000000
1.000000 0.425258 0.000000
1.000000 0.424231 0.000000
1.000000 0.423145 0.000000
1.000000 0.422521 0.000000
1.000000 0.422521 0.000000
0.000000 0.488348 0.000000
0.010259 0.487458 0.000000
0.044516 0.486539 0.000000
0.079495 0.485602 0.000000
0.115028 0.484649 0.000000
0.151011 0.483684 0.000000
0.187373 0.482710 0.000000
0.224064 0.481726 0.000000
0.261046 0.480734 0.000000
0.298327 0.479735 0.000000
0.336184 0.478720 0.000000
0.374260 0.477699 0.000000
0.412537 0.476673 0.000000
0.451001 0.475642 0.000000
0.489640 0.474606 0.000000
0.528442 0.473566 0.000000
0.567398 0.472522 0.000000
0.606500 0.471473 0.000000
0.645741 0.470421 0.000000
0.685112 0.469366 0.000000
0.724609 0.468307 0.000000
0.760907 0.467334 0.000000
0.796268 0.466386 0.000000
0.831726 0.465435 0.000000
0.867279 0.464482 0.000000
0.902922 0.463527 0.000000
0.938652 0.462569 0.000000
0.974467 0.461609 0.000000
1.000000 0.460646 0.000000
1.000000 0.459619 0.000000
1.000000 0.458534 0.000000
1.000000 0.457909 0.000000
1.000000 0.457909 0.000000
0.000000 0.523736 0.000000
0.006851 0.522846 0.000000
0.041108 0.521928 0.000000
0.076088 0.520990 0.000000
0.111621 0.520037 0.000000
0.147603 0.519073 0.000000
0.183965 0.518098 0.000000
0.220656 0.517114 0.000000
0.257638 0.516123 0.000000
0.294920 0.515123 0.000000
0.332777 0.514108 0.000000
0.370852 0.513087 0.000000
0.409129 0.512061 0.000000
0.447593 0.511030 0.000000
0.486232 0.509994 0.000000
0.525034 0.508954 0.000000
0.563991 0.507910 0.000000
0.603093 0.506861 0.000000
0.642333 0.505809 0.000000
0.681705 0.504754 0.000000
0.721202 0.503695 0.000000
0.757500 0.502722 0.000000
0.792861 0.501774 0.000000
0.828319 0.500823 0.000000
0.863872 0.499870 0.000000
0.899515 0.498915 0.000000
0.935245 0.497957 0.000000
0.971059 0.496997 0.000000
1.000000 0.496034 0.000000
1.000000 0.495008 0.000000
1.000000 0.493922 0.000000
1.000000 0.493297 0.000000
1.000000 0.493297 0.000000
0.000000 0.559124 0.000000
0.003444 0.558234 0.000000
0.037701 0.557316 0.000000
0.072680 0.556378 0.000000
0.108213 0.555425 0.000000
0.144196 0.554461 0.000000
0.180558 0.553486 0.000000
0.217249 0.552502 0.000000
0.254231 0.551511 0.000000
0.291512 0.550511 0.000000
0.329369 0.549496 0.000000
0.367445 0.548476 0.000000
0.405722 0.547449 0.000000
0.444186 0.546418 0.000000
0.482825 0.545382 0.000000
0.521627 0.544342 0.000000
0.560583 0.543298 0.000000
0.599685 0.542250 0.000000
0.638926 0.541198 0.000000
0.678297 0.540142 0.000000
0.717794 0.539083 0.000000
0.754092 0.538110 0.000000
0.789453 0.537162 0.000000
0.824912 0.536212 0.000000
0.860464 0.535258 0.000000
0.896107 0.534303 0.000000
0.931837 0.533345 0.000000
0.967652 0.532385 0.000000
1.000000 0.531423 0.000000
1.000000 0.530396 0.000000
1.000000 0.529310 0.000000
1.000000 0.528685 0.000000
1.000000 0.528685 0.000000
0.000000 0.594512 0.000000
0.000036 0.593622 0.000000
0.034293 0.592704 0.000000
0.069273 0.591766 0.000000
0.104806 0.590813 0.000000
0.140788 0.589849 0.000000
0.177150 0.588874 0.000000
0.213841 0.587890 0.000000
0.250823 0.586899 0.000000
0.288105 0.585899 0.000000
0.325962 0.584885 0.000000
0.364037 0.583864 0.000000
0.402314 0.582838 0.000000
0.440778 0.581806 0.000000
0.479417 0.580771 0.000000
0.518219 0.579730 0.000000
0.557176 0.578686 0.000000
0.596278 0.577638 0.000000
0.635518 0.576586 0.000000
0.674890 0.575530 0.000000
0.714387 0.574471 0.000000
0.750685 0.573498 0.000000
0.786046 0.572550 0.000000
0.821504 0.571600 0.000000
0.857057 0.570647 0.000000
0.892700 0.569691 0.000000
0.928430 0.568733 0.000000
0.964244 0.567773 0.000000
1.000000 0.566811 0.000000
1.000000 0.565784 0.000000
1.000000 0.564698 0.000000
1.000000 0.564073 0.000000
1.000000 0.564073 0.000000
0.000000 0.629900 0.000000
0.000000 0.629010 0.000000
0.030886 0.628092 0.000000
0.065865 0.627154 0.000000
0.101398 0.626202 0.000000
0.137381 0.625237 0.000000
0.173743 0.624262 0.000000
0.210434 0.623278 0.000000
0.247416 0.622287 0.000000
0.284697 0.621288 0.000000
0.322554 0.620273 0.000000
0.360630 0.619252 0.000000
0.398907 0.618226 0.000000
0.437371 0.617195 0.000000
0.476010 0.616159 0.000000
0.514812 0.615119 0.000000
0.553768 0.614074 0.000000
0.592870 0.613026 0.000000
0.632111 0.611974 0.000000
0.671482 0.610918 0.000000
0.710979 0.609860 0.000000
0.747277 0.608886 0.000000
0.782638 0.607938 0.000000
0.818097 0.606988 0.000000
0.853649 0.606035 0.000000
0.889292 0.605079 0.000000
0.925022 0.604121 0.000000
0.960837 0.603161 0.000000
0.996733 0.602199 0.000000
1.000000 0.601172 0.000000
1.000000 0.600086 0.000000
1.000000 0.599461 0.000000
1.000000 0.599461 0.000000
0.000000 0.665288 0.000000
0.000000 0.664398 0.000000
0.027478 0.663480 0.000000
0.062458 0.662542 0.000000
0.097991 0.661590 0.000000
0.133973 0.660625 0.000000
0.170335 0.659650 0.000000
0.207026 0.658667 0.000000
0.244008 0.657675 0.000000
0.281290 0.656676 0.000000
0.319147 0.655661 0.000000
0.357222 0.654640 0.000000
0.395499 0.653614 0.000000
0.433964 0.652583 0.000000
0.472602 0.651547 0.000000
0.511404 0.650507 0.000000
0.550361 0.649462 0.000000
0.589463 0.648414 0.000000
0.628703 0.647362 0.000000
0.668075 0.646307 0.000000
0.707572 0.645248 0.000000
0.743870 0.644275 0.000000
0.779231 0.643327 0.000000
0.814689 0.642376 0.000000
0.850242 0.641423 0.000000
0.885885 0.640467 0.000000
0.921615 0.639509 0.000000
0.957430 0.638549 0.000000
0.993326 0.637587 0.000000
1.000000 0.636560 0.000000
1.000000 0.635474 0.000000
1.000000 0.634850 0.000000
1.000000 0.634850 0.000000
0.000000 0.700677 0.000000
0.000000 0.699787 0.000000
0.024071 0.698868 0.000000
0.059051 0.697930 0.000000
0.094583 0.696978 0.000000
0.130566 0.696013 0.000000
0.166928 0.695038 0.000000
0.203619 0.694055 0.000000
0.240601 0.693063 0.000000
0.277882 0.692064 0.000000
0.315739 0.691049 0.000000
0.353815 0.690028 0.000000
0.392092 0.689002 0.000000
0.430556 0.687971 0.000000
0.469195 0.686935 0.000000
0.507997 0.685895 0.000000
0.546953 0.684850 0.000000
0.586056 0.683802 0.000000
0.625296 0.682750 0.000000
0.664667 0.681695 0.000000
0.704164 0.680636 0.000000
0.740462 0.679663 0.000000
0.775823 0.678715 0.000000
0.811282 0.677764 0.000000
0.846834 0.676811 0.000000
0.882477 0.675855 0.000000
0.918207 0.674898 0.000000
0.954022 0.673937 0.000000
0.989918 0.672975 0.000000
1.000000 0.671948 0.000000
1.000000 0.670862 0.000000
1.000000 0.670238 0.000000
1.000000 0.670238 0.000000
0.000000 0.735506 0.000000
0.000000 0.734616 0.000000
0.020717 0.733698 0.000000
0.055697 0.732760 0.000000
0.091230 0.731808 0.000000
0.127212 0.730843 0.000000
0.163574 0.729868 0.000000
0.200265 0.728885 0.000000
0.237247 0.727893 0.000000
0.274528 0.726894 0.000000
0.312386 0.725879 0.000000
0.350461 0.724858 0.000000
0.388738 0.723832 0.000000
0.427202 0.722801 0.000000
0.465841 0.721765 0.000000
0.504643 0.720725 0.000000
0.543600 0.719680 0.000000
0.582702 0.718632 0.000000
0.621942 0.717580 0.000000
0.661314 0.716525 0.000000
0.700811 0.715466 0.000000
0.737109 0.714493 0.000000
0.772469 0.713545 0.000000
0.807928 0.712594 0.000000
0.843480 0.711641 0.000000
0.879123 0.710685 0.000000
0.914854 0.709727 0.000000
0.950668 0.708767 0.000000
0.986564 0.707805 0.000000
1.000000 0.706778 0.000000
1.000000 0.705692 0.000000
1.000000 0.705068 0.000000
1.000000 0.705068 0.000000
0.000000 0.767002 0.000000
0.000000 0.766112 0.000000
0.017684 0.765194 0.000000
0.052664 0.764256 0.000000
0.088197 0.763303 0.000000
0.124179 0.762339 0.000000
0.160542 0.761364 0.000000
0.197233 0.760380 0.000000
0.234214 0.759389 0.000000
0.271496 0.758389 0.000000
0.309353 0.757374 0.000000
0.347429 0.756354 0.000000
0.385706 0.755327 0.000000
0.424170 0.754296 0.000000
0.462808 0.753260 0.000000
0.501611 0.752220 0.000000
0.540567 0.751176 0.000000
0.579669 0.750127 0.000000
0.618909 0.749075 0.000000
0.658281 0.748020 0.000000
0.697778 0.746961 0.000000
0.734076 0.745988 0.000000
0.769437 0.745040 0.000000
0.804895 0.744089 0.000000
0.840448 0.743136 0.000000
0.876091 0.742181 0.000000
0.911821 0.741223 0.000000
0.947636 0.740263 0.000000
0.983532 0.739300 0.000000
1.000000 0.738274 0.000000
1.000000 0.737188 0.000000
1.000000 0.736563 0.000000
1.000000 0.736563 0.000000
0.000000 0.798497 0.000000
0.000000 0.797607 0.000000
0.014652 0.796689 0.000000
0.049631 0.795751 0.000000
0.085164 0.794799 0.000000
0.121147 0.793834 0.000000
0.157509 0.792859 0.000000
0.194200 0.791876 0.000000
0.231182 0.790884 0.000000
0.268463 0.789885 0.000000
0.306320 0.788870 0.000000
0.344396 0.787849 0.000000
0.382673 0.786823 0.000000
0.421137 0.785792 0.000000
0.459776 0.784756 0.000000
0.498578 0.783716 0.000000
0.537534 0.782671 0.000000
0.576636 0.781623 0.000000
0.615877 0.780571 0.000000
0.655248 0.779515 0.000000
0.694745 0.778457 0.000000
0.731043 0.777483 0.000000
0.766404 0.776535 0.000000
0.801863 0.775585 0.000000
0.837415 0.774632 0.000000
0.873058 0.773676 0.000000
0.908788 0.772718 0.000000
0.944603 0.771758 0.000000
0.980499 0.770796 0.000000
1.000000 0.769769 0.000000
1.000000 0.768683 0.000000
1.000000 0.768059 0.000000
1.000000 0.768059 0.000000
0.000000 0.829993 0.000000
0.000000 0.829103 0.000000
0.011619 0.828184 0.000000
0.046599 0.827247 0.000000
0.082132 0.826294 0.000000
0.118114 0.825329 0.000000
0.154476 0.824355 0.000000
0.191167 0.823371 0.000000
0.228149 0.822380 0.000000
0.265431 0.821380 0.000000
0.303288 0.820365 0.000000
0.341363 0.819344 0.000000
0.379640 0.818318 0.000000
0.418104 0.817287 0.000000
0.456743 0.816251 0.000000
0.495545 0.815211 0.000000
0.534502 0.814167 0.000000
0.573604 0.813118 0.000000
0.612844 0.812066 0.000000
0.652216 0.811011 0.000000
0.691713 0.809952 0.000000
0.728011 0.808979 0.000000
0.763371 0.808031 0.000000
0.798830 0.807080 0.000000
0.834382 0.806127 0.000000
0.870025 0.805172 0.000000
0.905756 0.804214 0.000000
0.941570 0.803254 0.000000
0.977466 0.802291 0.000000
1.000000 0.801265 0.000000
1.000000 0.800179 0.000000
1.000000 0.799554 0.000000
1.000000 0.799554 0.000000
0.000000 0.861488 0.000000
0.000000 0.860598 0.000000
0.008586 0.859680 0.000000
0.043566 0.858742 0.000000
0.079099 0.857790 0.000000
0.115081 0.856825 0.000000
0.151444 0.855850 0.000000
0.188135 0.854866 0.000000
0.225116 0.853875 0.000000
0.262398 0.852876 0.000000
0.300255 0.851861 0.000000
0.338331 0.850840 0.000000
0.376608 0.849814 0.000000
0.415072 0.848783 0.000000
0.453710 0.847747 0.000000
0.492513 0.846706 0.000000
0.531469 0.845662 0.000000
0.570571 0.844614 0.000000
0.609811 0.843562 0.000000
0.649183 0.842506 0.000000
0.688680 0.841447 0.000000
0.724978 0.840474 0.000000
0.760339 0.839526 0.000000
0.795797 0.838576 0.000000
0.831350 0.837623 0.000000
0.866993 0.836667 0.000000
0.902723 0.835709 0.000000
