flutter_app/assets/lut/cameras/d_classic.cube
TITLE "D Classic"
# DAZZ Camera LUT - D Classic
# Fixed v2 - Professional color science
LUT_3D_SIZE 5
0.027878 0.000000 0.000000
0.311860 0.000000 0.000000
0.618213 0.000000 0.000000
0.918094 0.000000 0.000000
1.000000 0.000000 0.000000
0.000840 0.241416 0.000000
0.284822 0.233803 0.000000
0.591175 0.225590 0.000000
0.891056 0.217551 0.000000
1.000000 0.210978 0.000000
0.000000 0.523736 0.000000
0.257638 0.516123 0.000000
0.563991 0.507910 0.000000
0.863872 0.499870 0.000000
1.000000 0.493297 0.000000
0.000000 0.798497 0.000000
0.231182 0.790884 0.000000
0.537534 0.782671 0.000000
0.837415 0.774632 0.000000
1.000000 0.768059 0.000000
0.000000 1.000000 0.000000
0.206608 1.000000 0.000000
0.512960 1.000000 0.000000
0.812841 1.000000 0.000000
1.000000 1.000000 0.000000
0.025203 0.000000 0.236310
0.309185 0.000000 0.228697
0.615538 0.000000 0.220484
0.915419 0.000000 0.212444
1.000000 0.000000 0.205871
0.000000 0.238741 0.209272
0.282147 0.231128 0.201659
0.588500 0.222915 0.193446
0.888381 0.214876 0.185406
1.000000 0.208302 0.178833
0.000000 0.521061 0.182088
0.254963 0.513447 0.174474
0.561316 0.505235 0.166262
0.861196 0.497195 0.158222
1.000000 0.490622 0.151649
0.000000 0.795822 0.155631
0.228507 0.788209 0.148018
0.534859 0.779996 0.139805
0.834740 0.771957 0.131766
1.000000 0.765383 0.125192
0.000000 1.000000 0.131057
0.203933 1.000000 0.123444
0.510285 1.000000 0.115231
0.810166 1.000000 0.107192
1.000000 1.000000 0.100618
0.022726 0.000000 0.513223
0.306708 0.000000 0.505610
0.613061 0.000000 0.497397
0.912941 0.000000 0.489358
1.000000 0.000000 0.482784
0.000000 0.236264 0.486185
0.279670 0.228651 0.478572
0.586023 0.220438 0.470359
0.885903 0.212398 0.462319
1.000000 0.205825 0.455746
0.000000 0.518583 0.459001
0.252486 0.510970 0.451388
0.558838 0.502757 0.443175
0.858719 0.494718 0.435135
1.000000 0.488145 0.428562
0.000000 0.793345 0.432544
0.226029 0.785732 0.424931
0.532382 0.777519 0.416718
0.832263 0.769479 0.408679
1.000000 0.762906 0.402106
0.000000 1.000000 0.407970
0.201455 1.000000 0.400357
0.507808 1.000000 0.392144
0.807689 1.000000 0.384105
1.000000 1.000000 0.377532
0.020311 0.000000 0.783159
0.304293 0.000000 0.775546
0.610646 0.000000 0.767333
0.910527 0.000000 0.759294
1.000000 0.000000 0.752720
0.000000 0.233849 0.756121
0.277255 0.226236 0.748508
0.583608 0.218023 0.740295
0.883488 0.209984 0.732255
1.000000 0.203410 0.725682
0.000000 0.516169 0.728937
0.250071 0.508555 0.721324
0.556424 0.500342 0.713111
0.856304 0.492303 0.705071
1.000000 0.485730 0.698498
0.000000 0.790930 0.702480
0.223614 0.783317 0.694867
0.529967 0.775104 0.686654
0.829848 0.767065 0.678615
1.000000 0.760491 0.672042
0.000000 1.000000 0.677906
0.199040 1.000000 0.670293
0.505393 1.000000 0.662080
0.805274 1.000000 0.654041
1.000000 1.000000 0.647468
0.018189 0.000000 1.000000
0.302171 0.000000 1.000000
0.608524 0.000000 1.000000
0.908404 0.000000 0.996532
1.000000 0.000000 0.989959
0.000000 0.231727 0.993359
0.275133 0.224114 0.985746
0.581485 0.215901 0.977533
0.881366 0.207861 0.969494
1.000000 0.201288 0.962921
0.000000 0.514046 0.966175
0.247949 0.506433 0.958562
0.554301 0.498220 0.950349
0.854182 0.490181 0.942310
1.000000 0.483607 0.935736
0.000000 0.788808 0.939719
0.221492 0.781195 0.932105
0.527845 0.772982 0.923893
0.827726 0.764942 0.915853
1.000000 0.758369 0.909280
0.000000 1.000000 0.915145
0.196918 1.000000 0.907532
0.503271 1.000000 0.899319
0.803152 1.000000 0.891279
1.000000 1.000000 0.884706
