flutter_app/assets/lut/cameras/d_classic.cube
TITLE "D Classic"
# DAZZ Camera LUT - D Classic
# Fixed v2 - Professional color science
LUT_3D_SIZE 9
0.027878 0.000000 0.000000
0.165843 0.000000 0.000000
0.311860 0.000000 0.000000
0.463352 0.000000 0.000000
0.618213 0.000000 0.000000
0.775424 0.000000 0.000000
0.918094 0.000000 0.000000
1.000000 0.000000 0.000000
1.000000 0.000000 0.000000
0.014334 0.101279 0.000000
0.152299 0.097581 0.000000
0.298316 0.093666 0.000000
0.449807 0.089605 0.000000
0.604669 0.085453 0.000000
0.761879 0.081239 0.000000
0.904549 0.077414 0.000000
1.000000 0.073578 0.000000
1.000000 0.070841 0.000000
0.000840 0.241416 0.000000
0.138805 0.237718 0.000000
0.284822 0.233803 0.000000
0.436314 0.229742 0.000000
0.591175 0.225590 0.000000
0.748386 0.221376 0.000000
0.891056 0.217551 0.000000
1.000000 0.213715 0.000000
1.000000 0.210978 0.000000
0.000000 0.382183 0.000000
0.125251 0.378485 0.000000
0.271268 0.374570 0.000000
0.422759 0.370509 0.000000
0.577621 0.366357 0.000000
0.734832 0.362142 0.000000
0.877501 0.358318 0.000000
1.000000 0.354482 0.000000
1.000000 0.351744 0.000000
0.000000 0.523736 0.000000
0.111621 0.520037 0.000000
0.257638 0.516123 0.000000
0.409129 0.512061 0.000000
0.563991 0.507910 0.000000
0.721202 0.503695 0.000000
0.863872 0.499870 0.000000
1.000000 0.496034 0.000000
1.000000 0.493297 0.000000
0.000000 0.665288 0.000000
0.097991 0.661590 0.000000
0.244008 0.657675 0.000000
0.395499 0.653614 0.000000
0.550361 0.649462 0.000000
0.707572 0.645248 0.000000
0.850242 0.641423 0.000000
0.993326 0.637587 0.000000
1.000000 0.634850 0.000000
0.000000 0.798497 0.000000
0.085164 0.794799 0.000000
0.231182 0.790884 0.000000
0.382673 0.786823 0.000000
0.537534 0.782671 0.000000
0.694745 0.778457 0.000000
0.837415 0.774632 0.000000
0.980499 0.770796 0.000000
1.000000 0.768059 0.000000
0.000000 0.924479 0.000000
0.073034 0.920780 0.000000
0.219051 0.916866 0.000000
0.370542 0.912805 0.000000
0.525404 0.908653 0.000000
0.682615 0.904438 0.000000
0.825284 0.900614 0.000000
0.968368 0.896778 0.000000
1.000000 0.894040 0.000000
0.000000 1.000000 0.000000
0.060590 1.000000 0.000000
0.206608 1.000000 0.000000
0.358099 1.000000 0.000000
0.512960 1.000000 0.000000
0.670171 1.000000 0.000000
0.812841 1.000000 0.000000
0.955925 1.000000 0.000000
1.000000 1.000000 0.000000
0.026484 0.000000 0.093162
0.164449 0.000000 0.089463
0.310466 0.000000 0.085549
0.461957 0.000000 0.081487
0.616819 0.000000 0.077336
0.774029 0.000000 0.073121
0.916699 0.000000 0.069296
1.000000 0.000000 0.065460
1.000000 0.000000 0.062723
0.012939 0.099885 0.079617
0.150904 0.096186 0.075919
0.296921 0.092272 0.072004
0.448413 0.088210 0.067943
0.603274 0.084059 0.063791
0.760485 0.079844 0.059576
0.903155 0.076019 0.055752
1.000000 0.072183 0.051916
1.000000 0.069446 0.049178
0.000000 0.240022 0.066124
0.137410 0.236323 0.062425
0.283428 0.232409 0.058510
0.434919 0.228347 0.054449
0.589780 0.224196 0.050297
0.746991 0.219981 0.046083
0.889661 0.216156 0.042258
1.000000 0.212320 0.038422
1.000000 0.209583 0.035685
0.000000 0.380789 0.052569
0.123856 0.377090 0.048871
0.269873 0.373176 0.044956
0.421365 0.369114 0.040895
0.576226 0.364963 0.036743
0.733437 0.360748 0.032529
0.876107 0.356923 0.028704
1.000000 0.353087 0.024868
1.000000 0.350350 0.022131
0.000000 0.522341 0.038939
0.110226 0.518643 0.035241
0.256244 0.514728 0.031326
0.407735 0.510667 0.027265
0.562596 0.506515 0.023113
0.719807 0.502301 0.018899
0.862477 0.498476 0.015074
1.000000 0.494640 0.011238
1.000000 0.491903 0.008501
0.000000 0.663894 0.025309
0.096596 0.660195 0.021611
0.242614 0.656281 0.017696
0.394105 0.652219 0.013635
0.548966 0.648068 0.009483
0.706177 0.643853 0.005269
0.848847 0.640028 0.001444
0.991931 0.636192 0.000000
1.000000 0.633455 0.000000
0.000000 0.797103 0.012483
0.083770 0.793404 0.008784
0.229787 0.789490 0.004870
0.381278 0.785428 0.000808
0.536140 0.781277 0.000000
0.693351 0.777062 0.000000
0.836021 0.773237 0.000000
0.979104 0.769401 0.000000
1.000000 0.766664 0.000000
0.000000 0.923085 0.000352
0.071639 0.919386 0.000000
0.217656 0.915471 0.000000
0.369148 0.911410 0.000000
0.524009 0.907258 0.000000
0.681220 0.903044 0.000000
0.823890 0.899219 0.000000
0.966974 0.895383 0.000000
1.000000 0.892646 0.000000
0.000000 1.000000 0.000000
0.059196 1.000000 0.000000
0.205213 1.000000 0.000000
0.356704 1.000000 0.000000
0.511566 1.000000 0.000000
0.668777 1.000000 0.000000
0.811447 1.000000 0.000000
0.954530 1.000000 0.000000
1.000000 1.000000 0.000000
0.025203 0.000000 0.236310
0.163168 0.000000 0.232611
0.309185 0.000000 0.228697
0.460677 0.000000 0.224635
0.615538 0.000000 0.220484
0.772749 0.000000 0.216269
0.915419 0.000000 0.212444
1.000000 0.000000 0.208609
1.000000 0.000000 0.205871
0.011659 0.098604 0.222765
0.149623 0.094906 0.219067
0.295641 0.090991 0.215152
0.447132 0.086930 0.211091
0.601993 0.082778 0.206939
0.759204 0.078563 0.202725
0.901874 0.074739 0.198900
1.000000 0.070903 0.195064
1.000000 0.068165 0.192327
0.000000 0.238741 0.209272
0.136130 0.235043 0.205573
0.282147 0.231128 0.201659
0.433638 0.227067 0.197597
0.588500 0.222915 0.193446
0.745711 0.218700 0.189231
0.888381 0.214876 0.185406
1.000000 0.211040 0.181570
1.000000 0.208302 0.178833
0.000000 0.379508 0.195718
0.122576 0.375809 0.192019
0.268593 0.371895 0.188104
0.420084 0.367834 0.184043
0.574946 0.363682 0.179891
0.732156 0.359467 0.175677
0.874826 0.355643 0.171852
1.000000 0.351807 0.168016
1.000000 0.349069 0.165279
0.000000 0.521061 0.182088
0.108946 0.517362 0.178389
0.254963 0.513447 0.174474
0.406454 0.509386 0.170413
0.561316 0.505235 0.166262
0.718527 0.501020 0.162047
0.861196 0.497195 0.158222
1.000000 0.493359 0.154386
1.000000 0.490622 0.151649
0.000000 0.662613 0.168458
0.095316 0.658915 0.164759
0.241333 0.655000 0.160845
0.392824 0.650939 0.156783
0.547686 0.646787 0.152632
0.704897 0.642573 0.148417
0.847566 0.638748 0.144592
0.990650 0.634912 0.140756
1.000000 0.632174 0.138019
0.000000 0.795822 0.155631
0.082489 0.792123 0.151933
0.228507 0.788209 0.148018
0.379998 0.784148 0.143957
0.534859 0.779996 0.139805
0.692070 0.775781 0.135590
0.834740 0.771957 0.131766
0.977824 0.768121 0.127930
1.000000 0.765383 0.125192
0.000000 0.921804 0.143501
0.070359 0.918105 0.139802
0.216376 0.914191 0.135887
0.367867 0.910129 0.131826
0.522729 0.905978 0.127674
0.679939 0.901763 0.123460
0.822609 0.897938 0.119635
0.965693 0.894103 0.115799
1.000000 0.891365 0.113062
0.000000 1.000000 0.131057
0.057915 1.000000 0.127359
0.203933 1.000000 0.123444
0.355424 1.000000 0.119383
0.510285 1.000000 0.115231
0.667496 1.000000 0.111016
0.810166 1.000000 0.107192
0.953250 1.000000 0.103356
1.000000 1.000000 0.100618
0.023958 0.000000 0.375530
0.161923 0.000000 0.371831
0.307940 0.000000 0.367917
0.459431 0.000000 0.363855
0.614292 0.000000 0.359704
0.771503 0.000000 0.355489
0.914173 0.000000 0.351664
1.000000 0.000000 0.347828
1.000000 0.000000 0.345091
0.010413 0.097359 0.361985
0.148378 0.093660 0.358287
0.294395 0.089746 0.354372
0.445887 0.085684 0.350311
0.600748 0.081533 0.346159
0.757959 0.077318 0.341945
0.900629 0.073493 0.338120
1.000000 0.069657 0.334284
1.000000 0.066920 0.331547
0.000000 0.237496 0.348492
0.134884 0.233797 0.344793
0.280902 0.229883 0.340879
0.432393 0.225821 0.336817
0.587254 0.221670 0.332666
0.744465 0.217455 0.328451
0.887135 0.213630 0.324626
1.000000 0.209794 0.320790
1.000000 0.207057 0.318053
0.000000 0.378263 0.334938
0.121330 0.374564 0.331239
0.267347 0.370649 0.327324
0.418839 0.366588 0.323263
0.573700 0.362437 0.319111
0.730911 0.358222 0.314897
0.873581 0.354397 0.311072
1.000000 0.350561 0.307236
1.000000 0.347824 0.304499
0.000000 0.519815 0.321308
0.107700 0.516117 0.317609
0.253717 0.512202 0.313694
0.405209 0.508141 0.309633
0.560070 0.503989 0.305481
0.717281 0.499774 0.301267
0.859951 0.495950 0.297442
1.000000 0.492114 0.293606
1.000000 0.489376 0.290869
0.000000 0.661368 0.307678
0.094070 0.657669 0.303979
0.240088 0.653755 0.300064
0.391579 0.649693 0.296003
0.546440 0.645542 0.291852
0.703651 0.641327 0.287637
0.846321 0.637502 0.283812
0.989405 0.633666 0.279976
1.000000 0.630929 0.277239
0.000000 0.794577 0.294851
0.081244 0.790878 0.291153
0.227261 0.786963 0.287238
0.378752 0.782902 0.283177
0.533614 0.778751 0.279025
0.690825 0.774536 0.274810
0.833494 0.770711 0.270986
0.976578 0.766875 0.267150
1.000000 0.764138 0.264412
0.000000 0.920558 0.282721
0.069113 0.916860 0.279022
0.215130 0.912945 0.275107
0.366622 0.908884 0.271046
0.521483 0.904732 0.266894
0.678694 0.900518 0.262680
0.821364 0.896693 0.258855
0.964448 0.892857 0.255019
1.000000 0.890120 0.252282
0.000000 1.000000 0.270277
0.056670 1.000000 0.266579
0.202687 1.000000 0.262664
0.354178 1.000000 0.258603
0.509040 1.000000 0.254451
0.666251 1.000000 0.250236
0.808920 1.000000 0.246412
0.952004 1.000000 0.242576
1.000000 1.000000 0.239838
0.022726 0.000000 0.513223
0.160691 0.000000 0.509524
0.306708 0.000000 0.505610
0.458199 0.000000 0.501549
0.613061 0.000000 0.497397
0.770272 0.000000 0.493182
0.912941 0.000000 0.489358
1.000000 0.000000 0.485522
1.000000 0.000000 0.482784
0.009181 0.096127 0.499679
0.147146 0.092428 0.495980
0.293164 0.088514 0.492065
0.444655 0.084452 0.488004
0.599516 0.080301 0.483852
0.756727 0.076086 0.479638
0.899397 0.072261 0.475813
1.000000 0.068425 0.471977
1.000000 0.065688 0.469240
0.000000 0.236264 0.486185
0.133653 0.232565 0.482486
0.279670 0.228651 0.478572
0.431161 0.224589 0.474510
0.586023 0.220438 0.470359
0.743233 0.216223 0.466144
0.885903 0.212398 0.462319
1.000000 0.208563 0.458484
1.000000 0.205825 0.455746
0.000000 0.377031 0.472631
0.120098 0.373332 0.468932
0.266116 0.369418 0.465018
0.417607 0.365356 0.460956
0.572468 0.361205 0.456805
0.729679 0.356990 0.452590
0.872349 0.353165 0.448765
1.000000 0.349329 0.444929
1.000000 0.346592 0.442192
0.000000 0.518583 0.459001
0.106468 0.514885 0.455302
0.252486 0.510970 0.451388
0.403977 0.506909 0.447326
0.558838 0.502757 0.443175
0.716049 0.498543 0.438960
0.858719 0.494718 0.435135
1.000000 0.490882 0.431299
1.000000 0.488145 0.428562
0.000000 0.660136 0.445371
0.092838 0.656437 0.441672
0.238856 0.652523 0.437758
0.390347 0.648462 0.433696
0.545208 0.644310 0.429545
0.702419 0.640095 0.425330
0.845089 0.636270 0.421505
0.988173 0.632435 0.417669
1.000000 0.629697 0.414932
0.000000 0.793345 0.432544
0.080012 0.789646 0.428846
0.226029 0.785732 0.424931
0.377521 0.781670 0.420870
0.532382 0.777519 0.416718
0.689593 0.773304 0.412504
0.832263 0.769479 0.408679
0.975347 0.765643 0.404843
1.000000 0.762906 0.402106
0.000000 0.919327 0.420414
0.067881 0.915628 0.416715
0.213899 0.911713 0.412801
0.365390 0.907652 0.408739
0.520251 0.903501 0.404588
0.677462 0.899286 0.400373
0.820132 0.895461 0.396548
0.963216 0.891625 0.392712
1.000000 0.888888 0.389975
0.000000 1.000000 0.407970
0.055438 1.000000 0.404272
0.201455 1.000000 0.400357
0.352947 1.000000 0.396296
0.507808 1.000000 0.392144
0.665019 1.000000 0.387930
0.807689 1.000000 0.384105
0.950773 1.000000 0.380269
1.000000 1.000000 0.377532
0.021512 0.000000 0.648960
0.159476 0.000000 0.645262
0.305494 0.000000 0.641347
0.456985 0.000000 0.637286
0.611846 0.000000 0.633134
0.769057 0.000000 0.628920
0.911727 0.000000 0.625095
1.000000 0.000000 0.621259
1.000000 0.000000 0.618522
0.007967 0.094913 0.635416
0.145932 0.091214 0.631717
0.291949 0.087299 0.627803
0.443440 0.083238 0.623741
0.598302 0.079086 0.619590
0.755513 0.074872 0.615375
0.898183 0.071047 0.611550
1.000000 0.067211 0.607714
1.000000 0.064474 0.604977
0.000000 0.235050 0.621922
0.132438 0.231351 0.618224
0.278456 0.227436 0.614309
0.429947 0.223375 0.610248
0.584808 0.219224 0.606096
0.742019 0.215009 0.601882
0.884689 0.211184 0.598057
1.000000 0.207348 0.594221
1.000000 0.204611 0.591484
0.000000 0.375817 0.608368
0.118884 0.372118 0.604669
0.264901 0.368203 0.600755
0.416393 0.364142 0.596694
0.571254 0.359990 0.592542
0.728465 0.355776 0.588327
0.871135 0.351951 0.584502
1.000000 0.348115 0.580667
1.000000 0.345378 0.577929
0.000000 0.517369 0.594738
0.105254 0.513670 0.591039
0.251271 0.509756 0.587125
0.402763 0.505695 0.583064
0.557624 0.501543 0.578912
0.714835 0.497328 0.574697
0.857505 0.493504 0.570873
1.000000 0.489668 0.567037
1.000000 0.486930 0.564299
0.000000 0.658922 0.581108
0.091624 0.655223 0.577409
0.237641 0.651308 0.573495
0.389133 0.647247 0.569434
0.543994 0.643096 0.565282
0.701205 0.638881 0.561067
0.843875 0.635056 0.557243
0.986959 0.631220 0.553407
1.000000 0.628483 0.550669
0.000000 0.792131 0.568282
0.078798 0.788432 0.564583
0.224815 0.784517 0.560668
0.376306 0.780456 0.556607
0.531168 0.776304 0.552456
0.688379 0.772090 0.548241
0.831048 0.768265 0.544416
0.974132 0.764429 0.540580
1.000000 0.761692 0.537843
0.000000 0.918112 0.556151
0.066667 0.914414 0.552452
0.212684 0.910499 0.548538
0.364176 0.906438 0.544477
0.519037 0.902286 0.540325
0.676248 0.898072 0.536110
0.818918 0.894247 0.532285
0.962002 0.890411 0.528450
1.000000 0.887674 0.525712
0.000000 1.000000 0.543708
0.054224 1.000000 0.540009
0.200241 1.000000 0.536094
0.351732 1.000000 0.532033
0.506594 1.000000 0.527882
0.663805 1.000000 0.523667
0.806474 1.000000 0.519842
0.949558 1.000000 0.516006
1.000000 1.000000 0.513269
0.020311 0.000000 0.783159
0.158276 0.000000 0.779460
0.304293 0.000000 0.775546
0.455784 0.000000 0.771485
0.610646 0.000000 0.767333
0.767857 0.000000 0.763118
0.910527 0.000000 0.759294
1.000000 0.000000 0.755458
1.000000 0.000000 0.752720
0.006767 0.093712 0.769615
0.144731 0.090013 0.765916
0.290749 0.086099 0.762001
0.442240 0.082038 0.757940
0.597101 0.077886 0.753788
0.754312 0.073671 0.749574
0.896982 0.069847 0.745749
1.000000 0.066011 0.741913
1.000000 0.063273 0.739176
0.000000 0.233849 0.756121
0.131238 0.230150 0.752422
0.277255 0.226236 0.748508
0.428746 0.222175 0.744447
0.583608 0.218023 0.740295
0.740819 0.213808 0.736080
0.883488 0.209984 0.732255
1.000000 0.206148 0.728420
1.000000 0.203410 0.725682
0.000000 0.374616 0.742567
0.117683 0.370917 0.738868
0.263701 0.367003 0.734954
0.415192 0.362942 0.730892
0.570053 0.358790 0.726741
0.727264 0.354575 0.722526
0.869934 0.350750 0.718701
1.000000 0.346915 0.714865
1.000000 0.344177 0.712128
0.000000 0.516169 0.728937
0.104054 0.512470 0.725238
0.250071 0.508555 0.721324
0.401562 0.504494 0.717262
0.556424 0.500342 0.713111
0.713634 0.496128 0.708896
0.856304 0.492303 0.705071
0.999388 0.488467 0.701235
1.000000 0.485730 0.698498
0.000000 0.657721 0.715307
0.090424 0.654022 0.711608
0.236441 0.650108 0.707694
0.387932 0.646047 0.703632
0.542794 0.641895 0.699481
0.700004 0.637680 0.695266
0.842674 0.633856 0.691441
0.985758 0.630020 0.687605
1.000000 0.627282 0.684868
0.000000 0.790930 0.702480
0.077597 0.787231 0.698782
0.223614 0.783317 0.694867
0.375106 0.779256 0.690806
0.529967 0.775104 0.686654
0.687178 0.770889 0.682440
0.829848 0.767065 0.678615
0.972932 0.763229 0.674779
1.000000 0.760491 0.672042
0.000000 0.916912 0.690350
0.065466 0.913213 0.686651
0.211484 0.909299 0.682737
0.362975 0.905237 0.678675
0.517836 0.901086 0.674524
0.675047 0.896871 0.670309
0.817717 0.893046 0.666484
0.960801 0.889210 0.662648
1.000000 0.886473 0.659911
0.000000 1.000000 0.677906
0.053023 1.000000 0.674208
0.199040 1.000000 0.670293
0.350532 1.000000 0.666232
0.505393 1.000000 0.662080
0.662604 1.000000 0.657866
0.805274 1.000000 0.654041
0.948358 1.000000 0.650205
1.000000 1.000000 0.647468
0.019239 0.000000 0.903044
0.157203 0.000000 0.899345
0.303221 0.000000 0.895430
0.454712 0.000000 0.891369
0.609573 0.000000 0.887217
0.766784 0.000000 0.883003
0.909454 0.000000 0.879178
1.000000 0.000000 0.875342
1.000000 0.000000 0.872605
0.005694 0.092640 0.889499
0.143659 0.088941 0.885800
0.289676 0.085026 0.881886
0.441167 0.080965 0.877825
0.596029 0.076813 0.873673
0.753240 0.072599 0.869458
0.895910 0.068774 0.865634
1.000000 0.064938 0.861798
1.000000 0.062201 0.859060
0.000000 0.232777 0.876005
0.130165 0.229078 0.872307
0.276183 0.225163 0.868392
0.427674 0.221102 0.864331
0.582535 0.216951 0.860179
0.739746 0.212736 0.855965
0.882416 0.208911 0.852140
1.000000 0.205075 0.848304
1.000000 0.202338 0.845567
0.000000 0.373544 0.862451
0.116611 0.369845 0.858753
0.262628 0.365930 0.854838
0.414120 0.361869 0.850777
0.568981 0.357717 0.846625
0.726192 0.353503 0.842410
0.868862 0.349678 0.838586
1.000000 0.345842 0.834750
1.000000 0.343105 0.832012
0.000000 0.515096 0.848821
0.102981 0.511397 0.845123
0.248998 0.507483 0.841208
0.400490 0.503422 0.837147
0.555351 0.499270 0.832995
0.712562 0.495055 0.828781
0.855232 0.491231 0.824956
0.998316 0.487395 0.821120
1.000000 0.484657 0.818383
0.000000 0.656649 0.835191
0.089351 0.652950 0.831493
0.235368 0.649035 0.827578
0.386860 0.644974 0.823517
0.541721 0.640823 0.819365
0.698932 0.636608 0.815151
0.841602 0.632783 0.811326
0.984686 0.628947 0.807490
1.000000 0.626210 0.804753
0.000000 0.789858 0.822365
0.076525 0.786159 0.818666
0.222542 0.782244 0.814752
0.374033 0.778183 0.810690
0.528895 0.774031 0.806539
0.686105 0.769817 0.802324
0.828775 0.765992 0.798499
0.971859 0.762156 0.794663
1.000000 0.759419 0.791926
0.000000 0.915839 0.810234
0.064394 0.912141 0.806536
0.210411 0.908226 0.802621
0.361903 0.904165 0.798560
0.516764 0.900013 0.794408
0.673975 0.895799 0.790193
0.816645 0.891974 0.786369
0.959729 0.888138 0.782533
1.000000 0.885401 0.779795
0.000000 1.000000 0.797791
0.051951 1.000000 0.794092
0.197968 1.000000 0.790178
0.349459 1.000000 0.786116
0.504321 1.000000 0.781965
0.661532 1.000000 0.777750
0.804201 1.000000 0.773925
0.947285 1.000000 0.770089
1.000000 1.000000 0.767352
0.018189 0.000000 1.000000
0.156154 0.000000 1.000000
0.302171 0.000000 1.000000
0.453662 0.000000 1.000000
0.608524 0.000000 1.000000
0.765734 0.000000 1.000000
0.908404 0.000000 0.996532
1.000000 0.000000 0.992696
1.000000 0.000000 0.989959
0.004644 0.091590 1.000000
0.142609 0.087891 1.000000
0.288626 0.083977 0.999240
0.440118 0.079915 0.995178
0.594979 0.075764 0.991027
0.752190 0.071549 0.986812
0.894860 0.067724 0.982987
1.000000 0.063888 0.979152
1.000000 0.061151 0.976414
0.000000 0.231727 0.993359
0.129115 0.228028 0.989661
0.275133 0.224114 0.985746
0.426624 0.220052 0.981685
0.581485 0.215901 0.977533
0.738696 0.211686 0.973319
0.881366 0.207861 0.969494
1.000000 0.204025 0.965658
1.000000 0.201288 0.962921
0.000000 0.372494 0.979805
0.115561 0.368795 0.976106
0.261578 0.364880 0.972192
0.413070 0.360819 0.968131
0.567931 0.356668 0.963979
0.725142 0.352453 0.959764
0.867812 0.348628 0.955940
1.000000 0.344792 0.952104
1.000000 0.342055 0.949366
0.000000 0.514046 0.966175
0.101931 0.510348 0.962476
0.247949 0.506433 0.958562
0.399440 0.502372 0.954501
0.554301 0.498220 0.950349
0.711512 0.494005 0.946134
0.854182 0.490181 0.942310
0.997266 0.486345 0.938474
1.000000 0.483607 0.935736
0.000000 0.655599 0.952545
0.088301 0.651900 0.948847
0.234319 0.647986 0.944932
0.385810 0.643924 0.940871
0.540671 0.639773 0.936719
0.697882 0.635558 0.932504
0.840552 0.631733 0.928680
0.983636 0.627897 0.924844
1.000000 0.625160 0.922106
0.000000 0.788808 0.939719
0.075475 0.785109 0.936020
0.221492 0.781195 0.932105
0.372983 0.777133 0.928044
0.527845 0.772982 0.923893
0.685056 0.768767 0.919678
0.827726 0.764942 0.915853
0.970809 0.761106 0.912017
1.000000 0.758369 0.909280
0.000000 0.914790 0.927588
0.063344 0.911091 0.923889
0.209361 0.907176 0.919975
0.360853 0.903115 0.915914
0.515714 0.898963 0.911762
0.672925 0.894749 0.907547
0.815595 0.890924 0.903723
0.958679 0.887088 0.899887
1.000000 0.884351 0.897149
0.000000 1.000000 0.915145
0.050901 1.000000 0.911446
0.196918 1.000000 0.907532
0.348409 1.000000 0.903470
0.503271 1.000000 0.899319
0.660482 1.000000 0.895104
0.803152 1.000000 0.891279
0.946235 1.000000 0.887443
1.000000 1.000000 0.884706
