flutter_app/assets/lut/cameras/fisheye.cube
TITLE "Fisheye Lomo v2"
LUT_3D_SIZE 33
0.000000 0.000000 0.007500
0.016239 0.000000 0.007382
0.038471 0.000000 0.007265
0.067548 0.000000 0.007111
0.096853 0.000000 0.006956
0.127511 0.000000 0.006793
0.158170 0.000000 0.006631
0.188828 0.000000 0.006469
0.221434 0.000000 0.006296
0.261193 0.000000 0.006086
0.300951 0.000000 0.005875
0.340709 0.000000 0.005665
0.380468 0.000000 0.005455
0.420226 0.000000 0.005244
0.459985 0.000000 0.005034
0.499743 0.000000 0.004823
0.538278 0.000000 0.004619
0.574848 0.000000 0.004426
0.611417 0.000000 0.004232
0.647987 0.000000 0.004039
0.681753 0.000000 0.003860
0.712534 0.000000 0.003697
0.743315 0.000000 0.003534
0.774095 0.000000 0.003371
0.804876 0.000000 0.003208
0.835657 0.000000 0.003046
0.866438 0.000000 0.002883
0.897218 0.000000 0.002720
0.920811 0.000000 0.002595
0.940601 0.000000 0.002490
0.960391 0.000000 0.002385
0.980181 0.000000 0.002281
0.983188 0.000000 0.002265
0.000000 0.020896 0.007126
0.016538 0.020896 0.007009
0.038770 0.020896 0.006891
0.067846 0.020896 0.006737
0.097152 0.020896 0.006582
0.127810 0.020896 0.006420
0.158469 0.020896 0.006258
0.189127 0.020896 0.006095
0.221733 0.020896 0.005923
0.261491 0.020896 0.005712
0.301250 0.020896 0.005502
0.341008 0.020896 0.005291
0.380767 0.020896 0.005081
0.420525 0.020896 0.004871
0.460284 0.020896 0.004660
0.500042 0.020896 0.004450
0.538577 0.020896 0.004246
0.575146 0.020896 0.004052
0.611716 0.020896 0.003859
0.648286 0.020896 0.003665
0.682052 0.020896 0.003486
0.712833 0.020896 0.003324
0.743614 0.020896 0.003161
0.774394 0.020896 0.002998
0.805175 0.020896 0.002835
0.835956 0.020896 0.002672
0.866737 0.020896 0.002509
0.897517 0.020896 0.002346
0.921110 0.020896 0.002221
0.940900 0.020896 0.002117
0.960690 0.020896 0.002012
0.980480 0.020896 0.001907
0.983487 0.020896 0.001891
0.000000 0.041746 0.006754
0.016836 0.041746 0.006636
0.039068 0.041746 0.006518
0.068145 0.041746 0.006364
0.097450 0.041746 0.006209
0.128108 0.041746 0.006047
0.158767 0.041746 0.005885
0.189426 0.041746 0.005722
0.222031 0.041746 0.005550
0.261790 0.041746 0.005339
0.301548 0.041746 0.005129
0.341307 0.041746 0.004919
0.381065 0.041746 0.004708
0.420824 0.041746 0.004498
0.460582 0.041746 0.004287
0.500340 0.041746 0.004077
0.538875 0.041746 0.003873
0.575445 0.041746 0.003679
0.612014 0.041746 0.003486
0.648584 0.041746 0.003292
0.682350 0.041746 0.003114
0.713131 0.041746 0.002951
0.743912 0.041746 0.002788
0.774693 0.041746 0.002625
0.805473 0.041746 0.002462
0.836254 0.041746 0.002299
0.867035 0.041746 0.002136
0.897816 0.041746 0.001973
0.921409 0.041746 0.001848
0.941198 0.041746 0.001744
0.960988 0.041746 0.001639
0.980778 0.041746 0.001534
0.983785 0.041746 0.001518
0.000000 0.069914 0.006250
0.017239 0.069914 0.006132
0.039471 0.069914 0.006015
0.068548 0.069914 0.005861
0.097853 0.069914 0.005706
0.128511 0.069914 0.005543
0.159170 0.069914 0.005381
0.189828 0.069914 0.005219
0.222434 0.069914 0.005046
0.262193 0.069914 0.004836
0.301951 0.069914 0.004625
0.341710 0.069914 0.004415
0.381468 0.069914 0.004205
0.421226 0.069914 0.003994
0.460985 0.069914 0.003784
0.500743 0.069914 0.003573
0.539278 0.069914 0.003369
0.575848 0.069914 0.003176
0.612417 0.069914 0.002982
0.648987 0.069914 0.002789
0.682753 0.069914 0.002610
0.713534 0.069914 0.002447
0.744315 0.069914 0.002284
0.775096 0.069914 0.002121
0.805876 0.069914 0.001958
0.836657 0.069914 0.001795
0.867438 0.069914 0.001633
0.898218 0.069914 0.001470
0.921811 0.069914 0.001345
0.941601 0.069914 0.001240
0.961391 0.069914 0.001135
0.981181 0.069914 0.001031
0.984188 0.069914 0.001015
0.000000 0.098160 0.005745
0.017643 0.098160 0.005627
0.039875 0.098160 0.005510
0.068952 0.098160 0.005356
0.098257 0.098160 0.005201
0.128915 0.098160 0.005038
0.159574 0.098160 0.004876
0.190233 0.098160 0.004714
0.222838 0.098160 0.004541
0.262597 0.098160 0.004331
0.302355 0.098160 0.004120
0.342114 0.098160 0.003910
0.381872 0.098160 0.003700
0.421630 0.098160 0.003489
0.461389 0.098160 0.003279
0.501147 0.098160 0.003068
0.539682 0.098160 0.002864
0.576252 0.098160 0.002671
0.612821 0.098160 0.002477
0.649391 0.098160 0.002284
0.683157 0.098160 0.002105
0.713938 0.098160 0.001942
0.744719 0.098160 0.001779
0.775500 0.098160 0.001616
0.806280 0.098160 0.001453
0.837061 0.098160 0.001290
0.867842 0.098160 0.001128
0.898622 0.098160 0.000965
0.922215 0.098160 0.000840
0.942005 0.098160 0.000735
0.961795 0.098160 0.000630
0.981585 0.098160 0.000526
0.984592 0.098160 0.000510
0.000000 0.127924 0.005213
0.018069 0.127924 0.005095
0.040301 0.127924 0.004977
0.069377 0.127924 0.004823
0.098683 0.127924 0.004668
0.129341 0.127924 0.004506
0.160000 0.127924 0.004344
0.190658 0.127924 0.004182
0.223264 0.127924 0.004009
0.263022 0.127924 0.003799
0.302781 0.127924 0.003588
0.342539 0.127924 0.003378
0.382298 0.127924 0.003167
0.422056 0.127924 0.002957
0.461815 0.127924 0.002746
0.501573 0.127924 0.002536
0.540108 0.127924 0.002332
0.576677 0.127924 0.002139
0.613247 0.127924 0.001945
0.649817 0.127924 0.001751
0.683583 0.127924 0.001573
0.714364 0.127924 0.001410
0.745145 0.127924 0.001247
0.775925 0.127924 0.001084
0.806706 0.127924 0.000921
0.837487 0.127924 0.000758
0.868267 0.127924 0.000595
0.899048 0.127924 0.000432
0.922641 0.127924 0.000308
0.942431 0.127924 0.000203
0.962221 0.127924 0.000098
0.982006 0.127924 0.000000
0.985000 0.127924 0.000000
0.000000 0.157688 0.004681
0.018495 0.157688 0.004563
0.040727 0.157688 0.004445
0.069803 0.157688 0.004291
0.099108 0.157688 0.004136
0.129767 0.157688 0.003974
0.160425 0.157688 0.003812
0.191084 0.157688 0.003649
0.223690 0.157688 0.003477
0.263448 0.157688 0.003266
0.303207 0.157688 0.003056
0.342965 0.157688 0.002846
0.382724 0.157688 0.002635
0.422482 0.157688 0.002425
0.462240 0.157688 0.002214
0.501999 0.157688 0.002004
0.540534 0.157688 0.001800
0.577103 0.157688 0.001606
0.613673 0.157688 0.001413
0.650242 0.157688 0.001219
0.684009 0.157688 0.001041
0.714790 0.157688 0.000878
0.745570 0.157688 0.000715
0.776351 0.157688 0.000552
0.807132 0.157688 0.000389
0.837913 0.157688 0.000226
0.868693 0.157688 0.000063
0.899394 0.157688 0.000000
0.922887 0.157688 0.000000
0.942593 0.157688 0.000000
0.962299 0.157688 0.000000
0.982006 0.157688 0.000000
0.985000 0.157688 0.000000
0.000000 0.187452 0.004148
0.018920 0.187452 0.004031
0.041153 0.187452 0.003913
0.070229 0.187452 0.003759
0.099534 0.187452 0.003604
0.130193 0.187452 0.003442
0.160851 0.187452 0.003279
0.191510 0.187452 0.003117
0.224115 0.187452 0.002945
0.263874 0.187452 0.002734
0.303632 0.187452 0.002524
0.343391 0.187452 0.002313
0.383149 0.187452 0.002103
0.422908 0.187452 0.001893
0.462666 0.187452 0.001682
0.502425 0.187452 0.001472
0.540959 0.187452 0.001268
0.577529 0.187452 0.001074
0.614098 0.187452 0.000881
0.650668 0.187452 0.000687
0.684435 0.187452 0.000508
0.715215 0.187452 0.000346
0.745996 0.187452 0.000183
0.776777 0.187452 0.000020
0.807443 0.187452 0.000000
0.838093 0.187452 0.000000
0.868744 0.187452 0.000000
0.899394 0.187452 0.000000
0.922887 0.187452 0.000000
0.942593 0.187452 0.000000
0.962299 0.187452 0.000000
0.982006 0.187452 0.000000
0.985000 0.187452 0.000000
0.000000 0.217217 0.003616
0.019346 0.217217 0.003498
0.041578 0.217217 0.003381
0.070655 0.217217 0.003227
0.099960 0.217217 0.003072
0.130618 0.217217 0.002910
0.161277 0.217217 0.002747
0.191936 0.217217 0.002585
0.224541 0.217217 0.002412
0.264300 0.217217 0.002202
0.304058 0.217217 0.001992
0.343817 0.217217 0.001781
0.383575 0.217217 0.001571
0.423333 0.217217 0.001360
0.463092 0.217217 0.001150
0.502850 0.217217 0.000940
0.541385 0.217217 0.000736
0.577955 0.217217 0.000542
0.614524 0.217217 0.000348
0.651094 0.217217 0.000155
0.684841 0.217217 0.000000
0.715492 0.217217 0.000000
0.746142 0.217217 0.000000
0.776793 0.217217 0.000000
0.807443 0.217217 0.000000
0.838093 0.217217 0.000000
0.868744 0.217217 0.000000
0.899394 0.217217 0.000000
0.922887 0.217217 0.000000
0.942593 0.217217 0.000000
0.962299 0.217217 0.000000
0.982006 0.217217 0.000000
0.985000 0.217217 0.000000
0.000000 0.255712 0.002928
0.019897 0.255712 0.002810
0.042129 0.255712 0.002693
0.071205 0.255712 0.002539
0.100510 0.255712 0.002384
0.131169 0.255712 0.002221
0.161828 0.255712 0.002059
0.192486 0.255712 0.001897
0.225092 0.255712 0.001724
0.264850 0.255712 0.001514
0.304609 0.255712 0.001303
0.344367 0.255712 0.001093
0.384126 0.255712 0.000882
0.423884 0.255712 0.000672
0.463643 0.255712 0.000462
0.503401 0.255712 0.000251
0.541936 0.255712 0.000047
0.578388 0.255712 0.000000
0.614803 0.255712 0.000000
0.651218 0.255712 0.000000
0.684841 0.255712 0.000000
0.715492 0.255712 0.000000
0.746142 0.255712 0.000000
0.776793 0.255712 0.000000
0.807443 0.255712 0.000000
0.838093 0.255712 0.000000
0.868744 0.255712 0.000000
0.899394 0.255712 0.000000
0.922887 0.255712 0.000000
0.942593 0.255712 0.000000
0.962299 0.255712 0.000000
0.982006 0.255712 0.000000
0.985000 0.255712 0.000000
0.000000 0.294311 0.002238
0.020449 0.294311 0.002120
0.042681 0.294311 0.002002
0.071757 0.294311 0.001848
0.101062 0.294311 0.001693
0.131721 0.294311 0.001531
0.162380 0.294311 0.001369
0.193038 0.294311 0.001207
0.225644 0.294311 0.001034
0.265402 0.294311 0.000824
0.305161 0.294311 0.000613
0.344919 0.294311 0.000403
0.384678 0.294311 0.000192
0.424422 0.294311 0.000000
0.464012 0.294311 0.000000
0.503602 0.294311 0.000000
0.541974 0.294311 0.000000
0.578388 0.294311 0.000000
0.614803 0.294311 0.000000
0.651218 0.294311 0.000000
0.684841 0.294311 0.000000
0.715492 0.294311 0.000000
0.746142 0.294311 0.000000
0.776793 0.294311 0.000000
0.807443 0.294311 0.000000
0.838093 0.294311 0.000000
0.868744 0.294311 0.000000
0.899394 0.294311 0.000000
0.922887 0.294311 0.000000
0.942593 0.294311 0.000000
0.962299 0.294311 0.000000
0.982006 0.294311 0.000000
0.985000 0.294311 0.000000
0.000000 0.332909 0.001548
0.021001 0.332909 0.001430
0.043233 0.332909 0.001312
0.072309 0.332909 0.001158
0.101615 0.332909 0.001003
0.132273 0.332909 0.000841
0.162932 0.332909 0.000679
0.193590 0.332909 0.000516
0.226196 0.332909 0.000344
0.265955 0.332909 0.000133
0.305651 0.332909 0.000000
0.345242 0.332909 0.000000
0.384832 0.332909 0.000000
0.424422 0.332909 0.000000
0.464012 0.332909 0.000000
0.503602 0.332909 0.000000
0.541974 0.332909 0.000000
0.578388 0.332909 0.000000
0.614803 0.332909 0.000000
0.651218 0.332909 0.000000
0.684841 0.332909 0.000000
0.715492 0.332909 0.000000
0.746142 0.332909 0.000000
0.776793 0.332909 0.000000
0.807443 0.332909 0.000000
0.838093 0.332909 0.000000
0.868744 0.332909 0.000000
0.899394 0.332909 0.000000
0.922887 0.332909 0.000000
0.942593 0.332909 0.000000
0.962299 0.332909 0.000000
0.982006 0.332909 0.000000
0.985000 0.332909 0.000000
0.000000 0.371508 0.000857
0.021553 0.371508 0.000740
0.043785 0.371508 0.000622
0.072862 0.371508 0.000468
0.102167 0.371508 0.000313
0.132825 0.371508 0.000151
0.163475 0.371508 0.000000
0.194004 0.371508 0.000000
0.226471 0.371508 0.000000
0.266061 0.371508 0.000000
0.305651 0.371508 0.000000
0.345242 0.371508 0.000000
0.384832 0.371508 0.000000
0.424422 0.371508 0.000000
0.464012 0.371508 0.000000
0.503602 0.371508 0.000000
0.541974 0.371508 0.000000
0.578388 0.371508 0.000000
0.614803 0.371508 0.000000
0.651218 0.371508 0.000000
0.684841 0.371508 0.000000
0.715492 0.371508 0.000000
0.746142 0.371508 0.000000
0.776793 0.371508 0.000000
0.807443 0.371508 0.000000
0.838093 0.371508 0.000000
0.868744 0.371508 0.000000
0.899394 0.371508 0.000000
0.922887 0.371508 0.000000
0.942593 0.371508 0.000000
0.962299 0.371508 0.000000
0.982006 0.371508 0.000000
0.985000 0.371508 0.000000
0.000000 0.410106 0.000167
0.022105 0.410106 0.000050
0.044283 0.410106 0.000000
0.073236 0.410106 0.000000
0.102417 0.410106 0.000000
0.132946 0.410106 0.000000
0.163475 0.410106 0.000000
0.194004 0.410106 0.000000
0.226471 0.410106 0.000000
0.266061 0.410106 0.000000
0.305651 0.410106 0.000000
0.345242 0.410106 0.000000
0.384832 0.410106 0.000000
0.424422 0.410106 0.000000
0.464012 0.410106 0.000000
0.503602 0.410106 0.000000
0.541974 0.410106 0.000000
0.578388 0.410106 0.000000
0.614803 0.410106 0.000000
0.651218 0.410106 0.000000
0.684841 0.410106 0.000000
0.715492 0.410106 0.000000
0.746142 0.410106 0.000000
0.776793 0.410106 0.000000
0.807443 0.410106 0.000000
0.838093 0.410106 0.000000
0.868744 0.410106 0.000000
0.899394 0.410106 0.000000
0.922887 0.410106 0.000000
0.942593 0.410106 0.000000
0.962299 0.410106 0.000000
0.982006 0.410106 0.000000
0.985000 0.410106 0.000000
0.000000 0.448705 0.000000
0.022145 0.448705 0.000000
0.044283 0.448705 0.000000
0.073236 0.448705 0.000000
0.102417 0.448705 0.000000
0.132946 0.448705 0.000000
0.163475 0.448705 0.000000
0.194004 0.448705 0.000000
0.226471 0.448705 0.000000
0.266061 0.448705 0.000000
0.305651 0.448705 0.000000
0.345242 0.448705 0.000000
0.384832 0.448705 0.000000
0.424422 0.448705 0.000000
0.464012 0.448705 0.000000
0.503602 0.448705 0.000000
0.541974 0.448705 0.000000
0.578388 0.448705 0.000000
0.614803 0.448705 0.000000
0.651218 0.448705 0.000000
0.684841 0.448705 0.000000
0.715492 0.448705 0.000000
0.746142 0.448705 0.000000
0.776793 0.448705 0.000000
0.807443 0.448705 0.000000
0.838093 0.448705 0.000000
0.868744 0.448705 0.000000
0.899394 0.448705 0.000000
0.922887 0.448705 0.000000
0.942593 0.448705 0.000000
0.962299 0.448705 0.000000
0.982006 0.448705 0.000000
0.985000 0.448705 0.000000
0.000000 0.487303 0.000000
0.022145 0.487303 0.000000
0.044283 0.487303 0.000000
0.073236 0.487303 0.000000
0.102417 0.487303 0.000000
0.132946 0.487303 0.000000
0.163475 0.487303 0.000000
0.194004 0.487303 0.000000
0.226471 0.487303 0.000000
0.266061 0.487303 0.000000
0.305651 0.487303 0.000000
0.345242 0.487303 0.000000
0.384832 0.487303 0.000000
0.424422 0.487303 0.000000
0.464012 0.487303 0.000000
0.503602 0.487303 0.000000
0.541974 0.487303 0.000000
0.578388 0.487303 0.000000
0.614803 0.487303 0.000000
0.651218 0.487303 0.000000
0.684841 0.487303 0.000000
0.715492 0.487303 0.000000
0.746142 0.487303 0.000000
0.776793 0.487303 0.000000
0.807443 0.487303 0.000000
0.838093 0.487303 0.000000
0.868744 0.487303 0.000000
0.899394 0.487303 0.000000
0.922887 0.487303 0.000000
0.942593 0.487303 0.000000
0.962299 0.487303 0.000000
0.982006 0.487303 0.000000
0.985000 0.487303 0.000000
0.000000 0.525902 0.000000
0.022145 0.525902 0.000000
0.044283 0.525902 0.000000
0.073236 0.525902 0.000000
0.102417 0.525902 0.000000
0.132946 0.525902 0.000000
0.163475 0.525902 0.000000
0.194004 0.525902 0.000000
0.226471 0.525902 0.000000
0.266061 0.525902 0.000000
0.305651 0.525902 0.000000
0.345242 0.525902 0.000000
0.384832 0.525902 0.000000
0.424422 0.525902 0.000000
0.464012 0.525902 0.000000
0.503602 0.525902 0.000000
0.541974 0.525902 0.000000
0.578388 0.525902 0.000000
0.614803 0.525902 0.000000
0.651218 0.525902 0.000000
0.684841 0.525902 0.000000
0.715492 0.525902 0.000000
0.746142 0.525902 0.000000
0.776793 0.525902 0.000000
0.807443 0.525902 0.000000
0.838093 0.525902 0.000000
0.868744 0.525902 0.000000
0.899394 0.525902 0.000000
0.922887 0.525902 0.000000
0.942593 0.525902 0.000000
0.962299 0.525902 0.000000
0.982006 0.525902 0.000000
0.985000 0.525902 0.000000
0.000000 0.561488 0.000000
0.022145 0.561488 0.000000
0.044283 0.561488 0.000000
0.073236 0.561488 0.000000
0.102417 0.561488 0.000000
0.132946 0.561488 0.000000
0.163475 0.561488 0.000000
0.194004 0.561488 0.000000
0.226471 0.561488 0.000000
0.266061 0.561488 0.000000
0.305651 0.561488 0.000000
0.345242 0.561488 0.000000
0.384832 0.561488 0.000000
0.424422 0.561488 0.000000
0.464012 0.561488 0.000000
0.503602 0.561488 0.000000
0.541974 0.561488 0.000000
0.578388 0.561488 0.000000
0.614803 0.561488 0.000000
0.651218 0.561488 0.000000
0.684841 0.561488 0.000000
0.715492 0.561488 0.000000
0.746142 0.561488 0.000000
0.776793 0.561488 0.000000
0.807443 0.561488 0.000000
0.838093 0.561488 0.000000
0.868744 0.561488 0.000000
0.899394 0.561488 0.000000
0.922887 0.561488 0.000000
0.942593 0.561488 0.000000
0.962299 0.561488 0.000000
0.982006 0.561488 0.000000
0.985000 0.561488 0.000000
0.000000 0.596991 0.000000
0.022145 0.596991 0.000000
0.044283 0.596991 0.000000
0.073236 0.596991 0.000000
0.102417 0.596991 0.000000
0.132946 0.596991 0.000000
0.163475 0.596991 0.000000
0.194004 0.596991 0.000000
0.226471 0.596991 0.000000
0.266061 0.596991 0.000000
0.305651 0.596991 0.000000
0.345242 0.596991 0.000000
0.384832 0.596991 0.000000
0.424422 0.596991 0.000000
0.464012 0.596991 0.000000
0.503602 0.596991 0.000000
0.541974 0.596991 0.000000
0.578388 0.596991 0.000000
0.614803 0.596991 0.000000
0.651218 0.596991 0.000000
0.684841 0.596991 0.000000
0.715492 0.596991 0.000000
0.746142 0.596991 0.000000
0.776793 0.596991 0.000000
0.807443 0.596991 0.000000
0.838093 0.596991 0.000000
0.868744 0.596991 0.000000
0.899394 0.596991 0.000000
0.922887 0.596991 0.000000
0.942593 0.596991 0.000000
0.962299 0.596991 0.000000
0.982006 0.596991 0.000000
0.985000 0.596991 0.000000
0.000000 0.632494 0.000000
0.022145 0.632494 0.000000
0.044283 0.632494 0.000000
0.073236 0.632494 0.000000
0.102417 0.632494 0.000000
0.132946 0.632494 0.000000
0.163475 0.632494 0.000000
0.194004 0.632494 0.000000
0.226471 0.632494 0.000000
0.266061 0.632494 0.000000
0.305651 0.632494 0.000000
0.345242 0.632494 0.000000
0.384832 0.632494 0.000000
0.424422 0.632494 0.000000
0.464012 0.632494 0.000000
0.503602 0.632494 0.000000
0.541974 0.632494 0.000000
0.578388 0.632494 0.000000
0.614803 0.632494 0.000000
0.651218 0.632494 0.000000
0.684841 0.632494 0.000000
0.715492 0.632494 0.000000
0.746142 0.632494 0.000000
0.776793 0.632494 0.000000
0.807443 0.632494 0.000000
0.838093 0.632494 0.000000
0.868744 0.632494 0.000000
0.899394 0.632494 0.000000
0.922887 0.632494 0.000000
0.942593 0.632494 0.000000
0.962299 0.632494 0.000000
0.982006 0.632494 0.000000
0.985000 0.632494 0.000000
0.000000 0.667996 0.000000
0.022145 0.667996 0.000000
0.044283 0.667996 0.000000
0.073236 0.667996 0.000000
0.102417 0.667996 0.000000
0.132946 0.667996 0.000000
0.163475 0.667996 0.000000
0.194004 0.667996 0.000000
0.226471 0.667996 0.000000
0.266061 0.667996 0.000000
0.305651 0.667996 0.000000
0.345242 0.667996 0.000000
0.384832 0.667996 0.000000
0.424422 0.667996 0.000000
0.464012 0.667996 0.000000
0.503602 0.667996 0.000000
0.541974 0.667996 0.000000
0.578388 0.667996 0.000000
0.614803 0.667996 0.000000
0.651218 0.667996 0.000000
0.684841 0.667996 0.000000
0.715492 0.667996 0.000000
0.746142 0.667996 0.000000
0.776793 0.667996 0.000000
0.807443 0.667996 0.000000
0.838093 0.667996 0.000000
0.868744 0.667996 0.000000
0.899394 0.667996 0.000000
0.922887 0.667996 0.000000
0.942593 0.667996 0.000000
0.962299 0.667996 0.000000
0.982006 0.667996 0.000000
0.985000 0.667996 0.000000
0.000000 0.697984 0.000000
0.022145 0.697984 0.000000
0.044283 0.697984 0.000000
0.073236 0.697984 0.000000
0.102417 0.697984 0.000000
0.132946 0.697984 0.000000
0.163475 0.697984 0.000000
0.194004 0.697984 0.000000
0.226471 0.697984 0.000000
0.266061 0.697984 0.000000
0.305651 0.697984 0.000000
0.345242 0.697984 0.000000
0.384832 0.697984 0.000000
0.424422 0.697984 0.000000
0.464012 0.697984 0.000000
0.503602 0.697984 0.000000
0.541974 0.697984 0.000000
0.578388 0.697984 0.000000
0.614803 0.697984 0.000000
0.651218 0.697984 0.000000
0.684841 0.697984 0.000000
0.715492 0.697984 0.000000
0.746142 0.697984 0.000000
0.776793 0.697984 0.000000
0.807443 0.697984 0.000000
0.838093 0.697984 0.000000
0.868744 0.697984 0.000000
0.899394 0.697984 0.000000
0.922887 0.697984 0.000000
0.942593 0.697984 0.000000
0.962362 0.697984 0.000000
0.982138 0.697984 0.000000
0.985143 0.697984 0.000000
0.000000 0.727867 0.000000
0.022145 0.727867 0.000000
0.044283 0.727867 0.000000
0.073236 0.727867 0.000000
0.102417 0.727867 0.000000
0.132946 0.727867 0.000000
0.163475 0.727867 0.000000
0.194004 0.727867 0.000000
0.226471 0.727867 0.000000
0.266061 0.727867 0.000000
0.305651 0.727867 0.000000
0.345242 0.727867 0.000000
0.384832 0.727867 0.000000
0.424422 0.727867 0.000000
0.464012 0.727867 0.000000
0.503602 0.727867 0.000000
0.541974 0.727867 0.000000
0.578388 0.727867 0.000000
0.614803 0.727867 0.000000
0.651218 0.727867 0.000000
0.684841 0.727867 0.000000
0.715492 0.727867 0.000000
0.746142 0.727867 0.000000
0.776793 0.727867 0.000000
0.807443 0.727867 0.000000
0.838093 0.727867 0.000000
0.868832 0.727867 0.000000
0.899591 0.727867 0.000000
0.923167 0.727867 0.000000
0.942943 0.727867 0.000000
0.962719 0.727867 0.000000
0.982495 0.727867 0.000000
0.985500 0.727867 0.000000
0.000000 0.757750 0.000000
0.022145 0.757750 0.000000
0.044283 0.757750 0.000000
0.073236 0.757750 0.000000
0.102417 0.757750 0.000000
0.132946 0.757750 0.000000
0.163475 0.757750 0.000000
0.194004 0.757750 0.000000
0.226471 0.757750 0.000000
0.266061 0.757750 0.000000
0.305651 0.757750 0.000000
0.345242 0.757750 0.000000
0.384832 0.757750 0.000000
0.424422 0.757750 0.000000
0.464012 0.757750 0.000000
0.503602 0.757750 0.000000
0.541974 0.757750 0.000000
0.578388 0.757750 0.000000
0.614803 0.757750 0.000000
0.651218 0.757750 0.000000
0.684841 0.757750 0.000000
0.715492 0.757750 0.000000
0.746152 0.757750 0.000000
0.776911 0.757750 0.000000
0.807670 0.757750 0.000000
0.838429 0.757750 0.000000
0.869188 0.757750 0.000000
0.899947 0.757750 0.000000
0.923523 0.757750 0.000000
0.943299 0.757750 0.000000
0.963075 0.757750 0.000000
0.982851 0.757750 0.000000
0.985856 0.757750 0.000000
0.000000 0.787632 0.000000
0.022145 0.787632 0.000000
0.044283 0.787632 0.000000
0.073236 0.787632 0.000000
0.102417 0.787632 0.000000
0.132946 0.787632 0.000000
0.163475 0.787632 0.000000
0.194004 0.787632 0.000000
0.226471 0.787632 0.000000
0.266061 0.787632 0.000000
0.305651 0.787632 0.000000
0.345242 0.787632 0.000000
0.384832 0.787632 0.000000
0.424422 0.787632 0.000000
0.464012 0.787632 0.000000
0.503602 0.787632 0.000000
0.541974 0.787632 0.000000
0.578388 0.787632 0.000000
0.614803 0.787632 0.000000
0.651247 0.787632 0.000000
0.684990 0.787632 0.000000
0.715749 0.787632 0.000000
0.746508 0.787632 0.000000
0.777267 0.787632 0.000000
0.808026 0.787632 0.000000
0.838785 0.787632 0.000000
0.869544 0.787632 0.000000
0.900303 0.787632 0.000000
0.923879 0.787632 0.000000
0.943655 0.787632 0.000000
0.963431 0.787632 0.000000
0.983207 0.787632 0.000000
0.986212 0.787632 0.000000
0.000000 0.817515 0.000000
0.022145 0.817515 0.000000
0.044283 0.817515 0.000000
0.073236 0.817515 0.000000
0.102417 0.817515 0.000000
0.132946 0.817515 0.000000
0.163475 0.817515 0.000000
0.194004 0.817515 0.000000
0.226471 0.817515 0.000000
0.266061 0.817515 0.000000
0.305651 0.817515 0.000000
0.345242 0.817515 0.000000
0.384832 0.817515 0.000000
0.424422 0.817515 0.000000
0.464012 0.817515 0.000000
0.503602 0.817515 0.000000
0.541974 0.817515 0.000000
0.578516 0.817515 0.000000
0.615060 0.817515 0.000000
0.651603 0.817515 0.000000
0.685346 0.817515 0.000000
0.716105 0.817515 0.000000
0.746864 0.817515 0.000000
0.777623 0.817515 0.000000
0.808382 0.817515 0.000000
0.839141 0.817515 0.000000
0.869900 0.817515 0.000000
0.900659 0.817515 0.000000
0.924235 0.817515 0.000000
0.944011 0.817515 0.000000
0.963787 0.817515 0.000000
0.983563 0.817515 0.000000
0.986568 0.817515 0.000000
0.000000 0.847398 0.000000
0.022145 0.847398 0.000000
0.044283 0.847398 0.000000
0.073236 0.847398 0.000000
0.102417 0.847398 0.000000
0.132946 0.847398 0.000000
0.163475 0.847398 0.000000
0.194004 0.847398 0.000000
0.226471 0.847398 0.000000
0.266061 0.847398 0.000000
0.305651 0.847398 0.000000
0.345242 0.847398 0.000000
0.384832 0.847398 0.000000
0.424422 0.847398 0.000000
0.464090 0.847398 0.000000
0.503821 0.847398 0.000000
0.542328 0.847398 0.000000
0.578872 0.847398 0.000000
0.615416 0.847398 0.000000
0.651960 0.847398 0.000000
0.685702 0.847398 0.000000
0.716461 0.847398 0.000000
0.747220 0.847398 0.000000
0.777979 0.847398 0.000000
0.808738 0.847398 0.000000
0.839497 0.847398 0.000000
0.870256 0.847398 0.000000
0.901015 0.847398 0.000000
0.924592 0.847398 0.000000
