flutter_app/assets/lut/cameras/fisheye.cube
TITLE "Fisheye Lomo v2"
LUT_3D_SIZE 9
0.000000 0.000000 0.007500
0.096853 0.000000 0.006956
0.221434 0.000000 0.006296
0.380468 0.000000 0.005455
0.538278 0.000000 0.004619
0.681753 0.000000 0.003860
0.804876 0.000000 0.003208
0.920811 0.000000 0.002595
0.983188 0.000000 0.002265
0.000000 0.098160 0.005745
0.098257 0.098160 0.005201
0.222838 0.098160 0.004541
0.381872 0.098160 0.003700
0.539682 0.098160 0.002864
0.683157 0.098160 0.002105
0.806280 0.098160 0.001453
0.922215 0.098160 0.000840
0.984592 0.098160 0.000510
0.000000 0.217217 0.003616
0.099960 0.217217 0.003072
0.224541 0.217217 0.002412
0.383575 0.217217 0.001571
0.541385 0.217217 0.000736
0.684841 0.217217 0.000000
0.807443 0.217217 0.000000
0.922887 0.217217 0.000000
0.985000 0.217217 0.000000
0.000000 0.371508 0.000857
0.102167 0.371508 0.000313
0.226471 0.371508 0.000000
0.384832 0.371508 0.000000
0.541974 0.371508 0.000000
0.684841 0.371508 0.000000
0.807443 0.371508 0.000000
0.922887 0.371508 0.000000
0.985000 0.371508 0.000000
0.000000 0.525902 0.000000
0.102417 0.525902 0.000000
0.226471 0.525902 0.000000
0.384832 0.525902 0.000000
0.541974 0.525902 0.000000
0.684841 0.525902 0.000000
0.807443 0.525902 0.000000
0.922887 0.525902 0.000000
0.985000 0.525902 0.000000
0.000000 0.667996 0.000000
0.102417 0.667996 0.000000
0.226471 0.667996 0.000000
0.384832 0.667996 0.000000
0.541974 0.667996 0.000000
0.684841 0.667996 0.000000
0.807443 0.667996 0.000000
0.922887 0.667996 0.000000
0.985000 0.667996 0.000000
0.000000 0.787632 0.000000
0.102417 0.787632 0.000000
0.226471 0.787632 0.000000
0.384832 0.787632 0.000000
0.541974 0.787632 0.000000
0.684990 0.787632 0.000000
0.808026 0.787632 0.000000
0.923879 0.787632 0.000000
0.986212 0.787632 0.000000
0.000000 0.907163 0.000000
0.102417 0.907163 0.000000
0.226471 0.907163 0.000000
0.385342 0.907163 0.000000
0.543041 0.907163 0.000000
0.686415 0.907163 0.000000
0.809451 0.907163 0.000000
0.925304 0.907163 0.000000
0.987637 0.907163 0.000000
0.000051 0.983030 0.000000
0.102831 0.983030 0.000000
0.227325 0.983030 0.000000
0.386246 0.983030 0.000000
0.543945 0.983030 0.000000
0.687319 0.983030 0.000000
0.810355 0.983030 0.000000
0.926208 0.983030 0.000000
0.988541 0.983030 0.000000
0.000000 0.000000 0.101232
0.096988 0.000000 0.100688
0.221570 0.000000 0.100029
0.380604 0.000000 0.099187
0.538414 0.000000 0.098352
0.681889 0.000000 0.097592
0.805012 0.000000 0.096941
0.920947 0.000000 0.096327
0.983324 0.000000 0.095997
0.000000 0.098160 0.099477
0.098392 0.098160 0.098933
0.222974 0.098160 0.098273
0.382008 0.098160 0.097432
0.539818 0.098160 0.096597
0.683293 0.098160 0.095837
0.806416 0.098160 0.095186
0.922351 0.098160 0.094572
0.984728 0.098160 0.094242
0.000000 0.217217 0.097348
0.100095 0.217217 0.096804
0.224677 0.217217 0.096145
0.383711 0.217217 0.095303
0.541521 0.217217 0.094468
0.684841 0.217217 0.093902
0.807443 0.217217 0.093902
0.922887 0.217217 0.093902
0.985000 0.217217 0.093902
0.000000 0.371508 0.094590
0.102302 0.371508 0.094045
0.226471 0.371508 0.093902
0.384832 0.371508 0.093902
0.541974 0.371508 0.093902
0.684841 0.371508 0.093902
0.807443 0.371508 0.093902
0.922887 0.371508 0.093902
0.985000 0.371508 0.093902
0.000000 0.525902 0.093902
0.102417 0.525902 0.093902
0.226471 0.525902 0.093902
0.384832 0.525902 0.093902
0.541974 0.525902 0.093902
0.684841 0.525902 0.093902
0.807443 0.525902 0.093902
0.922887 0.525902 0.093902
0.985000 0.525902 0.093902
0.000000 0.667996 0.093902
0.102417 0.667996 0.093902
0.226471 0.667996 0.093902
0.384832 0.667996 0.093902
0.541974 0.667996 0.093902
0.684841 0.667996 0.093902
0.807443 0.667996 0.093902
0.922887 0.667996 0.093902
0.985000 0.667996 0.093902
0.000000 0.787632 0.093902
0.102417 0.787632 0.093902
0.226471 0.787632 0.093902
0.384832 0.787632 0.093902
0.541974 0.787632 0.093902
0.685103 0.787632 0.093588
0.808139 0.787632 0.093067
0.923992 0.787632 0.092576
0.986325 0.787632 0.092312
0.000000 0.907163 0.093902
0.102417 0.907163 0.093902
0.226533 0.907163 0.093827
0.385455 0.907163 0.093154
0.543154 0.907163 0.092486
0.686528 0.907163 0.091878
0.809564 0.907163 0.091357
0.925417 0.907163 0.090866
0.987750 0.907163 0.090602
0.000164 0.983030 0.093705
0.102944 0.983030 0.093269
0.227438 0.983030 0.092742
0.386359 0.983030 0.092069
0.544058 0.983030 0.091400
0.687432 0.983030 0.090793
0.810468 0.983030 0.090272
0.926321 0.983030 0.089781
0.988654 0.983030 0.089517
0.000000 0.000000 0.216596
0.097155 0.000000 0.216051
0.221737 0.000000 0.215392
0.380770 0.000000 0.214550
0.538581 0.000000 0.213715
0.682056 0.000000 0.212956
0.805179 0.000000 0.212304
0.921114 0.000000 0.211691
0.983491 0.000000 0.211360
0.000000 0.098160 0.214841
0.098559 0.098160 0.214296
0.223141 0.098160 0.213637
0.382174 0.098160 0.212795
0.539985 0.098160 0.211960
0.683460 0.098160 0.211201
0.806583 0.098160 0.210549
0.922518 0.098160 0.209935
0.984895 0.098160 0.209605
0.000000 0.217217 0.212712
0.100262 0.217217 0.212167
0.224844 0.217217 0.211508
0.383877 0.217217 0.210666
0.541688 0.217217 0.209831
0.684841 0.217217 0.209474
0.807443 0.217217 0.209474
0.922887 0.217217 0.209474
0.985000 0.217217 0.209474
0.000000 0.371508 0.209953
0.102417 0.371508 0.209474
0.226471 0.371508 0.209474
0.384832 0.371508 0.209474
0.541974 0.371508 0.209474
0.684841 0.371508 0.209474
0.807443 0.371508 0.209474
0.922887 0.371508 0.209474
0.985000 0.371508 0.209474
0.000000 0.525902 0.209474
0.102417 0.525902 0.209474
0.226471 0.525902 0.209474
0.384832 0.525902 0.209474
0.541974 0.525902 0.209474
0.684841 0.525902 0.209474
0.807443 0.525902 0.209474
0.922887 0.525902 0.209474
0.985000 0.525902 0.209474
0.000000 0.667996 0.209474
0.102417 0.667996 0.209474
0.226471 0.667996 0.209474
0.384832 0.667996 0.209474
0.541974 0.667996 0.209474
0.684841 0.667996 0.209474
0.807443 0.667996 0.209474
0.922887 0.667996 0.209474
0.985038 0.667996 0.209428
0.000000 0.787632 0.209474
0.102417 0.787632 0.209474
0.226471 0.787632 0.209474
0.384832 0.787632 0.209474
0.541974 0.787632 0.209474
0.685242 0.787632 0.208993
0.808278 0.787632 0.208472
0.924131 0.787632 0.207981
0.986464 0.787632 0.207717
0.000000 0.907163 0.209474
0.102417 0.907163 0.209474
0.226672 0.907163 0.209232
0.385594 0.907163 0.208559
0.543293 0.907163 0.207891
0.686667 0.907163 0.207283
0.809703 0.907163 0.206762
0.925556 0.907163 0.206271
0.987889 0.907163 0.206007
0.000303 0.983030 0.209110
0.103083 0.983030 0.208675
0.227577 0.983030 0.208147
0.386498 0.983030 0.207474
0.544197 0.983030 0.206806
0.687571 0.983030 0.206198
0.810607 0.983030 0.205677
0.926460 0.983030 0.205186
0.988793 0.983030 0.204922
0.000000 0.000000 0.364309
0.097369 0.000000 0.363765
0.221950 0.000000 0.363105
0.380984 0.000000 0.362264
0.538794 0.000000 0.361428
0.682269 0.000000 0.360669
0.805392 0.000000 0.360017
0.921328 0.000000 0.359404
0.983704 0.000000 0.359074
0.000000 0.098160 0.362554
0.098773 0.098160 0.362010
0.223354 0.098160 0.361350
0.382388 0.098160 0.360509
0.540198 0.098160 0.359673
0.683674 0.098160 0.358914
0.806796 0.098160 0.358262
0.922732 0.098160 0.357649
0.985000 0.098160 0.357454
0.000000 0.217217 0.360425
0.100476 0.217217 0.359881
0.225057 0.217217 0.359222
0.384091 0.217217 0.358380
0.541901 0.217217 0.357545
0.684841 0.217217 0.357454
0.807443 0.217217 0.357454
0.922887 0.217217 0.357454
0.985000 0.217217 0.357454
0.000000 0.371508 0.357666
0.102417 0.371508 0.357454
0.226471 0.371508 0.357454
0.384832 0.371508 0.357454
0.541974 0.371508 0.357454
0.684841 0.371508 0.357454
0.807443 0.371508 0.357454
0.922887 0.371508 0.357454
0.985000 0.371508 0.357454
0.000000 0.525902 0.357454
0.102417 0.525902 0.357454
0.226471 0.525902 0.357454
0.384832 0.525902 0.357454
0.541974 0.525902 0.357454
0.684841 0.525902 0.357454
0.807443 0.525902 0.357454
0.922887 0.525902 0.357454
0.985000 0.525902 0.357454
0.000000 0.667996 0.357454
0.102417 0.667996 0.357454
0.226471 0.667996 0.357454
0.384832 0.667996 0.357454
0.541974 0.667996 0.357454
0.684841 0.667996 0.357454
0.807443 0.667996 0.357454
0.922887 0.667996 0.357454
0.985216 0.667996 0.357195
0.000000 0.787632 0.357454
0.102417 0.787632 0.357454
0.226471 0.787632 0.357454
0.384832 0.787632 0.357454
0.542046 0.787632 0.357367
0.685420 0.787632 0.356760
0.808456 0.787632 0.356239
0.924309 0.787632 0.355748
0.986642 0.787632 0.355484
0.000000 0.907163 0.357454
0.102417 0.907163 0.357454
0.226851 0.907163 0.356999
0.385772 0.907163 0.356326
0.543471 0.907163 0.355658
0.686845 0.907163 0.355050
0.809881 0.907163 0.354529
0.925734 0.907163 0.354038
0.988067 0.907163 0.353774
0.000481 0.983030 0.356877
0.103261 0.983030 0.356441
0.227755 0.983030 0.355914
0.386676 0.983030 0.355241
0.544375 0.983030 0.354572
0.687749 0.983030 0.353965
0.810785 0.983030 0.353444
0.926639 0.983030 0.352953
0.988971 0.983030 0.352689
0.000000 0.000000 0.514161
0.097586 0.000000 0.513617
0.222167 0.000000 0.512957
0.381201 0.000000 0.512116
0.539011 0.000000 0.511280
0.682486 0.000000 0.510521
0.805609 0.000000 0.509869
0.921544 0.000000 0.509256
0.983921 0.000000 0.508926
0.000000 0.098160 0.512406
0.098990 0.098160 0.511862
0.223571 0.098160 0.511202
0.382605 0.098160 0.510361
0.540415 0.098160 0.509525
0.683890 0.098160 0.508766
0.807013 0.098160 0.508114
0.922887 0.098160 0.507577
0.985000 0.098160 0.507577
0.000000 0.217217 0.510277
0.100693 0.217217 0.509733
0.225274 0.217217 0.509074
0.384308 0.217217 0.508232
0.541974 0.217217 0.507577
0.684841 0.217217 0.507577
0.807443 0.217217 0.507577
0.922887 0.217217 0.507577
0.985000 0.217217 0.507577
0.000000 0.371508 0.507577
0.102417 0.371508 0.507577
0.226471 0.371508 0.507577
0.384832 0.371508 0.507577
0.541974 0.371508 0.507577
0.684841 0.371508 0.507577
0.807443 0.371508 0.507577
0.922887 0.371508 0.507577
0.985000 0.371508 0.507577
0.000000 0.525902 0.507577
0.102417 0.525902 0.507577
0.226471 0.525902 0.507577
0.384832 0.525902 0.507577
0.541974 0.525902 0.507577
0.684841 0.525902 0.507577
0.807443 0.525902 0.507577
0.922887 0.525902 0.507577
0.985000 0.525902 0.507577
0.000000 0.667996 0.507577
0.102417 0.667996 0.507577
0.226471 0.667996 0.507577
0.384832 0.667996 0.507577
0.541974 0.667996 0.507577
0.684841 0.667996 0.507577
0.807443 0.667996 0.507577
0.923064 0.667996 0.507365
0.985397 0.667996 0.507101
0.000000 0.787632 0.507577
0.102417 0.787632 0.507577
0.226471 0.787632 0.507577
0.384832 0.787632 0.507577
0.542227 0.787632 0.507274
0.685601 0.787632 0.506666
0.808637 0.787632 0.506145
0.924490 0.787632 0.505654
0.986823 0.787632 0.505390
0.000000 0.907163 0.507577
0.102538 0.907163 0.507433
0.227031 0.907163 0.506905
0.385953 0.907163 0.506232
0.543651 0.907163 0.505564
0.687025 0.907163 0.504956
0.810062 0.907163 0.504435
0.925915 0.907163 0.503944
0.988248 0.907163 0.503680
0.000662 0.983030 0.506783
0.103442 0.983030 0.506348
0.227935 0.983030 0.505820
0.386857 0.983030 0.505147
0.544556 0.983030 0.504479
0.687930 0.983030 0.503871
0.810966 0.983030 0.503350
0.926819 0.983030 0.502859
0.989152 0.983030 0.502595
0.000000 0.000000 0.653375
0.097787 0.000000 0.652831
0.222368 0.000000 0.652172
0.381402 0.000000 0.651330
0.539212 0.000000 0.650495
0.682688 0.000000 0.649735
0.805811 0.000000 0.649084
0.921746 0.000000 0.648470
0.984123 0.000000 0.648140
0.000000 0.098160 0.651620
0.099191 0.098160 0.651076
0.223773 0.098160 0.650417
0.382806 0.098160 0.649575
0.540616 0.098160 0.648740
0.684092 0.098160 0.647980
0.807215 0.098160 0.647329
0.922887 0.098160 0.647043
0.985000 0.098160 0.647043
0.000000 0.217217 0.649492
0.100894 0.217217 0.648947
0.225476 0.217217 0.648288
0.384509 0.217217 0.647446
0.541974 0.217217 0.647043
0.684841 0.217217 0.647043
0.807443 0.217217 0.647043
0.922887 0.217217 0.647043
0.985000 0.217217 0.647043
0.000000 0.371508 0.647043
0.102417 0.371508 0.647043
0.226471 0.371508 0.647043
0.384832 0.371508 0.647043
0.541974 0.371508 0.647043
0.684841 0.371508 0.647043
0.807443 0.371508 0.647043
0.922887 0.371508 0.647043
0.985000 0.371508 0.647043
0.000000 0.525902 0.647043
0.102417 0.525902 0.647043
0.226471 0.525902 0.647043
0.384832 0.525902 0.647043
0.541974 0.525902 0.647043
0.684841 0.525902 0.647043
0.807443 0.525902 0.647043
0.922887 0.525902 0.647043
0.985000 0.525902 0.647043
0.000000 0.667996 0.647043
0.102417 0.667996 0.647043
0.226471 0.667996 0.647043
0.384832 0.667996 0.647043
0.541974 0.667996 0.647043
0.684841 0.667996 0.647043
0.807443 0.667996 0.647043
0.923232 0.667996 0.646630
0.985565 0.667996 0.646366
0.000000 0.787632 0.647043
0.102417 0.787632 0.647043
0.226471 0.787632 0.647043
0.384832 0.787632 0.647043
0.542394 0.787632 0.646538
0.685768 0.787632 0.645931
0.808805 0.787632 0.645409
0.924658 0.787632 0.644919
0.986991 0.787632 0.644654
0.000000 0.907163 0.647043
0.102705 0.907163 0.646697
0.227199 0.907163 0.646170
0.386121 0.907163 0.645497
0.543819 0.907163 0.644828
0.687193 0.907163 0.644221
0.810229 0.907163 0.643700
0.926083 0.907163 0.643209
0.988416 0.907163 0.642945
0.000830 0.983030 0.646048
0.103610 0.983030 0.645612
0.228103 0.983030 0.645085
0.387025 0.983030 0.644411
0.544724 0.983030 0.643743
0.688098 0.983030 0.643136
0.811134 0.983030 0.642614
0.926987 0.983030 0.642124
0.989320 0.983030 0.641859
0.000000 0.000000 0.772382
0.097959 0.000000 0.771838
0.222541 0.000000 0.771178
0.381574 0.000000 0.770337
0.539385 0.000000 0.769501
0.682860 0.000000 0.768742
0.805983 0.000000 0.768090
0.921918 0.000000 0.767477
0.984295 0.000000 0.767147
0.000000 0.098160 0.770627
0.099363 0.098160 0.770083
0.223945 0.098160 0.769423
0.382979 0.098160 0.768582
0.540789 0.098160 0.767746
0.684264 0.098160 0.766987
0.807387 0.098160 0.766335
0.922887 0.098160 0.766265
0.985000 0.098160 0.766265
0.000000 0.217217 0.768498
0.101066 0.217217 0.767954
0.225648 0.217217 0.767294
0.384681 0.217217 0.766453
0.541974 0.217217 0.766265
0.684841 0.217217 0.766265
0.807443 0.217217 0.766265
0.922887 0.217217 0.766265
0.985000 0.217217 0.766265
0.000000 0.371508 0.766265
0.102417 0.371508 0.766265
0.226471 0.371508 0.766265
0.384832 0.371508 0.766265
0.541974 0.371508 0.766265
0.684841 0.371508 0.766265
0.807443 0.371508 0.766265
0.922887 0.371508 0.766265
0.985000 0.371508 0.766265
0.000000 0.525902 0.766265
0.102417 0.525902 0.766265
0.226471 0.525902 0.766265
0.384832 0.525902 0.766265
0.541974 0.525902 0.766265
0.684841 0.525902 0.766265
0.807443 0.525902 0.766265
0.922887 0.525902 0.766265
0.985000 0.525902 0.766265
0.000000 0.667996 0.766265
0.102417 0.667996 0.766265
0.226471 0.667996 0.766265
0.384832 0.667996 0.766265
0.541974 0.667996 0.766265
0.684841 0.667996 0.766265
0.807522 0.667996 0.766170
0.923375 0.667996 0.765680
0.985708 0.667996 0.765415
0.000000 0.787632 0.766265
0.102417 0.787632 0.766265
0.226471 0.787632 0.766265
0.384839 0.787632 0.766256
0.542538 0.787632 0.765588
0.685912 0.787632 0.764980
0.808948 0.787632 0.764459
0.924801 0.787632 0.763968
0.987134 0.787632 0.763704
0.000069 0.907163 0.766183
0.102849 0.907163 0.765747
0.227342 0.907163 0.765220
0.386264 0.907163 0.764546
0.543963 0.907163 0.763878
0.687337 0.907163 0.763271
0.810373 0.907163 0.762749
0.926226 0.907163 0.762258
0.988559 0.907163 0.761994
0.000973 0.983030 0.765097
0.103753 0.983030 0.764662
0.228247 0.983030 0.764134
0.387168 0.983030 0.763461
0.544867 0.983030 0.762793
0.688241 0.983030 0.762185
0.811277 0.983030 0.761664
0.927130 0.983030 0.761173
0.989463 0.983030 0.760909
0.000000 0.000000 0.888396
0.098127 0.000000 0.887852
0.222708 0.000000 0.887193
0.381742 0.000000 0.886351
0.539552 0.000000 0.885516
0.683028 0.000000 0.884757
0.806151 0.000000 0.884105
0.922086 0.000000 0.883491
0.984463 0.000000 0.883161
0.000000 0.098160 0.886641
0.099531 0.098160 0.886097
0.224113 0.098160 0.885438
0.383146 0.098160 0.884596
0.540956 0.098160 0.883761
0.684432 0.098160 0.883001
0.807443 0.098160 0.882489
0.922887 0.098160 0.882489
0.985000 0.098160 0.882489
0.000000 0.217217 0.884513
0.101234 0.217217 0.883968
0.225816 0.217217 0.883309
0.384832 0.217217 0.882489
0.541974 0.217217 0.882489
0.684841 0.217217 0.882489
0.807443 0.217217 0.882489
0.922887 0.217217 0.882489
0.985000 0.217217 0.882489
0.000000 0.371508 0.882489
0.102417 0.371508 0.882489
0.226471 0.371508 0.882489
0.384832 0.371508 0.882489
0.541974 0.371508 0.882489
0.684841 0.371508 0.882489
0.807443 0.371508 0.882489
0.922887 0.371508 0.882489
0.985000 0.371508 0.882489
0.000000 0.525902 0.882489
0.102417 0.525902 0.882489
0.226471 0.525902 0.882489
0.384832 0.525902 0.882489
0.541974 0.525902 0.882489
0.684841 0.525902 0.882489
0.807443 0.525902 0.882489
0.922887 0.525902 0.882489
0.985000 0.525902 0.882489
0.000000 0.667996 0.882489
0.102417 0.667996 0.882489
0.226471 0.667996 0.882489
0.384832 0.667996 0.882489
0.541974 0.667996 0.882489
0.684841 0.667996 0.882489
0.807662 0.667996 0.882227
0.923515 0.667996 0.881736
0.985848 0.667996 0.881472
0.000000 0.787632 0.882489
0.102417 0.787632 0.882489
0.226471 0.787632 0.882489
0.384979 0.787632 0.882312
0.542678 0.787632 0.881644
0.686052 0.787632 0.881037
0.809088 0.787632 0.880516
0.924941 0.787632 0.880025
0.987274 0.787632 0.879761
0.000209 0.907163 0.882239
0.102989 0.907163 0.881803
0.227482 0.907163 0.881276
0.386404 0.907163 0.880603
0.544103 0.907163 0.879935
0.687477 0.907163 0.879327
0.810513 0.907163 0.878806
0.926366 0.907163 0.878315
0.988699 0.907163 0.878051
0.001113 0.983030 0.881154
0.103893 0.983030 0.880718
0.228387 0.983030 0.880191
0.387308 0.983030 0.879517
0.545007 0.983030 0.878849
0.688381 0.983030 0.878242
0.811417 0.983030 0.877721
0.927270 0.983030 0.877230
0.989603 0.983030 0.876966
0.000000 0.000000 0.970845
0.098246 0.000000 0.970301
0.222828 0.000000 0.969641
0.381862 0.000000 0.968800
0.539672 0.000000 0.967964
0.683147 0.000000 0.967205
0.806270 0.000000 0.966554
0.922205 0.000000 0.965940
0.984582 0.000000 0.965610
0.000000 0.098160 0.969090
0.099650 0.098160 0.968546
0.224232 0.098160 0.967886
0.383266 0.098160 0.967045
0.541076 0.098160 0.966209
0.684551 0.098160 0.965450
0.807443 0.098160 0.965087
0.922887 0.098160 0.965087
0.985000 0.098160 0.965087
0.000000 0.217217 0.966961
0.101353 0.217217 0.966417
0.225935 0.217217 0.965758
0.384832 0.217217 0.965087
0.541974 0.217217 0.965087
0.684841 0.217217 0.965087
0.807443 0.217217 0.965087
0.922887 0.217217 0.965087
0.985000 0.217217 0.965087
0.000000 0.371508 0.965087
0.102417 0.371508 0.965087
0.226471 0.371508 0.965087
0.384832 0.371508 0.965087
0.541974 0.371508 0.965087
0.684841 0.371508 0.965087
0.807443 0.371508 0.965087
0.922887 0.371508 0.965087
0.985000 0.371508 0.965087
0.000000 0.525902 0.965087
0.102417 0.525902 0.965087
0.226471 0.525902 0.965087
0.384832 0.525902 0.965087
0.541974 0.525902 0.965087
0.684841 0.525902 0.965087
0.807443 0.525902 0.965087
0.922887 0.525902 0.965087
0.985000 0.525902 0.965087
0.000000 0.667996 0.965087
0.102417 0.667996 0.965087
0.226471 0.667996 0.965087
0.384832 0.667996 0.965087
0.541974 0.667996 0.965087
0.684841 0.667996 0.965087
0.807761 0.667996 0.964705
0.923615 0.667996 0.964214
0.985947 0.667996 0.963950
0.000000 0.787632 0.965087
0.102417 0.787632 0.965087
0.226471 0.787632 0.965087
0.385078 0.787632 0.964791
0.542777 0.787632 0.964123
0.686151 0.787632 0.963515
0.809187 0.787632 0.962994
0.925041 0.787632 0.962503
0.987373 0.787632 0.962239
0.000308 0.907163 0.964717
0.103088 0.907163 0.964282
0.227582 0.907163 0.963754
0.386503 0.907163 0.963081
0.544202 0.907163 0.962413
0.687576 0.907163 0.961805
0.810612 0.907163 0.961284
0.926465 0.907163 0.960793
0.988798 0.907163 0.960529
0.001212 0.983030 0.963632
0.103992 0.983030 0.963197
0.228486 0.983030 0.962669
0.387408 0.983030 0.961996
0.545106 0.983030 0.961328
0.688480 0.983030 0.960720
0.811516 0.983030 0.960199
0.927370 0.983030 0.959708
0.989703 0.983030 0.959444
