flutter_app/assets/lut/cameras/fisheye.cube
TITLE "Fisheye Lomo v2"
LUT_3D_SIZE 5
0.000000 0.000000 0.007500
0.221434 0.000000 0.006296
0.538278 0.000000 0.004619
0.804876 0.000000 0.003208
0.983188 0.000000 0.002265
0.000000 0.217217 0.003616
0.224541 0.217217 0.002412
0.541385 0.217217 0.000736
0.807443 0.217217 0.000000
0.985000 0.217217 0.000000
0.000000 0.525902 0.000000
0.226471 0.525902 0.000000
0.541974 0.525902 0.000000
0.807443 0.525902 0.000000
0.985000 0.525902 0.000000
0.000000 0.787632 0.000000
0.226471 0.787632 0.000000
0.541974 0.787632 0.000000
0.808026 0.787632 0.000000
0.986212 0.787632 0.000000
0.000051 0.983030 0.000000
0.227325 0.983030 0.000000
0.543945 0.983030 0.000000
0.810355 0.983030 0.000000
0.988541 0.983030 0.000000
0.000000 0.000000 0.216596
0.221737 0.000000 0.215392
0.538581 0.000000 0.213715
0.805179 0.000000 0.212304
0.983491 0.000000 0.211360
0.000000 0.217217 0.212712
0.224844 0.217217 0.211508
0.541688 0.217217 0.209831
0.807443 0.217217 0.209474
0.985000 0.217217 0.209474
0.000000 0.525902 0.209474
0.226471 0.525902 0.209474
0.541974 0.525902 0.209474
0.807443 0.525902 0.209474
0.985000 0.525902 0.209474
0.000000 0.787632 0.209474
0.226471 0.787632 0.209474
0.541974 0.787632 0.209474
0.808278 0.787632 0.208472
0.986464 0.787632 0.207717
0.000303 0.983030 0.209110
0.227577 0.983030 0.208147
0.544197 0.983030 0.206806
0.810607 0.983030 0.205677
0.988793 0.983030 0.204922
0.000000 0.000000 0.514161
0.222167 0.000000 0.512957
0.539011 0.000000 0.511280
0.805609 0.000000 0.509869
0.983921 0.000000 0.508926
0.000000 0.217217 0.510277
0.225274 0.217217 0.509074
0.541974 0.217217 0.507577
0.807443 0.217217 0.507577
0.985000 0.217217 0.507577
0.000000 0.525902 0.507577
0.226471 0.525902 0.507577
0.541974 0.525902 0.507577
0.807443 0.525902 0.507577
0.985000 0.525902 0.507577
0.000000 0.787632 0.507577
0.226471 0.787632 0.507577
0.542227 0.787632 0.507274
0.808637 0.787632 0.506145
0.986823 0.787632 0.505390
0.000662 0.983030 0.506783
0.227935 0.983030 0.505820
0.544556 0.983030 0.504479
0.810966 0.983030 0.503350
0.989152 0.983030 0.502595
0.000000 0.000000 0.772382
0.222541 0.000000 0.771178
0.539385 0.000000 0.769501
0.805983 0.000000 0.768090
0.984295 0.000000 0.767147
0.000000 0.217217 0.768498
0.225648 0.217217 0.767294
0.541974 0.217217 0.766265
0.807443 0.217217 0.766265
0.985000 0.217217 0.766265
0.000000 0.525902 0.766265
0.226471 0.525902 0.766265
0.541974 0.525902 0.766265
0.807443 0.525902 0.766265
0.985000 0.525902 0.766265
0.000000 0.787632 0.766265
0.226471 0.787632 0.766265
0.542538 0.787632 0.765588
0.808948 0.787632 0.764459
0.987134 0.787632 0.763704
0.000973 0.983030 0.765097
0.228247 0.983030 0.764134
0.544867 0.983030 0.762793
0.811277 0.983030 0.761664
0.989463 0.983030 0.760909
0.000000 0.000000 0.970845
0.222828 0.000000 0.969641
0.539672 0.000000 0.967964
0.806270 0.000000 0.966554
0.984582 0.000000 0.965610
0.000000 0.217217 0.966961
0.225935 0.217217 0.965758
0.541974 0.217217 0.965087
0.807443 0.217217 0.965087
0.985000 0.217217 0.965087
0.000000 0.525902 0.965087
0.226471 0.525902 0.965087
0.541974 0.525902 0.965087
0.807443 0.525902 0.965087
0.985000 0.525902 0.965087
0.000000 0.787632 0.965087
0.226471 0.787632 0.965087
0.542777 0.787632 0.964123
0.809187 0.787632 0.962994
0.987373 0.787632 0.962239
0.001212 0.983030 0.963632
0.228486 0.983030 0.962669
0.545106 0.983030 0.961328
0.811516 0.983030 0.960199
0.989703 0.983030 0.959444
