flutter_app/assets/lut/cameras/fqs_superia400_flash.cube
TITLE "FQS Fuji Superia 400 Flash"
# DAZZ Camera LUT - FQS (Fujifilm QuickSnap Flash 400)
# Fujifilm Superia 400 + Flash Color Science
# Variant: Flash (default) - Cool white flash, green tone, cold shadows
# Generated by DAZZ Color Science Engine
# Key: R-4%, G+6%, B+4%, shadow cyan-green, highlight cool white
LUT_3D_SIZE 33
DOMAIN_MIN 0.0 0.0 0.0
DOMAIN_MAX 1.0 1.0 1.0
0.007140 0.042846 0.035334
0.032369 0.042609 0.035196
0.058289 0.042362 0.035044
0.084899 0.042104 0.034878
0.112199 0.041837 0.034698
0.140190 0.041560 0.034506
0.168870 0.041274 0.034301
0.198239 0.040979 0.034084
0.228297 0.040675 0.033855
0.259321 0.040357 0.033608
0.290807 0.040035 0.033356
0.322287 0.039717 0.033112
0.353761 0.039403 0.032874
0.385229 0.039093 0.032645
0.416691 0.038787 0.032422
0.448147 0.038485 0.032207
0.479596 0.038187 0.032000
0.511039 0.037893 0.031800
0.541034 0.037627 0.031643
0.570991 0.037366 0.031493
0.600943 0.037108 0.031350
0.630888 0.036855 0.031216
0.660827 0.036605 0.031088
0.690759 0.036360 0.030969
0.720686 0.036120 0.030858
0.750605 0.035883 0.030754
0.780711 0.035648 0.030655
0.810014 0.035430 0.030581
0.837928 0.035237 0.030544
0.864454 0.035069 0.030544
0.889593 0.034925 0.030579
0.913346 0.034805 0.030648
0.935713 0.034708 0.030751
0.008864 0.067422 0.034059
0.034111 0.067203 0.033934
0.060048 0.066973 0.033795
0.086675 0.066734 0.033643
0.113992 0.066486 0.033478
0.141998 0.066228 0.033301
0.170693 0.065961 0.033112
0.200077 0.065685 0.032912
0.230150 0.065401 0.032700
0.261204 0.065103 0.032471
0.292673 0.064802 0.032238
0.324137 0.064505 0.032013
0.355594 0.064212 0.031795
0.387045 0.063924 0.031586
0.418489 0.063639 0.031384
0.449927 0.063359 0.031189
0.481359 0.063083 0.031003
0.512753 0.062812 0.030826
0.542698 0.062569 0.030690
0.572638 0.062329 0.030561
0.602571 0.062094 0.030440
0.632497 0.061863 0.030327
0.662418 0.061637 0.030222
0.692331 0.061415 0.030126
0.722237 0.061197 0.030038
0.752137 0.060984 0.029958
0.782224 0.060773 0.029883
0.811448 0.060579 0.029835
0.839283 0.060411 0.029823
0.865731 0.060266 0.029847
0.890793 0.060146 0.029905
0.914468 0.060049 0.029997
0.936759 0.059975 0.030122
0.010574 0.093124 0.032732
0.035838 0.092923 0.032621
0.061791 0.092712 0.032497
0.088434 0.092492 0.032361
0.115766 0.092262 0.032212
0.143787 0.092024 0.032051
0.172496 0.091777 0.031880
0.201894 0.091521 0.031697
0.231979 0.091258 0.031504
0.263060 0.090981 0.031294
0.294512 0.090702 0.031083
0.325957 0.090427 0.030879
0.357396 0.090157 0.030683
0.388829 0.089891 0.030495
0.420254 0.089629 0.030315
0.451673 0.089372 0.030144
0.483085 0.089119 0.029981
0.514396 0.088872 0.029829
0.544322 0.088652 0.029715
0.574242 0.088436 0.029610
0.604155 0.088224 0.029513
0.634061 0.088017 0.029424
0.663960 0.087815 0.029344
0.693852 0.087617 0.029273
0.723736 0.087424 0.029211
0.753613 0.087236 0.029157
0.783678 0.087050 0.029110
0.812819 0.086883 0.029090
0.840574 0.086740 0.029106
0.866941 0.086621 0.029156
0.891922 0.086526 0.029241
0.915519 0.086454 0.029359
0.937731 0.086404 0.029508
0.012263 0.119956 0.031362
0.037542 0.119774 0.031267
0.063510 0.119582 0.031159
0.090168 0.119382 0.031040
0.117514 0.119172 0.030908
0.145548 0.118954 0.030766
0.174270 0.118728 0.030613
0.203680 0.118494 0.030451
0.233777 0.118252 0.030278
0.264883 0.117997 0.030089
0.296315 0.117741 0.029901
0.327740 0.117490 0.029720
0.359159 0.117243 0.029548
0.390571 0.117000 0.029384
0.421976 0.116762 0.029229
0.453373 0.116529 0.029083
0.484764 0.116301 0.028945
0.515990 0.116080 0.028820
0.545895 0.115884 0.028732
0.575793 0.115692 0.028653
0.605683 0.115506 0.028582
0.635567 0.115324 0.028521
0.665442 0.115147 0.028468
0.695310 0.114975 0.028425
0.725170 0.114809 0.028392
0.755022 0.114648 0.028369
0.785057 0.114489 0.028352
0.814114 0.114350 0.028364
0.841784 0.114235 0.028412
0.868068 0.114144 0.028493
0.892966 0.114076 0.028608
0.916479 0.114030 0.028755
0.938609 0.114007 0.028933
0.013922 0.147923 0.029960
0.039216 0.147761 0.029882
0.065198 0.147590 0.029792
0.091868 0.147409 0.029690
0.119227 0.147221 0.029578
0.147273 0.147024 0.029456
0.176007 0.146820 0.029324
0.205427 0.146608 0.029183
0.235533 0.146389 0.029033
0.266660 0.146157 0.028868
0.298071 0.145926 0.028704
0.329475 0.145699 0.028550
0.360872 0.145476 0.028403
0.392261 0.145259 0.028266
0.423643 0.145046 0.028138
0.455017 0.144839 0.028020
0.486383 0.144637 0.027911
0.517523 0.144443 0.027816
0.547404 0.144273 0.027756
0.577277 0.144108 0.027705
0.607143 0.143948 0.027664
0.637000 0.143793 0.027633
0.666849 0.143644 0.027612
0.696690 0.143500 0.027602
0.726522 0.143362 0.027602
0.756344 0.143230 0.027613
0.786345 0.143102 0.027632
0.815313 0.142993 0.027681
0.842894 0.142909 0.027765
0.869089 0.142848 0.027882
0.893900 0.142810 0.028033
0.917326 0.142794 0.028215
0.939369 0.142800 0.028428
0.015542 0.177032 0.028536
0.040849 0.176891 0.028476
0.066843 0.176740 0.028405
0.093526 0.176582 0.028325
0.120895 0.176415 0.028234
0.148952 0.176241 0.028133
0.177694 0.176060 0.028024
0.207123 0.175871 0.027907
0.237237 0.175676 0.027782
0.268382 0.175469 0.027643
0.299770 0.175263 0.027507
0.331150 0.175062 0.027381
0.362522 0.174866 0.027264
0.393886 0.174675 0.027156
0.425242 0.174490 0.027059
0.456590 0.174310 0.026971
0.487930 0.174135 0.026894
0.518979 0.173971 0.026832
0.548833 0.173828 0.026804
0.578679 0.173692 0.026787
0.608516 0.173561 0.026780
0.638344 0.173435 0.026783
0.668162 0.173316 0.026799
0.697971 0.173203 0.026825
0.727771 0.173097 0.026864
0.757559 0.172998 0.026915
0.787516 0.172903 0.026977
0.816390 0.172829 0.027070
0.843876 0.172780 0.027198
0.869976 0.172754 0.027360
0.894691 0.172750 0.027555
0.918022 0.172770 0.027781
0.939970 0.172811 0.028039
0.017113 0.207290 0.027102
0.042431 0.207170 0.027063
0.068436 0.207042 0.027014
0.095128 0.206906 0.026955
0.122507 0.206762 0.026888
0.150572 0.206612 0.026812
0.179322 0.206455 0.026729
0.208757 0.206291 0.026638
0.238876 0.206122 0.026541
0.270035 0.205941 0.026431
0.301397 0.205762 0.026326
0.332750 0.205589 0.026231
0.364095 0.205421 0.026146
0.395431 0.205259 0.026072
0.426758 0.205103 0.026009
0.458077 0.204952 0.025956
0.489385 0.204808 0.025915
0.520341 0.204675 0.025892
0.550164 0.204563 0.025901
0.579978 0.204458 0.025921
0.609781 0.204359 0.025954
0.639575 0.204266 0.025998
0.669357 0.204181 0.026056
0.699128 0.204103 0.026128
0.728888 0.204033 0.026214
0.758634 0.203971 0.026315
0.788537 0.203916 0.026430
0.817305 0.203883 0.026579
0.844684 0.203876 0.026765
0.870676 0.203893 0.026988
0.895280 0.203935 0.027246
0.918496 0.204002 0.027541
0.940320 0.204096 0.027875
0.018622 0.238703 0.025674
0.043950 0.238606 0.025658
0.069964 0.238501 0.025632
0.096664 0.238390 0.025599
0.124049 0.238271 0.025557
0.152120 0.238146 0.025509
0.180875 0.238014 0.025454
0.210313 0.237878 0.025393
0.240435 0.237735 0.025327
0.271604 0.237583 0.025250
0.302936 0.237434 0.025180
0.334259 0.237291 0.025121
0.365572 0.237153 0.025073
0.396876 0.237023 0.025037
0.428171 0.236898 0.025013
0.459455 0.236780 0.025001
0.490728 0.236669 0.025002
0.521585 0.236571 0.025023
0.551371 0.236494 0.025076
0.581146 0.236423 0.025142
0.610909 0.236361 0.025222
0.640660 0.236307 0.025317
0.670397 0.236261 0.025429
0.700120 0.236225 0.025558
0.729827 0.236199 0.025706
0.759516 0.236184 0.025876
0.789341 0.236182 0.026069
0.817976 0.236209 0.026306
0.845203 0.236273 0.026605
0.871028 0.236372 0.026958
0.895486 0.236481 0.027321
0.918576 0.236603 0.027696
0.940299 0.236735 0.028083
0.020060 0.271701 0.024236
0.045394 0.271635 0.024245
0.071414 0.271562 0.024247
0.098119 0.271482 0.024241
0.125508 0.271396 0.024229
0.153581 0.271304 0.024211
0.182338 0.271207 0.024188
0.211776 0.271105 0.024162
0.241897 0.270998 0.024132
0.273069 0.270883 0.024093
0.304367 0.270772 0.024063
0.335654 0.270667 0.024046
0.366931 0.270570 0.024041
0.398197 0.270479 0.024050
0.429451 0.270396 0.024073
0.460693 0.270320 0.024110
0.491923 0.270253 0.024162
0.522672 0.270200 0.024239
0.552411 0.270168 0.024347
0.582136 0.270145 0.024472
0.611845 0.270133 0.024616
0.641537 0.270131 0.024781
0.671208 0.270143 0.024972
0.700853 0.270172 0.025192
0.730458 0.270226 0.025462
0.760020 0.270308 0.025783
0.789723 0.270389 0.026103
0.818223 0.270480 0.026432
0.845357 0.270582 0.026773
0.871123 0.270695 0.027126
0.895522 0.270820 0.027490
0.918554 0.270956 0.027866
0.940218 0.271103 0.028253
0.021400 0.305578 0.022865
0.046739 0.305527 0.022904
0.072762 0.305470 0.022937
0.099468 0.305408 0.022964
0.126858 0.305340 0.022987
0.154930 0.305268 0.023005
0.183683 0.305191 0.023020
0.213117 0.305110 0.023034
0.243231 0.305026 0.023047
0.274401 0.304935 0.023053
0.305658 0.304850 0.023072
0.336904 0.304772 0.023105
0.368137 0.304703 0.023153
0.399357 0.304642 0.023217
0.430562 0.304590 0.023298
0.461752 0.304549 0.023398
0.492925 0.304518 0.023519
0.523551 0.304505 0.023669
0.553224 0.304516 0.023857
0.582872 0.304542 0.024074
0.612482 0.304593 0.024336
0.642045 0.304675 0.024656
0.671607 0.304757 0.024976
0.701169 0.304839 0.025297
0.730731 0.304921 0.025618
0.760293 0.305003 0.025939
0.789979 0.305084 0.026259
0.818421 0.305176 0.026589
0.845496 0.305278 0.026932
0.871204 0.305392 0.027285
0.895545 0.305517 0.027650
0.918519 0.305653 0.028027
0.940125 0.305801 0.028415
0.022622 0.339531 0.021638
0.047962 0.339498 0.021710
0.073985 0.339460 0.021778
0.100690 0.339417 0.021842
0.128076 0.339370 0.021903
0.156143 0.339319 0.021962
0.184889 0.339266 0.022021
0.214313 0.339210 0.022081
0.244415 0.339153 0.022144
0.275573 0.339090 0.022204
0.306783 0.339036 0.022281
0.337977 0.338992 0.022375
0.369154 0.338958 0.022490
0.400314 0.338936 0.022627
0.431452 0.338928 0.022789
0.462564 0.338936 0.022982
0.493638 0.338969 0.023221
0.524070 0.339042 0.023530
0.553632 0.339124 0.023850
0.583194 0.339206 0.024170
0.612756 0.339288 0.024490
0.642318 0.339370 0.024811
0.671880 0.339452 0.025132
0.701442 0.339534 0.025453
0.731005 0.339616 0.025774
0.760567 0.339698 0.026095
0.790233 0.339779 0.026416
0.818617 0.339871 0.026748
0.845634 0.339974 0.027091
0.871284 0.340088 0.027445
0.895566 0.340214 0.027811
0.918482 0.340351 0.028188
0.940030 0.340499 0.028577
0.023712 0.373571 0.020570
0.049050 0.373558 0.020680
0.075068 0.373541 0.020788
0.101767 0.373520 0.020894
0.129144 0.373498 0.021001
0.157199 0.373473 0.021109
0.185930 0.373447 0.021221
0.215336 0.373422 0.021338
0.245414 0.373398 0.021463
0.276547 0.373373 0.021593
0.307691 0.373361 0.021748
0.338810 0.373365 0.021932
0.369897 0.373390 0.022156
0.400927 0.373451 0.022447
0.431943 0.373521 0.022755
0.462960 0.373591 0.023063
0.493976 0.373661 0.023371
0.524343 0.373737 0.023684
0.553905 0.373819 0.024004
0.583467 0.373901 0.024325
0.613030 0.373983 0.024646
0.642592 0.374065 0.024967
0.672154 0.374147 0.025288
0.701716 0.374229 0.025609
0.731278 0.374311 0.025931
0.760840 0.374393 0.026253
0.790484 0.374474 0.026574
0.818810 0.374567 0.026906
0.845769 0.374670 0.027250
0.871360 0.374785 0.027606
0.895585 0.374911 0.027973
0.918442 0.375048 0.028351
0.939932 0.375197 0.028741
0.024649 0.407709 0.019687
0.049978 0.407720 0.019842
0.075986 0.407729 0.019998
0.102669 0.407737 0.020157
0.130028 0.407744 0.020320
0.158059 0.407753 0.020492
0.186761 0.407766 0.020674
0.216127 0.407784 0.020873
0.246152 0.407813 0.021096
0.277196 0.407865 0.021370
0.308213 0.407936 0.021678
0.339229 0.408006 0.021985
0.370246 0.408076 0.022292
0.401262 0.408146 0.022600
0.432279 0.408216 0.022908
0.463295 0.408286 0.023216
0.494312 0.408356 0.023525
0.524617 0.408432 0.023839
0.554179 0.408514 0.024160
0.583741 0.408596 0.024481
0.613303 0.408678 0.024802
0.642865 0.408760 0.025123
0.672427 0.408842 0.025445
0.701989 0.408924 0.025767
0.731552 0.409006 0.026089
0.761114 0.409088 0.026411
0.790733 0.409169 0.026733
0.819000 0.409262 0.027066
0.845901 0.409366 0.027411
0.871434 0.409481 0.027767
0.895601 0.409608 0.028135
0.918400 0.409746 0.028514
0.939832 0.409895 0.028905
0.025399 0.441969 0.019030
0.050708 0.442011 0.019243
0.076689 0.442056 0.019465
0.103339 0.442104 0.019699
0.130651 0.442160 0.019954
0.158605 0.442237 0.020252
0.187215 0.442327 0.020578
0.216508 0.442411 0.020900
0.246515 0.442490 0.021215
0.277531 0.442560 0.021522
0.308548 0.442630 0.021830
0.339564 0.442700 0.022138
0.370581 0.442770 0.022446
0.401598 0.442840 0.022754
0.432614 0.442910 0.023062
0.463631 0.442980 0.023371
0.494647 0.443050 0.023679
0.524890 0.443127 0.023995
0.554452 0.443209 0.024316
0.584014 0.443291 0.024637
0.613576 0.443373 0.024959
0.643139 0.443455 0.025281
0.672701 0.443537 0.025603
0.702263 0.443619 0.025925
0.731825 0.443701 0.026247
0.761402 0.443783 0.026570
0.790979 0.443865 0.026893
0.819188 0.443958 0.027227
0.846031 0.444062 0.027572
0.871506 0.444178 0.027930
0.895614 0.444305 0.028298
0.918355 0.444443 0.028678
0.939729 0.444593 0.029070
0.025874 0.476407 0.018702
0.051106 0.476518 0.019043
0.077010 0.476630 0.019391
0.103598 0.476736 0.019734
0.130869 0.476837 0.020072
0.158824 0.476933 0.020404
0.187463 0.477022 0.020731
0.216785 0.477106 0.021052
0.246850 0.477184 0.021367
0.277867 0.477254 0.021675
0.308883 0.477324 0.021983
0.339900 0.477394 0.022291
0.370916 0.477464 0.022600
0.401933 0.477534 0.022908
0.432949 0.477604 0.023217
0.463966 0.477674 0.023526
0.494983 0.477745 0.023835
0.525164 0.477821 0.024151
0.554726 0.477903 0.024473
0.584288 0.477986 0.024795
0.613850 0.478068 0.025117
0.643412 0.478150 0.025439
0.672974 0.478232 0.025761
0.702536 0.478314 0.026084
0.732098 0.478396 0.026407
0.761704 0.478477 0.026730
0.791223 0.478560 0.027053
0.819374 0.478653 0.027388
0.846158 0.478758 0.027735
0.871575 0.478874 0.028093
0.895625 0.479002 0.028462
0.918308 0.479141 0.028843
0.939624 0.479291 0.029236
0.025960 0.511096 0.018841
0.051210 0.511214 0.019195
0.077143 0.511326 0.019544
0.103760 0.511432 0.019887
0.131060 0.511533 0.020225
0.159045 0.511628 0.020557
0.187712 0.511717 0.020884
0.217063 0.511801 0.021205
0.247186 0.511879 0.021521
0.278202 0.511949 0.021829
0.309219 0.512019 0.022137
0.340236 0.512066 0.022446
0.371253 0.512113 0.022756
0.402270 0.512160 0.023065
0.433287 0.512208 0.023375
0.464305 0.512255 0.023685
0.495322 0.512302 0.023995
0.525442 0.512357 0.024313
0.555004 0.512416 0.024636
0.584567 0.512476 0.024959
0.614130 0.512535 0.025282
0.643693 0.512594 0.025605
0.673255 0.512653 0.025929
0.702818 0.512713 0.026252
0.732381 0.512772 0.026576
0.762013 0.512831 0.026900
0.791474 0.512891 0.027225
0.819568 0.512962 0.027561
0.846295 0.513045 0.027910
0.871654 0.513139 0.028269
0.895647 0.513244 0.028640
0.918272 0.513360 0.029023
0.939530 0.513488 0.029417
0.026098 0.543608 0.019056
0.051377 0.543703 0.019410
0.077340 0.543792 0.019760
0.103987 0.543875 0.020104
0.131317 0.543953 0.020442
0.159331 0.544025 0.020776
0.188028 0.544091 0.021103
0.217409 0.544152 0.021426
0.247588 0.544206 0.021741
0.278605 0.544254 0.022051
0.309622 0.544301 0.022360
0.340639 0.544348 0.022670
0.371657 0.544395 0.022980
0.402674 0.544443 0.023290
0.433691 0.544490 0.023600
0.464708 0.544537 0.023910
0.495725 0.544585 0.024221
0.525783 0.544640 0.024540
0.555346 0.544699 0.024863
0.584909 0.544758 0.025186
0.614471 0.544818 0.025510
0.644034 0.544877 0.025833
0.673597 0.544936 0.026157
0.703160 0.544995 0.026481
0.732723 0.545055 0.026806
0.762379 0.545113 0.027129
0.791781 0.545174 0.027455
0.819817 0.545246 0.027793
0.846485 0.545329 0.028142
0.871787 0.545423 0.028502
0.895721 0.545529 0.028874
0.918288 0.545646 0.029258
0.939488 0.545774 0.029653
0.026243 0.575893 0.019277
0.051552 0.575987 0.019632
0.077544 0.576076 0.019982
0.104220 0.576159 0.020326
0.131579 0.576236 0.020665
0.159622 0.576308 0.020998
0.188349 0.576374 0.021326
0.217759 0.576435 0.021649
0.247991 0.576488 0.021965
0.279009 0.576536 0.022274
0.310026 0.576583 0.022584
0.341043 0.576630 0.022894
0.372060 0.576678 0.023204
0.403077 0.576725 0.023515
0.434095 0.576772 0.023825
0.465112 0.576819 0.024136
0.496129 0.576867 0.024447
0.526125 0.576922 0.024767
0.555688 0.576982 0.025090
0.585250 0.577041 0.025414
0.614813 0.577100 0.025738
0.644376 0.577159 0.026062
0.673939 0.577219 0.026386
0.703502 0.577278 0.026711
0.733064 0.577337 0.027036
0.762741 0.577396 0.027360
0.792086 0.577457 0.027687
0.820063 0.577529 0.028025
0.846674 0.577613 0.028375
0.871917 0.577707 0.028736
0.895793 0.577814 0.029109
0.918302 0.577931 0.029494
0.939443 0.578060 0.029889
0.026390 0.608177 0.019500
0.051728 0.608271 0.019855
0.077749 0.608360 0.020205
0.104454 0.608442 0.020549
0.131842 0.608520 0.020888
0.159914 0.608591 0.021222
0.188670 0.608657 0.021550
0.218109 0.608717 0.021873
0.248395 0.608771 0.022188
0.279412 0.608818 0.022498
0.310429 0.608865 0.022809
0.341447 0.608913 0.023119
0.372464 0.608960 0.023430
0.403481 0.609007 0.023741
0.434498 0.609054 0.024052
0.465515 0.609102 0.024363
0.496532 0.609149 0.024675
0.526467 0.609205 0.024995
0.556029 0.609264 0.025319
0.585592 0.609324 0.025643
0.615155 0.609383 0.025967
0.644718 0.609442 0.026292
0.674280 0.609501 0.026617
0.703843 0.609561 0.026942
0.733406 0.609620 0.027267
0.763101 0.609678 0.027591
0.792388 0.609740 0.027919
0.820307 0.609812 0.028258
0.846859 0.609897 0.028609
0.872044 0.609992 0.028971
0.895862 0.610099 0.029345
0.918313 0.610216 0.029730
0.939396 0.610346 0.030127
0.026538 0.640461 0.019724
0.051905 0.640555 0.020079
0.077955 0.640643 0.020429
0.104689 0.640726 0.020773
0.132107 0.640803 0.021113
0.160208 0.640874 0.021446
0.188992 0.640940 0.021774
0.218461 0.641000 0.022097
0.248799 0.641053 0.022413
0.279816 0.641100 0.022724
0.310833 0.641147 0.023034
0.341850 0.641195 0.023345
0.372867 0.641242 0.023656
0.403885 0.641289 0.023967
0.434902 0.641337 0.024279
0.465919 0.641384 0.024591
0.496936 0.641431 0.024903
0.526808 0.641488 0.025224
0.556371 0.641547 0.025548
0.585934 0.641606 0.025873
0.615497 0.641666 0.026198
0.645059 0.641725 0.026523
0.674622 0.641784 0.026848
0.704185 0.641843 0.027173
0.733748 0.641903 0.027499
0.763459 0.641961 0.027823
0.792687 0.642023 0.028152
0.820549 0.642096 0.028492
0.847043 0.642181 0.028844
0.872169 0.642276 0.029207
0.895929 0.642383 0.029582
0.918322 0.642502 0.029968
0.939347 0.642631 0.030365
0.026687 0.672746 0.019948
0.052083 0.672839 0.020303
0.078162 0.672927 0.020654
0.104926 0.673010 0.020998
0.132372 0.673086 0.021338
0.160502 0.673157 0.021671
0.189316 0.673223 0.022000
0.218813 0.673283 0.022323
0.249202 0.673335 0.022639
0.280219 0.673382 0.022950
0.311237 0.673430 0.023261
0.342254 0.673477 0.023572
0.373271 0.673524 0.023883
0.404288 0.673571 0.024195
0.435305 0.673619 0.024507
0.466322 0.673666 0.024819
0.497340 0.673713 0.025131
0.527150 0.673770 0.025454
0.556713 0.673830 0.025779
0.586276 0.673889 0.026104
0.615838 0.673948 0.026429
0.645401 0.674008 0.026754
0.674964 0.674067 0.027080
0.704527 0.674126 0.027405
0.734089 0.674185 0.027731
0.763815 0.674243 0.028056
0.792985 0.674306 0.028386
0.820788 0.674380 0.028727
0.847223 0.674465 0.029079
0.872292 0.674561 0.029444
0.895993 0.674668 0.029819
0.918328 0.674787 0.030206
0.939295 0.674917 0.030605
0.026838 0.705030 0.020173
0.052263 0.705123 0.020529
0.078371 0.705211 0.020879
0.105163 0.705293 0.021224
0.132639 0.705370 0.021563
0.160798 0.705440 0.021897
0.189641 0.705506 0.022226
0.219167 0.705565 0.022549
0.249606 0.705617 0.022865
0.280623 0.705665 0.023176
0.311640 0.705712 0.023488
0.342657 0.705759 0.023799
0.373675 0.705806 0.024111
0.404692 0.705854 0.024424
0.435709 0.705901 0.024736
0.466726 0.705948 0.025048
0.497743 0.705995 0.025361
0.527492 0.706053 0.025684
0.557054 0.706112 0.026010
0.586617 0.706172 0.026335
0.616180 0.706231 0.026661
0.645743 0.706290 0.026986
0.675305 0.706349 0.027312
0.704868 0.706409 0.027638
0.734431 0.706468 0.027965
0.764167 0.706526 0.028290
0.793279 0.706589 0.028621
0.821024 0.706663 0.028962
0.847402 0.706749 0.029316
0.872412 0.706845 0.029681
0.896055 0.706953 0.030057
0.918332 0.707073 0.030445
0.939241 0.707203 0.030845
0.026989 0.737314 0.020399
0.052443 0.737407 0.020755
0.078581 0.737495 0.021105
0.105402 0.737577 0.021450
0.132907 0.737653 0.021790
0.161095 0.737723 0.022124
0.189967 0.737788 0.022453
0.219523 0.737848 0.022776
0.250009 0.737899 0.023092
0.281027 0.737947 0.023404
0.312044 0.737994 0.023716
0.343061 0.738041 0.024028
0.374078 0.738088 0.024340
0.405095 0.738136 0.024653
0.436112 0.738183 0.024966
0.467130 0.738230 0.025278
0.498147 0.738278 0.025592
0.527833 0.738336 0.025916
0.557396 0.738395 0.026241
0.586959 0.738454 0.026567
0.616522 0.738514 0.026893
0.646084 0.738573 0.027219
0.675647 0.738632 0.027546
0.705210 0.738691 0.027872
0.734773 0.738751 0.028199
0.764518 0.738808 0.028525
0.793571 0.738872 0.028856
0.821258 0.738947 0.029199
0.847577 0.739033 0.029553
0.872530 0.739130 0.029919
0.896115 0.739239 0.030297
0.918337 0.739364 0.030690
0.939195 0.739507 0.031100
0.027132 0.769949 0.020616
0.052615 0.770048 0.020972
0.078782 0.770143 0.021322
0.105632 0.770231 0.021667
0.133166 0.770314 0.022007
0.161383 0.770391 0.022341
0.190284 0.770462 0.022670
0.219868 0.770527 0.022993
0.250402 0.770585 0.023309
0.281419 0.770638 0.023621
0.312436 0.770691 0.023933
0.343453 0.770744 0.024245
0.374470 0.770797 0.024558
0.405487 0.770850 0.024871
0.436504 0.770903 0.025184
0.467521 0.770956 0.025497
0.498538 0.771008 0.025810
0.528162 0.771072 0.026135
0.557725 0.771137 0.026461
0.587287 0.771201 0.026787
0.616850 0.771265 0.027113
0.646413 0.771329 0.027440
0.675975 0.771393 0.027767
0.705538 0.771456 0.028093
0.735101 0.771520 0.028421
0.764852 0.771582 0.028746
0.793848 0.771651 0.029079
0.821483 0.771741 0.029432
0.847757 0.771852 0.029804
0.872670 0.771981 0.030194
0.896220 0.772129 0.030601
0.918406 0.772294 0.031024
0.939228 0.772473 0.031462
0.027283 0.802341 0.020840
0.052796 0.802429 0.021197
0.078992 0.802511 0.021548
0.105871 0.802587 0.021893
0.133434 0.802657 0.022233
0.161681 0.802722 0.022568
0.190611 0.802781 0.022897
0.220225 0.802834 0.023221
0.250805 0.802879 0.023537
0.281822 0.802920 0.023850
0.312840 0.802961 0.024163
0.343857 0.803002 0.024476
0.374874 0.803043 0.024789
0.405892 0.803084 0.025103
0.436909 0.803125 0.025417
0.467926 0.803166 0.025731
0.498944 0.803206 0.026045
0.528507 0.803258 0.026371
0.558070 0.803311 0.026698
0.587633 0.803363 0.027025
0.617195 0.803415 0.027352
0.646758 0.803467 0.027679
0.676321 0.803519 0.028006
0.705889 0.803577 0.028340
0.735465 0.803649 0.028684
0.765241 0.803730 0.029037
0.794207 0.803830 0.029406
0.821812 0.803950 0.029794
0.848054 0.804089 0.030200
0.872934 0.804245 0.030623
0.896449 0.804417 0.031061
0.918599 0.804604 0.031513
0.939384 0.804803 0.031978
0.027472 0.833456 0.021102
0.053014 0.833531 0.021459
0.079239 0.833601 0.021810
0.106148 0.833664 0.022156
0.133741 0.833722 0.022497
0.162017 0.833775 0.022832
0.190976 0.833821 0.023162
0.220620 0.833862 0.023486
0.251244 0.833895 0.023803
0.282262 0.833924 0.024116
0.313280 0.833953 0.024430
0.344297 0.833982 0.024744
0.375315 0.834011 0.025058
0.406333 0.834040 0.025372
0.437350 0.834068 0.025687
0.468368 0.834097 0.026001
0.499324 0.834126 0.026317
0.528887 0.834166 0.026644
0.558450 0.834206 0.026971
0.588015 0.834248 0.027301
0.617587 0.834302 0.027639
0.647167 0.834367 0.027988
0.676755 0.834445 0.028348
0.706351 0.834535 0.028718
0.735956 0.834637 0.029098
0.765762 0.834750 0.029488
0.794697 0.834880 0.029893
0.822270 0.835029 0.030316
0.848480 0.835194 0.030754
0.873325 0.835374 0.031208
0.896805 0.835569 0.031675
0.918918 0.835776 0.032155
0.939665 0.835994 0.032647
0.027698 0.863292 0.021400
0.053269 0.863355 0.021758
0.079524 0.863412 0.022110
0.106462 0.863463 0.022456
0.134084 0.863509 0.022798
0.162390 0.863549 0.023133
0.191379 0.863583 0.023464
0.221052 0.863612 0.023788
0.251720 0.863632 0.024105
0.282738 0.863649 0.024420
0.313756 0.863666 0.024734
0.344774 0.863683 0.025049
0.375792 0.863700 0.025363
0.406810 0.863717 0.025679
0.437828 0.863733 0.025994
0.468846 0.863750 0.026309
0.499744 0.863773 0.026630
