flutter_app/assets/lut/cameras/fqs_fuji_portra.cube
TITLE "FQS Fuji Superia + Kodak Portra"
# DAZZ Camera LUT - FQS
# Fuji Superia 400 + Kodak Portra 400 Color Science
# 2000s 35mm SLR: Canon EOS 300 / Nikon F80 style
# Soft green tone, natural skin, visible grain, low contrast
LUT_3D_SIZE 5
DOMAIN_MIN 0.0 0.0 0.0
DOMAIN_MAX 1.0 1.0 1.0
0.000000 0.003000 0.004400
0.221075 0.000400 0.001903
0.461246 0.000000 0.000000
0.790452 0.000000 0.000000
0.984290 0.000000 0.000000
0.000000 0.252052 0.002940
0.215033 0.249452 0.000444
0.467204 0.252672 0.000000
0.796410 0.248862 0.000000
0.990248 0.246619 0.000000
0.000000 0.518281 0.001380
0.208574 0.515680 0.000000
0.448745 0.512901 0.000000
0.789951 0.514474 0.000000
0.983789 0.510887 0.000000
0.000000 0.883058 0.000000
0.199721 0.878900 0.000000
0.439891 0.874455 0.000000
0.769097 0.868362 0.000000
0.972445 0.868783 0.000000
0.000000 1.000000 0.000000
0.194508 1.000000 0.000000
0.433841 1.000000 0.000000
0.757341 1.000000 0.000000
0.947820 1.000000 0.000000
0.000000 0.000000 0.244531
0.216865 0.000000 0.242035
0.457035 0.000000 0.239366
0.786241 0.000000 0.235708
0.980080 0.000000 0.233554
0.000000 0.248568 0.243072
0.210823 0.245968 0.240575
0.455784 0.245584 0.237907
0.792199 0.245378 0.234249
0.986038 0.243135 0.232095
0.000000 0.514797 0.241512
0.204364 0.512197 0.239015
0.444534 0.509417 0.236346
0.785740 0.510417 0.232688
0.979579 0.506829 0.230534
0.000000 0.879001 0.239373
0.195511 0.874842 0.236876
0.435681 0.870398 0.234208
0.764322 0.863853 0.230173
0.966801 0.863578 0.225779
0.000000 1.000000 0.238114
0.190298 1.000000 0.235617
0.428197 1.000000 0.231434
0.751696 1.000000 0.223972
0.942175 1.000000 0.219578
0.000000 0.000000 0.501224
0.212364 0.000000 0.498727
0.452534 0.000000 0.496058
0.781740 0.000000 0.492400
0.975579 0.000000 0.490247
0.000000 0.244844 0.499764
0.206322 0.242244 0.497268
0.446492 0.239464 0.494599
0.775698 0.235654 0.490941
0.969537 0.233411 0.488787
0.000000 0.511073 0.498204
0.199863 0.508472 0.495707
0.440033 0.505693 0.493039
0.776434 0.503677 0.489381
0.975078 0.502492 0.487227
0.000000 0.874663 0.496065
0.191010 0.870505 0.493569
0.431180 0.866060 0.490900
0.758288 0.858289 0.485843
0.960767 0.858014 0.481450
0.000000 1.000000 0.494806
0.185797 1.000000 0.492309
0.422163 1.000000 0.487104
0.745662 1.000000 0.479642
0.936141 1.000000 0.475248
0.000000 0.000000 0.853076
0.206195 0.000000 0.850580
0.446365 0.000000 0.847911
0.775571 0.000000 0.844253
0.969410 0.000000 0.842099
0.000000 0.239740 0.851617
0.200153 0.237139 0.849120
0.440323 0.234359 0.846452
0.769529 0.230549 0.842794
0.963367 0.227992 0.840640
0.000000 0.505968 0.850057
0.193694 0.503368 0.847560
0.433864 0.500227 0.844891
0.763070 0.494134 0.841233
0.956909 0.490547 0.839079
0.000000 0.868718 0.847918
0.184840 0.864560 0.845421
0.425011 0.860115 0.842753
0.750018 0.850663 0.836295
0.941616 0.844948 0.831901
0.000000 1.000000 0.846659
0.177885 1.000000 0.843000
0.413892 1.000000 0.837556
0.737392 1.000000 0.830094
0.927870 1.000000 0.825700
0.000000 0.000000 1.000000
0.202562 0.000000 1.000000
0.442732 0.000000 1.000000
0.771938 0.000000 1.000000
0.965777 0.000000 1.000000
0.000000 0.236734 1.000000
0.196520 0.234133 1.000000
0.436690 0.231354 1.000000
0.765896 0.227544 1.000000
0.959735 0.224492 1.000000
0.000000 0.502962 1.000000
0.190061 0.500362 1.000000
0.430231 0.496726 1.000000
0.759437 0.490633 1.000000
0.953276 0.487046 1.000000
0.000000 0.865217 1.000000
0.181208 0.861059 1.000000
0.421378 0.856614 1.000000
0.745148 0.846173 1.000000
0.935626 0.839897 1.000000
0.000000 1.000000 1.000000
0.173015 1.000000 1.000000
0.409022 1.000000 1.000000
0.732522 1.000000 1.000000
0.923001 1.000000 1.000000
