flutter_app/assets/lut/cameras/fqs_fuji_portra.cube
TITLE "FQS Fuji Superia + Kodak Portra"
# DAZZ Camera LUT - FQS
# Fuji Superia 400 + Kodak Portra 400 Color Science
# 2000s 35mm SLR: Canon EOS 300 / Nikon F80 style
# Soft green tone, natural skin, visible grain, low contrast
LUT_3D_SIZE 9
DOMAIN_MIN 0.0 0.0 0.0
DOMAIN_MAX 1.0 1.0 1.0
0.000000 0.003000 0.004400
0.104869 0.001745 0.003195
0.221075 0.000400 0.001903
0.339082 0.000000 0.000592
0.461246 0.000000 0.000000
0.621115 0.000000 0.000000
0.790452 0.000000 0.000000
0.885709 0.000000 0.000000
0.984290 0.000000 0.000000
0.000000 0.123238 0.003695
0.101952 0.121983 0.002490
0.223089 0.123103 0.001199
0.345391 0.123885 0.000000
0.470329 0.123858 0.000000
0.630198 0.122008 0.000000
0.799535 0.120048 0.000000
0.894792 0.118945 0.000000
0.993373 0.117804 0.000000
0.000000 0.252052 0.002940
0.098827 0.250797 0.001735
0.215033 0.249452 0.000444
0.342181 0.252657 0.000000
0.467204 0.252672 0.000000
0.627073 0.250822 0.000000
0.796410 0.248862 0.000000
0.891667 0.247760 0.000000
0.990248 0.246619 0.000000
0.000000 0.382863 0.002174
0.095654 0.381607 0.000968
0.211860 0.380262 0.000000
0.329866 0.378896 0.000000
0.464030 0.383482 0.000000
0.623899 0.381632 0.000000
0.793236 0.379672 0.000000
0.888493 0.378570 0.000000
0.987075 0.377337 0.000000
0.000000 0.518281 0.001380
0.092368 0.517025 0.000175
0.208574 0.515680 0.000000
0.326581 0.514315 0.000000
0.448745 0.512901 0.000000
0.620614 0.517050 0.000000
0.789951 0.514474 0.000000
0.885208 0.512711 0.000000
0.983789 0.510887 0.000000
0.000000 0.695495 0.000342
0.088069 0.694240 0.000000
0.204275 0.692895 0.000000
0.322282 0.691529 0.000000
0.444445 0.689336 0.000000
0.604315 0.686377 0.000000
0.785651 0.689243 0.000000
0.880909 0.687480 0.000000
0.979490 0.685656 0.000000
0.000000 0.883058 0.000000
0.083515 0.881051 0.000000
0.199721 0.878900 0.000000
0.317728 0.876716 0.000000
0.439891 0.874455 0.000000
0.599761 0.871496 0.000000
0.769097 0.868362 0.000000
0.863573 0.865974 0.000000
0.972445 0.868783 0.000000
0.000000 0.987193 0.000000
0.080953 0.985186 0.000000
0.197159 0.983035 0.000000
0.315166 0.980851 0.000000
0.437330 0.978590 0.000000
0.597199 0.975632 0.000000
0.763762 0.970279 0.000000
0.857368 0.967195 0.000000
0.954241 0.964003 0.000000
0.000000 1.000000 0.000000
0.078302 1.000000 0.000000
0.194508 1.000000 0.000000
0.312515 1.000000 0.000000
0.433841 1.000000 0.000000
0.590939 1.000000 0.000000
0.757341 1.000000 0.000000
0.850947 1.000000 0.000000
0.947820 1.000000 0.000000
0.000000 0.001318 0.120331
0.102837 0.000063 0.119126
0.219043 0.000000 0.117835
0.337049 0.000000 0.116523
0.459213 0.000000 0.115166
0.619082 0.000000 0.113390
0.788419 0.000000 0.111508
0.883676 0.000000 0.110449
0.982258 0.000000 0.109354
0.000000 0.121556 0.119626
0.099919 0.120301 0.118421
0.216810 0.119298 0.117130
0.339112 0.120080 0.115819
0.465722 0.120889 0.114461
0.628165 0.120326 0.112685
0.797502 0.118366 0.110803
0.892759 0.117263 0.109745
0.991341 0.116122 0.108649
0.000000 0.250370 0.118872
0.096794 0.249115 0.117666
0.213001 0.247770 0.116375
0.335901 0.248851 0.115064
0.462512 0.249661 0.113706
0.625040 0.249140 0.111930
0.794377 0.247180 0.110048
0.889634 0.246078 0.108990
0.988215 0.244937 0.107894
0.000000 0.381181 0.118105
0.093621 0.379925 0.116900
0.209827 0.378580 0.115608
0.327834 0.377214 0.114297
0.459251 0.380428 0.112940
0.621866 0.379950 0.111163
0.791203 0.377990 0.109282
0.886460 0.376888 0.108223
0.985042 0.375378 0.107128
0.000000 0.516599 0.117311
0.090335 0.515343 0.116106
0.206542 0.513998 0.114815
0.324548 0.512633 0.113503
0.446712 0.511219 0.112146
0.618581 0.515368 0.110370
0.787918 0.512515 0.108488
0.883175 0.510752 0.107430
0.981757 0.508928 0.106334
0.000000 0.693813 0.116273
0.086036 0.692558 0.115067
0.202242 0.691213 0.113776
0.320249 0.689638 0.112465
0.442413 0.687377 0.111107
0.602282 0.684418 0.109331
0.783619 0.687284 0.107449
0.878876 0.685521 0.106391
0.977457 0.683697 0.105296
0.000000 0.881099 0.115173
0.081482 0.879092 0.113967
0.197688 0.876941 0.112676
0.315695 0.874757 0.111365
0.437859 0.872496 0.110007
0.597728 0.869537 0.108231
0.767065 0.866404 0.106349
0.860848 0.863461 0.104308
0.969720 0.866270 0.102074
0.000000 0.985234 0.114554
0.078920 0.983227 0.113348
0.195127 0.981076 0.112057
0.313133 0.978892 0.110746
0.435297 0.976631 0.109389
0.594635 0.973248 0.107258
0.761037 0.967766 0.103420
0.854643 0.964682 0.101261
0.951516 0.961491 0.099026
0.000000 1.000000 0.113913
0.076269 1.000000 0.112708
0.192476 1.000000 0.111417
0.310482 1.000000 0.110106
0.431116 1.000000 0.107728
0.588214 1.000000 0.104104
0.754616 1.000000 0.100266
0.848222 1.000000 0.098107
0.945094 1.000000 0.095872
0.000000 0.000000 0.244531
0.100659 0.000000 0.243326
0.216865 0.000000 0.242035
0.334872 0.000000 0.240724
0.457035 0.000000 0.239366
0.616904 0.000000 0.237590
0.786241 0.000000 0.235708
0.881498 0.000000 0.234650
0.980080 0.000000 0.233554
0.000000 0.119754 0.243827
0.097742 0.118499 0.242621
0.213948 0.117154 0.241330
0.331955 0.115788 0.240019
0.454118 0.114374 0.238662
0.613987 0.112524 0.236885
0.783324 0.110564 0.235004
0.878581 0.109461 0.233945
0.977163 0.108320 0.232850
0.000000 0.248568 0.243072
0.094617 0.247313 0.241867
0.210823 0.245968 0.240575
0.329174 0.244774 0.239264
0.455784 0.245584 0.237907
0.621473 0.246643 0.236130
0.792199 0.245378 0.234249
0.887456 0.244276 0.233190
0.986038 0.243135 0.232095
0.000000 0.379379 0.242305
0.091443 0.378123 0.241100
0.207649 0.376778 0.239809
0.325656 0.375412 0.238497
0.452524 0.376351 0.237140
0.618212 0.377410 0.235364
0.789026 0.376188 0.233482
0.884283 0.375086 0.232423
0.982864 0.373280 0.231328
0.000000 0.514797 0.241512
0.088158 0.513541 0.240306
0.204364 0.512197 0.239015
0.322371 0.510831 0.237704
0.444534 0.509417 0.236346
0.614837 0.512768 0.234570
0.785740 0.510417 0.232688
0.880997 0.508654 0.231630
0.979579 0.506829 0.230534
0.000000 0.692011 0.240473
0.083858 0.690756 0.239268
0.200065 0.689411 0.237976
0.318071 0.687539 0.236665
0.440235 0.685278 0.235308
0.600104 0.682320 0.233531
0.781441 0.685186 0.231650
0.876698 0.683423 0.230591
0.975279 0.681598 0.229496
0.000000 0.879001 0.239373
0.079304 0.876993 0.238168
0.195511 0.874842 0.236876
0.313517 0.872659 0.235565
0.435681 0.870398 0.234208
0.595550 0.867439 0.232431
0.764322 0.863853 0.230173
0.857928 0.860769 0.228014
0.966801 0.863578 0.225779
0.000000 0.983136 0.238754
0.076743 0.981128 0.237549
0.192949 0.978978 0.236257
0.310956 0.976794 0.234946
0.433119 0.974533 0.233589
0.591716 0.970556 0.230964
0.758117 0.965074 0.227126
0.851724 0.961990 0.224966
0.948596 0.958799 0.222732
0.000000 1.000000 0.238114
0.074092 1.000000 0.236908
0.190298 1.000000 0.235617
0.308150 1.000000 0.234203
0.428197 1.000000 0.231434
0.585295 1.000000 0.227810
0.751696 1.000000 0.223972
0.845302 1.000000 0.221813
0.942175 1.000000 0.219578
0.000000 0.000000 0.370656
0.098447 0.000000 0.369451
0.214653 0.000000 0.368160
0.332660 0.000000 0.366848
0.454824 0.000000 0.365491
0.614693 0.000000 0.363714
0.784030 0.000000 0.361833
0.879287 0.000000 0.360774
0.977868 0.000000 0.359679
0.000000 0.117924 0.369951
0.095530 0.116669 0.368746
0.211736 0.115324 0.367455
0.329743 0.113958 0.366144
0.451907 0.112544 0.364786
0.611776 0.110694 0.363010
0.781113 0.108734 0.361128
0.876370 0.107632 0.360070
0.974951 0.106491 0.358974
0.000000 0.246739 0.369196
0.092405 0.245483 0.367991
0.208611 0.244138 0.366700
0.326618 0.242772 0.365389
0.448782 0.241359 0.364031
0.608651 0.239508 0.362255
0.777988 0.237548 0.360373
0.873245 0.236446 0.359315
0.971826 0.235305 0.358219
0.000000 0.377549 0.368430
0.089232 0.376293 0.367225
0.205438 0.374948 0.365933
0.323444 0.373583 0.364622
0.445693 0.372211 0.363265
0.611381 0.373270 0.361488
0.786814 0.374359 0.359607
0.882071 0.372973 0.358548
0.980653 0.371149 0.357453
0.000000 0.512967 0.367636
0.085946 0.511712 0.366431
0.202152 0.510367 0.365140
0.320159 0.509001 0.363828
0.442323 0.507587 0.362471
0.608006 0.508326 0.360695
0.783507 0.508274 0.358813
0.878786 0.506523 0.357754
0.977367 0.504698 0.356659
0.000000 0.690182 0.366598
0.081647 0.688926 0.365392
0.197853 0.687581 0.364101
0.315860 0.685408 0.362790
0.438023 0.683147 0.361432
0.597893 0.680189 0.359656
0.779090 0.682985 0.357774
0.874487 0.681292 0.356716
0.973068 0.679467 0.355620
0.000000 0.876869 0.365497
0.077093 0.874862 0.364292
0.193299 0.872711 0.363001
0.311306 0.870527 0.361690
0.433470 0.868266 0.360332
0.593339 0.865308 0.358556
0.761357 0.861119 0.355796
0.854964 0.858036 0.353636
0.963836 0.860844 0.351402
0.000000 0.981005 0.364879
0.074531 0.978997 0.363673
0.190737 0.976847 0.362382
0.308744 0.974663 0.361071
0.430908 0.972402 0.359713
0.588751 0.967822 0.356587
0.755153 0.962340 0.352748
0.848759 0.959256 0.350589
0.945631 0.956065 0.348354
0.000000 1.000000 0.364238
0.071880 1.000000 0.363033
0.188086 1.000000 0.361742
0.305186 1.000000 0.359826
0.425232 1.000000 0.357056
0.582330 1.000000 0.353433
0.748732 1.000000 0.349594
0.842338 1.000000 0.347435
0.939210 1.000000 0.345200
0.000000 0.000000 0.501224
0.096158 0.000000 0.500018
0.212364 0.000000 0.498727
0.330371 0.000000 0.497416
0.452534 0.000000 0.496058
0.612404 0.000000 0.494282
0.781740 0.000000 0.492400
0.876998 0.000000 0.491342
0.975579 0.000000 0.490247
0.000000 0.116030 0.500519
0.093241 0.114775 0.499314
0.209447 0.113430 0.498022
0.327454 0.112064 0.496711
0.449617 0.110650 0.495354
0.609487 0.108800 0.493577
0.778823 0.106840 0.491696
0.874081 0.105737 0.490637
0.972662 0.104596 0.489542
0.000000 0.244844 0.499764
0.090116 0.243589 0.498559
0.206322 0.242244 0.497268
0.324329 0.240878 0.495956
0.446492 0.239464 0.494599
0.606361 0.237614 0.492822
0.775698 0.235654 0.490941
0.870955 0.234552 0.489882
0.969537 0.233411 0.488787
0.000000 0.375654 0.498997
0.086942 0.374399 0.497792
0.203148 0.373054 0.496501
0.321155 0.371688 0.495190
0.443319 0.370274 0.493832
0.603188 0.368424 0.492056
0.772525 0.366464 0.490174
0.867782 0.364767 0.489116
0.966363 0.362942 0.488020
0.000000 0.511073 0.498204
0.083657 0.509817 0.496999
0.199863 0.508472 0.495707
0.317870 0.507107 0.494396
0.440033 0.505693 0.493039
0.600934 0.503729 0.491262
0.776434 0.503677 0.489381
0.875159 0.503648 0.488322
0.975078 0.502492 0.487227
0.000000 0.688287 0.497165
0.079358 0.687032 0.495960
0.195564 0.685386 0.494669
0.313570 0.683202 0.493357
0.435734 0.680941 0.492000
0.595603 0.677982 0.490224
0.772018 0.678387 0.488342
0.870742 0.678358 0.487283
0.970779 0.677261 0.486188
0.000000 0.874663 0.496065
0.074804 0.872656 0.494860
0.191010 0.870505 0.493569
0.309016 0.868321 0.492257
0.431180 0.866060 0.490900
0.591049 0.863102 0.489123
0.758288 0.858289 0.485843
0.851894 0.855205 0.483684
0.960767 0.858014 0.481450
0.000000 0.978799 0.495446
0.072242 0.976791 0.494241
0.188448 0.974640 0.492950
0.306455 0.972456 0.491638
0.428584 0.970168 0.490258
0.585682 0.964992 0.486634
0.752084 0.959510 0.482796
0.845690 0.956426 0.480637
0.942562 0.953235 0.478402
0.000000 1.000000 0.494806
0.069591 1.000000 0.493601
0.185797 1.000000 0.492309
0.302117 1.000000 0.489873
0.422163 1.000000 0.487104
0.579261 1.000000 0.483480
0.745662 1.000000 0.479642
0.839268 1.000000 0.477483
0.936141 1.000000 0.475248
0.000000 0.000000 0.672091
0.093162 0.000000 0.670885
0.209368 0.000000 0.669594
0.327375 0.000000 0.668283
0.449538 0.000000 0.666925
0.609408 0.000000 0.665149
0.778744 0.000000 0.663267
0.874002 0.000000 0.662209
0.972583 0.000000 0.661113
0.000000 0.113551 0.671386
0.090245 0.112296 0.670181
0.206451 0.110951 0.668889
0.324458 0.109585 0.667578
0.446621 0.108171 0.666221
0.606491 0.106321 0.664444
0.775827 0.104361 0.662563
0.871085 0.103258 0.661504
0.969666 0.102117 0.660409
0.000000 0.242365 0.670631
0.087120 0.241110 0.669426
0.203326 0.239765 0.668134
0.321333 0.238399 0.666823
0.443496 0.236985 0.665466
0.603365 0.235135 0.663689
0.772702 0.233175 0.661808
0.867959 0.232073 0.660749
0.966541 0.230932 0.659654
0.000000 0.373176 0.669864
0.083946 0.371920 0.668659
0.200152 0.370575 0.667368
0.318159 0.369209 0.666056
0.440323 0.367795 0.664699
0.600192 0.365945 0.662923
0.769529 0.363643 0.661041
0.864786 0.361880 0.659983
0.963367 0.360055 0.658887
0.000000 0.508594 0.669071
0.080661 0.507338 0.667865
0.196867 0.505993 0.666574
0.314874 0.504628 0.665263
0.437037 0.503214 0.663905
0.596907 0.500326 0.662129
0.766243 0.497192 0.660247
0.861501 0.495429 0.659189
0.960082 0.493605 0.658094
0.000000 0.685808 0.668032
0.076362 0.684553 0.666827
0.192568 0.682499 0.665536
0.310574 0.680315 0.664224
0.432738 0.678054 0.662867
0.592607 0.675095 0.661090
0.762763 0.672370 0.659209
0.861487 0.672341 0.658150
0.963655 0.672309 0.657054
0.000000 0.871776 0.666932
0.071808 0.869769 0.665727
0.188014 0.867618 0.664435
0.306020 0.865434 0.663124
0.428184 0.863173 0.661767
0.587870 0.860068 0.659868
0.754272 0.854586 0.656030
0.847878 0.851502 0.653871
0.952500 0.852185 0.651636
0.000000 0.975911 0.666313
0.069246 0.973904 0.665108
0.185452 0.971753 0.663817
0.303459 0.969569 0.662505
0.424568 0.966464 0.660445
0.581666 0.961289 0.656821
0.748067 0.955807 0.652982
0.841673 0.952723 0.650823
0.938546 0.949531 0.648589
0.000000 1.000000 0.665673
0.066595 1.000000 0.664467
0.182139 1.000000 0.662735
0.298100 1.000000 0.660060
0.418146 1.000000 0.657291
0.575244 1.000000 0.653667
0.741646 1.000000 0.649829
0.835252 1.000000 0.647669
0.932125 1.000000 0.645435
0.000000 0.000000 0.853076
0.089989 0.000000 0.851871
0.206195 0.000000 0.850580
0.324201 0.000000 0.849269
0.446365 0.000000 0.847911
0.606234 0.000000 0.846135
0.775571 0.000000 0.844253
0.870828 0.000000 0.843195
0.969410 0.000000 0.842099
0.000000 0.110925 0.852372
0.087071 0.109670 0.851166
0.203278 0.108325 0.849875
0.321284 0.106959 0.848564
0.443448 0.105545 0.847207
0.603317 0.103695 0.845430
0.772654 0.101735 0.843549
0.867911 0.100632 0.842490
0.966493 0.099491 0.841395
0.000000 0.239740 0.851617
0.083946 0.238484 0.850412
0.200153 0.237139 0.849120
0.318159 0.235773 0.847809
0.440323 0.234359 0.846452
0.600192 0.232509 0.844675
0.769529 0.230549 0.842794
0.864786 0.229447 0.841735
0.963367 0.227992 0.840640
0.000000 0.370550 0.850850
0.080773 0.369294 0.849645
0.196979 0.367949 0.848354
0.314986 0.366584 0.847042
0.437149 0.365170 0.845685
0.597018 0.363319 0.843909
0.766355 0.360585 0.842027
0.861612 0.358822 0.840969
0.960194 0.356997 0.839873
0.000000 0.505968 0.850057
0.077487 0.504713 0.848851
0.193694 0.503368 0.847560
0.311700 0.502002 0.846249
0.433864 0.500227 0.844891
0.593733 0.497268 0.843115
0.763070 0.494134 0.841233
0.858327 0.492371 0.840175
0.956909 0.490547 0.839079
0.000000 0.683183 0.849018
0.073188 0.681591 0.847813
0.189394 0.679441 0.846521
0.307401 0.677257 0.845210
0.429565 0.674996 0.843853
0.589434 0.672037 0.842076
0.758771 0.668903 0.840195
0.854028 0.667140 0.839136
0.951526 0.664449 0.837319
0.000000 0.868718 0.847918
0.068634 0.866711 0.846713
0.184840 0.864560 0.845421
0.302847 0.862376 0.844110
0.425011 0.860115 0.842753
0.583616 0.856145 0.840134
0.750018 0.850663 0.836295
0.843624 0.847579 0.834136
0.941616 0.844948 0.831901
0.000000 0.972853 0.847299
0.066072 0.970846 0.846094
0.182279 0.968695 0.844803
0.300267 0.966497 0.843479
0.420313 0.962542 0.840710
0.577411 0.957366 0.837086
0.743813 0.951884 0.833248
0.837419 0.948800 0.831089
0.934292 0.945609 0.828854
0.000000 1.000000 0.846659
0.063421 1.000000 0.845453
0.177885 1.000000 0.843000
0.293846 1.000000 0.840325
0.413892 1.000000 0.837556
0.570990 1.000000 0.833932
0.737392 1.000000 0.830094
0.830998 1.000000 0.827935
0.927870 1.000000 0.825700
0.000000 0.000000 0.954887
0.088203 0.000000 0.953681
0.204410 0.000000 0.952390
0.322416 0.000000 0.951079
0.444580 0.000000 0.949721
0.604449 0.000000 0.947945
0.773786 0.000000 0.946063
0.869043 0.000000 0.945005
0.967624 0.000000 0.943909
0.000000 0.109448 0.954182
0.085286 0.108193 0.952977
0.201492 0.106848 0.951685
0.319499 0.105482 0.950374
0.441663 0.104068 0.949017
0.601532 0.102218 0.947240
0.770869 0.100258 0.945359
0.866126 0.099155 0.944300
0.964707 0.098014 0.943205
0.000000 0.238262 0.953427
0.082161 0.237007 0.952222
0.198367 0.235662 0.950930
0.316374 0.234296 0.949619
0.438538 0.232882 0.948262
0.598407 0.231032 0.946485
0.767744 0.229072 0.944604
0.863001 0.227970 0.943545
0.961582 0.226272 0.942450
0.000000 0.369073 0.952660
0.078988 0.367817 0.951455
0.195194 0.366472 0.950164
0.313201 0.365106 0.948853
0.435364 0.363693 0.947495
0.595233 0.361842 0.945719
0.764570 0.358864 0.943837
0.859827 0.357101 0.942779
0.958409 0.355277 0.941683
0.000000 0.504491 0.951867
0.075702 0.503235 0.950661
0.191909 0.501891 0.949370
0.309915 0.500525 0.948059
0.432079 0.498506 0.946702
0.591948 0.495548 0.944925
0.761285 0.492414 0.943043
0.856542 0.490651 0.941985
0.955123 0.488826 0.940890
0.000000 0.681705 0.950828
0.071403 0.679871 0.949623
0.187609 0.677720 0.948332
0.305616 0.675536 0.947020
0.427780 0.673275 0.945663
0.587649 0.670317 0.943886
0.756985 0.667183 0.942005
0.852243 0.665420 0.940946
0.949133 0.662243 0.938724
0.000000 0.866998 0.949728
0.066849 0.864990 0.948523
0.183055 0.862840 0.947232
0.301062 0.860656 0.945920
0.423226 0.858395 0.944563
0.581223 0.853938 0.941538
0.747624 0.848456 0.937700
0.841230 0.845372 0.935541
0.938103 0.842181 0.933306
0.000000 0.971133 0.949109
0.064287 0.969125 0.947904
0.180493 0.966975 0.946613
0.297874 0.964290 0.944884
0.417920 0.960335 0.942115
0.575018 0.955159 0.938491
0.741420 0.949677 0.934653
0.835026 0.946593 0.932493
0.931898 0.943402 0.930259
0.000000 1.000000 0.948469
0.061300 1.000000 0.947039
0.175491 1.000000 0.944405
0.291453 1.000000 0.941730
0.411499 1.000000 0.938961
0.568597 1.000000 0.935337
0.734999 1.000000 0.931499
0.828605 1.000000 0.929340
0.925477 1.000000 0.927105
0.000000 0.000000 1.000000
0.086356 0.000000 1.000000
0.202562 0.000000 1.000000
0.320569 0.000000 1.000000
0.442732 0.000000 1.000000
0.602602 0.000000 1.000000
0.771938 0.000000 1.000000
0.867196 0.000000 1.000000
0.965777 0.000000 1.000000
0.000000 0.107920 1.000000
0.083439 0.106664 1.000000
0.199645 0.105319 1.000000
0.317652 0.103953 1.000000
0.439815 0.102539 1.000000
0.599684 0.100689 1.000000
0.769021 0.098729 1.000000
0.864279 0.097627 1.000000
0.962860 0.096486 1.000000
0.000000 0.236734 1.000000
0.080314 0.235478 1.000000
0.196520 0.234133 1.000000
0.314527 0.232768 1.000000
0.436690 0.231354 1.000000
0.596559 0.229503 1.000000
0.765896 0.227544 1.000000
0.861153 0.226316 1.000000
0.959735 0.224492 1.000000
0.000000 0.367544 1.000000
0.077140 0.366289 1.000000
0.193346 0.364944 1.000000
0.311353 0.363578 1.000000
0.433517 0.362164 1.000000
0.593386 0.360218 1.000000
0.762723 0.357084 1.000000
0.857980 0.355321 1.000000
0.956561 0.353497 1.000000
0.000000 0.502962 1.000000
0.073855 0.501707 1.000000
0.190061 0.500362 1.000000
0.308068 0.498987 1.000000
0.430231 0.496726 1.000000
0.590101 0.493767 1.000000
0.759437 0.490633 1.000000
0.854695 0.488870 1.000000
0.953276 0.487046 1.000000
0.000000 0.680098 1.000000
0.069556 0.678091 1.000000
0.185762 0.675940 1.000000
0.303768 0.673756 1.000000
0.425932 0.671495 1.000000
0.585801 0.668536 1.000000
0.755138 0.665402 1.000000
0.849784 0.663150 1.000000
0.946656 0.659959 1.000000
0.000000 0.865217 1.000000
0.065002 0.863210 1.000000
0.181208 0.861059 1.000000
0.299214 0.858875 1.000000
0.421378 0.856614 1.000000
0.578746 0.851655 1.000000
0.745148 0.846173 1.000000
0.838754 0.843089 1.000000
0.935626 0.839897 1.000000
0.000000 0.969353 1.000000
0.062440 0.967345 1.000000
0.178646 0.965194 1.000000
0.295397 0.962006 1.000000
0.415443 0.958051 1.000000
0.572541 0.952876 1.000000
0.738943 0.947393 1.000000
0.832549 0.944310 1.000000
0.929422 0.941118 1.000000
0.000000 1.000000 1.000000
0.058823 1.000000 1.000000
0.173015 1.000000 1.000000
0.288976 1.000000 1.000000
0.409022 1.000000 1.000000
0.566120 1.000000 1.000000
0.732522 1.000000 1.000000
0.826128 1.000000 1.000000
0.923001 1.000000 1.000000
