flutter_app/assets/lut/cameras/fqs_superia400_indoor.cube
TITLE "FQS Fuji Superia 400 Indoor"
# DAZZ Camera LUT - FQS (Fujifilm QuickSnap Flash 400)
# Fujifilm Superia 400 Indoor Warm Light Color Science
# Variant: Indoor - Warm light compensation, green tone preserved
# Generated by DAZZ Color Science Engine
# Key: R-4%, G+5.5%, B+6.5%, shadow lift, highlight warm yellow
LUT_3D_SIZE 33
DOMAIN_MIN 0.0 0.0 0.0
DOMAIN_MAX 1.0 1.0 1.0
0.031266 0.038923 0.039550
0.052763 0.038915 0.039370
0.075439 0.038895 0.039170
0.099293 0.038865 0.038950
0.124326 0.038823 0.038710
0.150537 0.038770 0.038452
0.177925 0.038706 0.038176
0.206491 0.038632 0.037882
0.236234 0.038547 0.037571
0.267874 0.038446 0.037230
0.300068 0.038341 0.036886
0.332259 0.038239 0.036547
0.364446 0.038139 0.036215
0.396630 0.038043 0.035888
0.428809 0.037950 0.035569
0.460986 0.037859 0.035256
0.493158 0.037772 0.034950
0.524345 0.037697 0.034666
0.553564 0.037644 0.034422
0.582780 0.037593 0.034184
0.611992 0.037546 0.033952
0.641202 0.037501 0.033725
0.670408 0.037458 0.033505
0.699610 0.037419 0.033291
0.728809 0.037382 0.033083
0.758004 0.037349 0.032882
0.788138 0.037309 0.032673
0.817208 0.037283 0.032486
0.845215 0.037269 0.032322
0.872159 0.037266 0.032180
0.898041 0.037276 0.032058
0.922861 0.037297 0.031957
0.946619 0.037329 0.031876
0.032305 0.063560 0.038501
0.053833 0.063567 0.038330
0.076540 0.063562 0.038140
0.100425 0.063546 0.037930
0.125488 0.063519 0.037701
0.151728 0.063482 0.037455
0.179146 0.063434 0.037191
0.207741 0.063376 0.036910
0.237512 0.063308 0.036612
0.269202 0.063223 0.036286
0.301387 0.063136 0.035957
0.333568 0.063052 0.035635
0.365746 0.062971 0.035319
0.397920 0.062892 0.035010
0.430090 0.062817 0.034707
0.462256 0.062745 0.034412
0.494419 0.062676 0.034123
0.525503 0.062620 0.033859
0.554713 0.062585 0.033631
0.583919 0.062552 0.033410
0.613122 0.062523 0.033195
0.642321 0.062496 0.032986
0.671517 0.062473 0.032784
0.700709 0.062452 0.032588
0.729897 0.062434 0.032398
0.759127 0.062419 0.032215
0.789216 0.062399 0.032027
0.818242 0.062392 0.031860
0.846205 0.062397 0.031716
0.873105 0.062414 0.031593
0.898943 0.062443 0.031491
0.923719 0.062483 0.031409
0.947433 0.062535 0.031347
0.033337 0.089310 0.037421
0.054897 0.089331 0.037260
0.077634 0.089341 0.037080
0.101549 0.089341 0.036881
0.126641 0.089330 0.036665
0.152911 0.089309 0.036431
0.180358 0.089277 0.036180
0.208981 0.089236 0.035913
0.238781 0.089185 0.035631
0.270517 0.089118 0.035321
0.302692 0.089049 0.035009
0.334863 0.088983 0.034704
0.367030 0.088920 0.034407
0.399194 0.088861 0.034116
0.431353 0.088804 0.033832
0.463509 0.088751 0.033555
0.495660 0.088701 0.033286
0.526642 0.088665 0.033042
0.555841 0.088649 0.032833
0.585037 0.088635 0.032630
0.614229 0.088625 0.032434
0.643417 0.088617 0.032245
0.672601 0.088613 0.032062
0.701782 0.088611 0.031886
0.730958 0.088613 0.031718
0.760220 0.088618 0.031555
0.790264 0.088619 0.031390
0.819244 0.088633 0.031246
0.847161 0.088658 0.031124
0.874016 0.088696 0.031023
0.899808 0.088745 0.030943
0.924539 0.088805 0.030883
0.948209 0.088877 0.030842
0.034360 0.116175 0.036317
0.055950 0.116211 0.036166
0.078717 0.116237 0.035997
0.102662 0.116253 0.035811
0.127783 0.116258 0.035607
0.154082 0.116253 0.035387
0.181556 0.116239 0.035151
0.210207 0.116215 0.034900
0.240034 0.116182 0.034634
0.271815 0.116133 0.034341
0.303979 0.116083 0.034049
0.336139 0.116036 0.033764
0.368295 0.115993 0.033486
0.400447 0.115953 0.033215
0.432595 0.115916 0.032952
0.464738 0.115882 0.032696
0.496878 0.115852 0.032448
0.527755 0.115837 0.032227
0.556943 0.115840 0.032038
0.586127 0.115847 0.031856
0.615307 0.115856 0.031681
0.644482 0.115869 0.031513
0.673654 0.115884 0.031353
0.702822 0.115904 0.031200
0.731985 0.115927 0.031054
0.761277 0.115952 0.030915
0.791273 0.115975 0.030775
0.820205 0.116011 0.030657
0.848075 0.116058 0.030561
0.874883 0.116118 0.030486
0.900628 0.116189 0.030431
0.925312 0.116271 0.030395
0.948934 0.116364 0.030379
0.035369 0.144158 0.035196
0.056988 0.144211 0.035057
0.079785 0.144253 0.034901
0.103758 0.144285 0.034728
0.128908 0.144307 0.034538
0.155234 0.144319 0.034333
0.182736 0.144322 0.034113
0.211414 0.144317 0.033879
0.241267 0.144302 0.033632
0.273090 0.144272 0.033358
0.305242 0.144242 0.033087
0.337390 0.144215 0.032823
0.369534 0.144192 0.032567
0.401673 0.144172 0.032318
0.433808 0.144156 0.032078
0.465939 0.144143 0.031845
0.498064 0.144135 0.031621
0.528837 0.144141 0.031424
0.558012 0.144165 0.031258
0.587182 0.144192 0.031099
0.616349 0.144222 0.030948
0.645510 0.144256 0.030804
0.674668 0.144294 0.030669
0.703821 0.144335 0.030542
0.732969 0.144380 0.030423
0.762287 0.144428 0.030311
0.792233 0.144475 0.030201
0.821116 0.144535 0.030113
0.848936 0.144606 0.030047
0.875694 0.144689 0.030001
0.901390 0.144784 0.029976
0.926023 0.144890 0.029971
0.949596 0.145008 0.029985
0.036359 0.173265 0.034067
0.058007 0.173334 0.033941
0.080832 0.173392 0.033799
0.104834 0.173441 0.033640
0.130011 0.173481 0.033467
0.156364 0.173511 0.033278
0.183893 0.173532 0.033076
0.212596 0.173546 0.032861
0.242474 0.173550 0.032633
0.274338 0.173540 0.032382
0.306477 0.173531 0.032133
0.338611 0.173525 0.031893
0.370741 0.173523 0.031661
0.402866 0.173525 0.031437
0.434987 0.173531 0.031222
0.467102 0.173540 0.031015
0.499213 0.173554 0.030818
0.529879 0.173583 0.030649
0.559039 0.173629 0.030508
0.588194 0.173678 0.030375
0.617345 0.173731 0.030251
0.646491 0.173788 0.030136
0.675632 0.173849 0.030029
0.704768 0.173914 0.029932
0.733899 0.173983 0.029845
0.763240 0.174056 0.029765
0.793133 0.174129 0.029690
0.821963 0.174215 0.029638
0.849729 0.174314 0.029608
0.876433 0.174424 0.029600
0.902074 0.174546 0.029613
0.926653 0.174680 0.029646
0.950170 0.174826 0.029701
0.037324 0.203499 0.032940
0.059001 0.203584 0.032829
0.081854 0.203660 0.032702
0.105882 0.203726 0.032559
0.131086 0.203784 0.032403
0.157465 0.203833 0.032234
0.185019 0.203874 0.032051
0.213746 0.203907 0.031857
0.243648 0.203932 0.031652
0.275550 0.203943 0.031424
0.307674 0.203956 0.031201
0.339793 0.203972 0.030988
0.371908 0.203993 0.030782
0.404017 0.204017 0.030586
0.436122 0.204046 0.030400
0.468221 0.204079 0.030223
0.500314 0.204117 0.030055
0.530871 0.204171 0.029917
0.560014 0.204240 0.029806
0.589152 0.204313 0.029704
0.618285 0.204391 0.029612
0.647412 0.204473 0.029529
0.676534 0.204560 0.029457
0.705649 0.204652 0.029396
0.734758 0.204748 0.029347
0.764116 0.204849 0.029307
0.793951 0.204953 0.029277
0.822722 0.205070 0.029271
0.850428 0.205200 0.029290
0.877070 0.205344 0.029334
0.902646 0.205502 0.029403
0.927156 0.205675 0.029501
0.950592 0.205869 0.029640
0.038258 0.234865 0.031828
0.059962 0.234967 0.031732
0.082842 0.235061 0.031621
0.106896 0.235146 0.031498
0.132126 0.235223 0.031361
0.158529 0.235292 0.031212
0.186107 0.235353 0.031052
0.214857 0.235407 0.030881
0.244781 0.235454 0.030701
0.276718 0.235487 0.030500
0.308825 0.235523 0.030307
0.340928 0.235564 0.030123
0.373025 0.235608 0.029948
0.405117 0.235657 0.029784
0.437202 0.235711 0.029630
0.469282 0.235770 0.029487
0.501355 0.235834 0.029355
0.531800 0.235915 0.029254
0.560923 0.236010 0.029178
0.590041 0.236110 0.029112
0.619152 0.236215 0.029059
0.648256 0.236326 0.029017
0.677353 0.236442 0.028988
0.706442 0.236565 0.028974
0.735522 0.236695 0.028975
0.764887 0.236831 0.028992
0.794652 0.236975 0.029027
0.823347 0.237136 0.029098
0.850960 0.237324 0.029223
0.877512 0.237523 0.029368
0.903010 0.237727 0.029517
0.927455 0.237936 0.029671
0.950847 0.238149 0.029830
0.039156 0.267763 0.030721
0.060886 0.267891 0.030643
0.083791 0.268010 0.030552
0.107870 0.268122 0.030449
0.133123 0.268225 0.030334
0.159550 0.268321 0.030208
0.187150 0.268410 0.030073
0.215921 0.268493 0.029929
0.245865 0.268569 0.029778
0.277833 0.268633 0.029609
0.309921 0.268700 0.029449
0.342004 0.268773 0.029300
0.374080 0.268849 0.029162
0.406150 0.268932 0.029035
0.438214 0.269019 0.028920
0.470270 0.269112 0.028819
0.502318 0.269211 0.028731
0.532646 0.269328 0.028674
0.561744 0.269458 0.028642
0.590835 0.269595 0.028625
0.619916 0.269739 0.028623
0.648988 0.269890 0.028639
0.678048 0.270051 0.028675
0.707093 0.270223 0.028737
0.736112 0.270416 0.028847
0.765449 0.270618 0.028980
0.795127 0.270819 0.029112
0.823752 0.271024 0.029248
0.851323 0.271234 0.029389
0.877841 0.271448 0.029534
0.903306 0.271667 0.029683
0.927718 0.271890 0.029838
0.951077 0.272117 0.029996
0.040003 0.301577 0.029672
0.061758 0.301714 0.029615
0.084687 0.301844 0.029546
0.108789 0.301965 0.029467
0.134064 0.302080 0.029378
0.160512 0.302188 0.029280
0.188132 0.302290 0.029174
0.216922 0.302386 0.029062
0.246883 0.302478 0.028945
0.278878 0.302558 0.028814
0.310944 0.302643 0.028694
0.343003 0.302733 0.028586
0.375055 0.302830 0.028492
0.407099 0.302932 0.028412
0.439134 0.303041 0.028346
0.471161 0.303158 0.028298
0.503177 0.303282 0.028267
0.533379 0.303426 0.028271
0.562441 0.303585 0.028305
0.591488 0.303756 0.028364
0.620510 0.303946 0.028468
0.649515 0.304150 0.028602
0.678519 0.304354 0.028737
0.707524 0.304557 0.028871
0.736529 0.304761 0.029006
0.765904 0.304963 0.029139
0.795548 0.305164 0.029271
0.824140 0.305370 0.029408
0.851678 0.305580 0.029549
0.878164 0.305794 0.029694
0.903596 0.306013 0.029844
0.927975 0.306236 0.029999
0.951301 0.306464 0.030158
0.040787 0.335442 0.028737
0.062565 0.335589 0.028703
0.085517 0.335730 0.028660
0.109641 0.335863 0.028607
0.134936 0.335990 0.028547
0.161403 0.336112 0.028480
0.189040 0.336229 0.028409
0.217846 0.336341 0.028333
0.247821 0.336450 0.028256
0.279838 0.336550 0.028169
0.311877 0.336656 0.028097
0.343907 0.336769 0.028041
0.375928 0.336889 0.028002
0.407938 0.337018 0.027983
0.439935 0.337158 0.027986
0.471916 0.337309 0.028017
0.503872 0.337481 0.028093
0.533913 0.337680 0.028223
0.562918 0.337884 0.028358
0.591922 0.338088 0.028492
0.620927 0.338291 0.028627
0.649932 0.338495 0.028761
0.678937 0.338699 0.028896
0.707941 0.338903 0.029031
0.736946 0.339107 0.029166
0.766357 0.339309 0.029299
0.795968 0.339510 0.029431
0.824527 0.339716 0.029568
0.852032 0.339926 0.029710
0.878485 0.340140 0.029855
0.903884 0.340359 0.030006
0.928230 0.340582 0.030161
0.951523 0.340810 0.030320
0.041500 0.369363 0.027930
0.063301 0.369522 0.027923
0.086273 0.369675 0.027908
0.110415 0.369822 0.027886
0.135728 0.369964 0.027860
0.162211 0.370102 0.027831
0.189861 0.370236 0.027799
0.218679 0.370368 0.027769
0.248678 0.370498 0.027741
0.280692 0.370624 0.027713
0.312695 0.370758 0.027705
0.344684 0.370904 0.027723
0.376654 0.371065 0.027775
0.408590 0.371251 0.027886
0.440520 0.371443 0.028008
0.472450 0.371634 0.028130
0.504380 0.371826 0.028252
0.534330 0.372026 0.028382
0.563335 0.372229 0.028517
0.592339 0.372433 0.028651
0.621344 0.372637 0.028786
0.650349 0.372841 0.028921
0.679354 0.373044 0.029056
0.708358 0.373248 0.029191
0.737363 0.373452 0.029326
0.766809 0.373654 0.029459
0.796387 0.373855 0.029592
0.824913 0.374061 0.029729
0.852386 0.374271 0.029871
0.878805 0.374486 0.030017
0.904172 0.374705 0.030168
0.928485 0.374928 0.030323
0.951745 0.375156 0.030483
0.042132 0.403349 0.027270
0.063951 0.403521 0.027294
0.086940 0.403689 0.027314
0.111098 0.403853 0.027331
0.136423 0.404014 0.027348
0.162915 0.404173 0.027366
0.190572 0.404331 0.027389
0.219391 0.404491 0.027422
0.249427 0.404655 0.027471
0.281378 0.404830 0.027556
0.313308 0.405022 0.027678
0.345238 0.405213 0.027800
0.377168 0.405405 0.027922
0.409099 0.405596 0.028044
0.441029 0.405788 0.028166
0.472959 0.405979 0.028288
0.504889 0.406171 0.028411
0.534747 0.406371 0.028542
0.563752 0.406575 0.028676
0.592756 0.406779 0.028811
0.621761 0.406982 0.028946
0.650766 0.407186 0.029081
0.679771 0.407390 0.029216
0.708775 0.407594 0.029351
0.737780 0.407797 0.029486
0.767259 0.407999 0.029620
0.796805 0.408201 0.029753
0.825298 0.408407 0.029890
0.852738 0.408617 0.030033
0.879125 0.408832 0.030179
0.904458 0.409051 0.030330
0.928738 0.409275 0.030486
0.951965 0.409503 0.030646
0.042664 0.437414 0.026791
0.064496 0.437605 0.026857
0.087495 0.437794 0.026924
0.111658 0.437982 0.026996
0.136982 0.438172 0.027079
0.163460 0.438370 0.027187
0.191088 0.438580 0.027327
0.219885 0.438784 0.027462
0.249956 0.438984 0.027592
0.281887 0.439175 0.027714
0.313817 0.439367 0.027836
0.345747 0.439558 0.027958
0.377677 0.439750 0.028080
0.409607 0.439941 0.028202
0.441537 0.440133 0.028325
0.473467 0.440324 0.028447
0.505397 0.440516 0.028570
0.535164 0.440716 0.028701
0.564169 0.440920 0.028836
0.593174 0.441124 0.028971
0.622178 0.441328 0.029107
0.651183 0.441532 0.029242
0.680188 0.441735 0.029377
0.709193 0.441939 0.029512
0.738197 0.442143 0.029648
0.767709 0.442345 0.029781
0.797222 0.442546 0.029914
0.825682 0.442752 0.030052
0.853089 0.442963 0.030195
0.879443 0.443178 0.030342
0.904743 0.443397 0.030493
0.928991 0.443621 0.030649
0.952185 0.443849 0.030809
0.043046 0.471598 0.026580
0.064862 0.471829 0.026738
0.087846 0.472058 0.026897
0.111999 0.472282 0.027051
0.137323 0.472501 0.027201
0.163817 0.472716 0.027345
0.191481 0.472925 0.027485
0.220315 0.473130 0.027620
0.250465 0.473329 0.027750
0.282395 0.473520 0.027872
0.314325 0.473712 0.027994
0.346255 0.473903 0.028117
0.378185 0.474095 0.028239
0.410116 0.474286 0.028362
0.442046 0.474478 0.028484
0.473976 0.474669 0.028607
0.505906 0.474861 0.028730
0.535581 0.475062 0.028862
0.564586 0.475266 0.028997
0.593591 0.475469 0.029132
0.622595 0.475673 0.029267
0.651600 0.475877 0.029403
0.680605 0.476081 0.029538
0.709610 0.476285 0.029674
0.738614 0.476488 0.029809
0.768158 0.476690 0.029943
0.797638 0.476892 0.030076
0.826065 0.477098 0.030215
0.853439 0.477309 0.030357
0.879760 0.477524 0.030505
0.905028 0.477743 0.030656
0.929242 0.477967 0.030812
0.952403 0.478195 0.030973
0.043223 0.505942 0.026733
0.065073 0.506175 0.026897
0.088093 0.506404 0.027056
0.112283 0.506628 0.027210
0.137644 0.506847 0.027359
0.164174 0.507061 0.027504
0.191875 0.507271 0.027644
0.220745 0.507475 0.027779
0.250973 0.507674 0.027909
0.282904 0.507865 0.028031
0.314834 0.508057 0.028153
0.346764 0.508248 0.028276
0.378694 0.508440 0.028399
0.410624 0.508631 0.028521
0.442554 0.508823 0.028644
0.474484 0.509014 0.028767
0.506414 0.509206 0.028890
0.535998 0.509407 0.029023
0.565003 0.509600 0.029158
0.594008 0.509781 0.029294
0.623013 0.509962 0.029430
0.652018 0.510143 0.029565
0.681023 0.510324 0.029701
0.710028 0.510506 0.029837
0.739034 0.510687 0.029973
0.768609 0.510866 0.030107
0.798056 0.511045 0.030242
0.826451 0.511229 0.030381
0.853792 0.511417 0.030524
0.880080 0.511609 0.030672
0.905315 0.511806 0.030824
0.929497 0.512007 0.030981
0.952626 0.512213 0.031142
0.043428 0.538297 0.026920
0.065314 0.538508 0.027084
0.088371 0.538714 0.027244
0.112598 0.538915 0.027398
0.137995 0.539111 0.027548
0.164563 0.539303 0.027693
0.192300 0.539489 0.027834
0.221208 0.539671 0.027969
0.251513 0.539846 0.028099
0.283443 0.540015 0.028221
0.315374 0.540184 0.028344
0.347304 0.540353 0.028467
0.379235 0.540522 0.028591
0.411165 0.540691 0.028714
0.443095 0.540860 0.028837
0.475026 0.541029 0.028960
0.506956 0.541198 0.029084
0.536449 0.541377 0.029218
0.565454 0.541558 0.029353
0.594459 0.541739 0.029489
0.623464 0.541920 0.029625
0.652469 0.542102 0.029761
0.681474 0.542283 0.029898
0.710479 0.542464 0.030034
0.739485 0.542645 0.030170
0.769089 0.542824 0.030304
0.798504 0.543003 0.030439
0.826865 0.543187 0.030578
0.854174 0.543375 0.030722
0.880429 0.543568 0.030870
0.905631 0.543765 0.031022
0.929780 0.543966 0.031180
0.952876 0.544172 0.031341
0.043638 0.570256 0.027113
0.065562 0.570467 0.027278
0.088655 0.570673 0.027437
0.112919 0.570874 0.027592
0.138352 0.571070 0.027742
0.164956 0.571261 0.027887
0.192730 0.571447 0.028027
0.221674 0.571629 0.028163
0.252055 0.571804 0.028292
0.283986 0.571973 0.028415
0.315916 0.572142 0.028538
0.347847 0.572311 0.028662
0.379777 0.572480 0.028785
0.411707 0.572649 0.028908
0.443638 0.572818 0.029032
0.475568 0.572987 0.029155
0.507499 0.573156 0.029279
0.536900 0.573335 0.029413
0.565905 0.573516 0.029549
0.594910 0.573697 0.029685
0.623915 0.573879 0.029822
0.652920 0.574060 0.029958
0.681925 0.574241 0.030094
0.710930 0.574422 0.030231
0.739936 0.574603 0.030367
0.769569 0.574782 0.030501
0.798951 0.574961 0.030636
0.827279 0.575145 0.030776
0.854555 0.575334 0.030920
0.880777 0.575526 0.031068
0.905946 0.575724 0.031221
0.930062 0.575925 0.031379
0.953125 0.576131 0.031541
0.043850 0.602215 0.027307
0.065810 0.602426 0.027472
0.088940 0.602632 0.027631
0.113240 0.602832 0.027786
0.138711 0.603028 0.027936
0.165351 0.603220 0.028081
0.193162 0.603406 0.028221
0.222142 0.603587 0.028357
0.252598 0.603762 0.028486
0.284528 0.603931 0.028609
0.316459 0.604100 0.028733
0.348389 0.604269 0.028856
0.380319 0.604438 0.028980
0.412250 0.604607 0.029103
0.444180 0.604775 0.029227
0.476111 0.604944 0.029351
0.508041 0.605113 0.029475
0.537351 0.605293 0.029609
0.566356 0.605474 0.029746
0.595361 0.605656 0.029882
0.624366 0.605837 0.030018
0.653371 0.606018 0.030155
0.682376 0.606199 0.030291
0.711381 0.606380 0.030428
0.740387 0.606561 0.030565
0.770048 0.606740 0.030699
0.799397 0.606919 0.030834
0.827692 0.607104 0.030974
0.854935 0.607292 0.031118
0.881124 0.607485 0.031267
0.906261 0.607682 0.031420
0.930344 0.607884 0.031578
0.953374 0.608090 0.031740
0.044064 0.634174 0.027502
0.066060 0.634385 0.027666
0.089227 0.634591 0.027826
0.113563 0.634791 0.027980
0.139070 0.634987 0.028130
0.165747 0.635178 0.028276
0.193594 0.635364 0.028416
0.222612 0.635545 0.028551
0.253140 0.635720 0.028681
0.285071 0.635889 0.028804
0.317001 0.636058 0.028928
0.348931 0.636227 0.029051
0.380862 0.636395 0.029175
0.412792 0.636564 0.029299
0.444723 0.636733 0.029423
0.476653 0.636902 0.029547
0.508584 0.637071 0.029671
0.537802 0.637251 0.029806
0.566807 0.637433 0.029942
0.595812 0.637614 0.030079
0.624817 0.637795 0.030216
0.653822 0.637976 0.030352
0.682827 0.638157 0.030489
0.711833 0.638338 0.030626
0.740838 0.638519 0.030763
0.770526 0.638698 0.030897
0.799841 0.638878 0.031032
0.828104 0.639062 0.031173
0.855314 0.639251 0.031317
0.881470 0.639444 0.031466
0.906574 0.639641 0.031620
0.930624 0.639843 0.031778
0.953621 0.640049 0.031941
0.044278 0.666134 0.027696
0.066311 0.666344 0.027861
0.089514 0.666549 0.028021
0.113887 0.666750 0.028175
0.139431 0.666946 0.028325
0.166144 0.667136 0.028471
0.194028 0.667322 0.028611
0.223082 0.667503 0.028747
0.253683 0.667678 0.028876
0.285613 0.667847 0.028999
0.317543 0.668015 0.029123
0.349474 0.668184 0.029247
0.381404 0.668353 0.029371
0.413335 0.668522 0.029495
0.445265 0.668691 0.029619
0.477196 0.668860 0.029743
0.509126 0.669029 0.029867
0.538253 0.669210 0.030003
0.567258 0.669391 0.030140
0.596263 0.669572 0.030276
0.625268 0.669753 0.030413
0.654273 0.669934 0.030550
0.683278 0.670115 0.030687
0.712284 0.670296 0.030824
0.741289 0.670478 0.030961
0.771002 0.670656 0.031095
0.800285 0.670836 0.031231
0.828515 0.671020 0.031372
0.855692 0.671209 0.031517
0.881815 0.671402 0.031666
0.906886 0.671600 0.031820
0.930903 0.671802 0.031979
0.953867 0.672008 0.032142
0.044493 0.698093 0.027892
0.066563 0.698303 0.028056
0.089803 0.698508 0.028216
0.114212 0.698709 0.028371
0.139792 0.698904 0.028521
0.166542 0.699095 0.028666
0.194463 0.699280 0.028807
0.223553 0.699461 0.028942
0.254225 0.699635 0.029071
0.286155 0.699804 0.029195
0.318086 0.699973 0.029319
0.350016 0.700142 0.029443
0.381947 0.700311 0.029567
0.413877 0.700480 0.029691
0.445808 0.700649 0.029816
0.477738 0.700818 0.029940
0.509669 0.700987 0.030064
0.538704 0.701168 0.030201
0.567709 0.701349 0.030338
0.596714 0.701530 0.030474
0.625719 0.701711 0.030611
0.654724 0.701892 0.030748
0.683729 0.702074 0.030885
0.712735 0.702255 0.031023
0.741740 0.702436 0.031160
0.771478 0.702614 0.031294
0.800728 0.702794 0.031431
0.828925 0.702979 0.031571
0.856069 0.703168 0.031717
0.882159 0.703361 0.031867
0.907197 0.703559 0.032021
0.931181 0.703761 0.032180
0.954113 0.703967 0.032343
0.044710 0.730052 0.028088
0.066816 0.730262 0.028252
0.090092 0.730467 0.028412
0.114539 0.730667 0.028567
0.140155 0.730863 0.028717
0.166942 0.731053 0.028862
0.194899 0.731239 0.029003
0.224026 0.731419 0.029138
0.254767 0.731593 0.029267
0.286698 0.731762 0.029391
0.318628 0.731931 0.029515
0.350559 0.732100 0.029640
0.382489 0.732269 0.029764
0.414420 0.732438 0.029888
0.446350 0.732607 0.030013
0.478281 0.732776 0.030137
0.510150 0.732945 0.030262
0.539155 0.733126 0.030399
0.568160 0.733307 0.030536
0.597165 0.733488 0.030673
0.626170 0.733669 0.030810
0.655175 0.733851 0.030947
0.684180 0.734032 0.031085
0.713186 0.734213 0.031222
0.742191 0.734394 0.031359
0.771952 0.734572 0.031494
0.801170 0.734752 0.031630
0.829334 0.734937 0.031772
0.856445 0.735126 0.031917
0.882502 0.735320 0.032067
0.907507 0.735518 0.032222
0.931470 0.735728 0.032373
0.954391 0.735952 0.032518
0.044924 0.762278 0.028280
0.067066 0.762496 0.028445
0.090379 0.762710 0.028604
0.114862 0.762919 0.028759
0.140515 0.763122 0.028909
0.167338 0.763321 0.029054
0.195331 0.763515 0.029195
0.224495 0.763704 0.029330
0.255305 0.763885 0.029459
0.287235 0.764062 0.029583
0.319166 0.764239 0.029707
0.351096 0.764416 0.029832
0.383026 0.764592 0.029956
0.414957 0.764769 0.030080
0.446887 0.764945 0.030205
0.478817 0.765122 0.030329
0.510595 0.765299 0.030455
0.539600 0.765487 0.030592
0.568605 0.765675 0.030729
0.597610 0.765864 0.030866
0.626615 0.766052 0.031003
0.655620 0.766240 0.031140
0.684625 0.766428 0.031278
0.713630 0.766616 0.031415
0.742635 0.766803 0.031553
0.772420 0.766988 0.031687
0.801604 0.767175 0.031824
0.829749 0.767377 0.031954
0.856859 0.767596 0.032076
0.882931 0.767831 0.032189
0.907964 0.768081 0.032297
0.931956 0.768344 0.032399
0.954905 0.768619 0.032498
0.045137 0.794642 0.028471
0.067316 0.794851 0.028636
0.090666 0.795054 0.028796
0.115185 0.795253 0.028951
0.140875 0.795447 0.029101
0.167735 0.795635 0.029246
0.195765 0.795819 0.029387
0.224965 0.795997 0.029522
0.255843 0.796169 0.029651
0.287773 0.796336 0.029776
0.319704 0.796503 0.029900
0.351634 0.796669 0.030025
0.383565 0.796836 0.030149
0.415495 0.797003 0.030274
0.447426 0.797169 0.030399
0.479356 0.797336 0.030524
0.511043 0.797503 0.030650
0.540048 0.797682 0.030787
0.569053 0.797860 0.030925
0.598058 0.798038 0.031062
0.627063 0.798216 0.031200
0.656069 0.798394 0.031337
0.685074 0.798572 0.031475
0.714086 0.798756 0.031607
0.743119 0.798954 0.031724
0.772974 0.799165 0.031820
0.802195 0.799394 0.031904
0.830380 0.799640 0.031979
0.857526 0.799901 0.032047
0.883633 0.800177 0.032109
0.908697 0.800465 0.032167
0.932718 0.800764 0.032222
0.955693 0.801073 0.032277
0.045366 0.825957 0.028677
0.067582 0.826156 0.028842
0.090968 0.826349 0.029002
0.115524 0.826538 0.029158
0.141251 0.826721 0.029308
0.168147 0.826900 0.029453
0.196214 0.827073 0.029594
0.225451 0.827242 0.029730
0.256396 0.827403 0.029859
0.288326 0.827560 0.029984
0.320257 0.827717 0.030109
0.352187 0.827874 0.030233
0.384118 0.828031 0.030359
0.416049 0.828187 0.030484
0.447979 0.828344 0.030609
0.479910 0.828500 0.030734
0.511505 0.828658 0.030861
0.540511 0.828826 0.030998
0.569516 0.828995 0.031136
0.598523 0.829165 0.031273
0.627546 0.829346 0.031396
0.656590 0.829543 0.031504
0.685655 0.829756 0.031597
0.714739 0.829983 0.031673
0.743844 0.830225 0.031734
0.773794 0.830482 0.031774
0.803055 0.830755 0.031802
0.831276 0.831043 0.031823
0.858457 0.831344 0.031840
0.884595 0.831658 0.031853
0.909689 0.831982 0.031863
0.933736 0.832316 0.031873
0.956735 0.832658 0.031884
0.045611 0.856223 0.028899
0.067864 0.856411 0.029064
0.091287 0.856595 0.029224
0.115880 0.856773 0.029380
0.141643 0.856947 0.029530
0.168576 0.857115 0.029676
0.196680 0.857278 0.029817
0.225953 0.857437 0.029953
0.256963 0.857588 0.030082
0.288894 0.857735 0.030207
0.320825 0.857882 0.030332
0.352756 0.858029 0.030458
0.384686 0.858176 0.030583
0.416617 0.858322 0.030708
0.448548 0.858469 0.030834
0.480479 0.858615 0.030959
