flutter_app/assets/lut/cameras/fqs_superia400_natural.cube
TITLE "FQS Fuji Superia 400 Natural"
# DAZZ Camera LUT - FQS (Fujifilm QuickSnap Flash 400)
# Fujifilm Superia 400 Natural Light Color Science
# Variant: Natural - Outdoor daylight, stronger green tone, cyan shadows
# Generated by DAZZ Color Science Engine
# Key: R-5%, G+6.5%, B+5.5%, shadow cyan-green, highlight yellow-green
LUT_3D_SIZE 33
DOMAIN_MIN 0.0 0.0 0.0
DOMAIN_MAX 1.0 1.0 1.0
0.001217 0.040671 0.033681
0.028523 0.040147 0.033508
0.056298 0.039616 0.033329
0.084541 0.039078 0.033144
0.113252 0.038533 0.032952
0.142431 0.037982 0.032755
0.172077 0.037424 0.032552
0.202191 0.036860 0.032343
0.232772 0.036291 0.032129
0.263956 0.035713 0.031907
0.295335 0.035136 0.031686
0.326708 0.034565 0.031470
0.358076 0.033999 0.031258
0.389440 0.033439 0.031051
0.420798 0.032884 0.030849
0.452152 0.032335 0.030652
0.483501 0.031792 0.030460
0.514727 0.031257 0.030275
0.545322 0.030741 0.030106
0.575912 0.030231 0.029943
0.606497 0.029727 0.029784
0.637076 0.029229 0.029631
0.667651 0.028736 0.029483
0.698220 0.028250 0.029340
0.728783 0.027771 0.029202
0.759341 0.027297 0.029070
0.789880 0.026830 0.028943
0.819490 0.026388 0.028838
0.848037 0.025971 0.028757
0.875522 0.025581 0.028698
0.901945 0.025215 0.028661
0.927307 0.024874 0.028646
0.951609 0.024556 0.028653
0.002571 0.066813 0.032484
0.029881 0.066305 0.032322
0.057659 0.065791 0.032154
0.085905 0.065271 0.031980
0.114618 0.064744 0.031800
0.143799 0.064210 0.031615
0.173447 0.063671 0.031424
0.203562 0.063127 0.031228
0.234144 0.062577 0.031027
0.265332 0.062019 0.030818
0.296695 0.061463 0.030611
0.328054 0.060912 0.030409
0.359407 0.060367 0.030212
0.390756 0.059828 0.030019
0.422099 0.059295 0.029832
0.453437 0.058768 0.029649
0.484769 0.058247 0.029472
0.515956 0.057735 0.029303
0.546535 0.057241 0.029150
0.577109 0.056753 0.029002
0.607677 0.056272 0.028859
0.638240 0.055797 0.028722
0.668797 0.055328 0.028590
0.699349 0.054866 0.028463
0.729895 0.054410 0.028342
0.760434 0.053961 0.028227
0.790941 0.053520 0.028119
0.820499 0.053102 0.028031
0.848995 0.052711 0.027967
0.876429 0.052345 0.027926
0.902802 0.052003 0.027906
0.928113 0.051686 0.027908
0.952365 0.051392 0.027931
0.003899 0.093818 0.031267
0.031211 0.093328 0.031116
0.058991 0.092832 0.030960
0.087239 0.092330 0.030798
0.115954 0.091822 0.030630
0.145136 0.091308 0.030457
0.174785 0.090788 0.030280
0.204901 0.090264 0.030097
0.235482 0.089734 0.029910
0.266672 0.089198 0.029716
0.298020 0.088663 0.029524
0.329362 0.088135 0.029337
0.360699 0.087612 0.029155
0.392031 0.087096 0.028978
0.423358 0.086586 0.028806
0.454679 0.086082 0.028640
0.485994 0.085584 0.028479
0.517140 0.085096 0.028327
0.547702 0.084626 0.028190
0.578258 0.084163 0.028059
0.608808 0.083706 0.027933
0.639353 0.083255 0.027813
0.669891 0.082812 0.027699
0.700424 0.082375 0.027591
0.730950 0.081946 0.027489
0.761470 0.081524 0.027393
0.791942 0.081110 0.027303
0.821446 0.080720 0.027236
0.849889 0.080356 0.027191
0.877270 0.080017 0.027169
0.903589 0.079702 0.027168
0.928849 0.079411 0.027189
0.953048 0.079143 0.027231
0.005194 0.121693 0.030033
0.032508 0.121222 0.029895
0.060290 0.120745 0.029751
0.088538 0.120262 0.029602
0.117254 0.119774 0.029448
0.146436 0.119280 0.029289
0.176085 0.118782 0.029125
0.206200 0.118279 0.028957
0.236780 0.117771 0.028785
0.267970 0.117257 0.028607
0.299301 0.116746 0.028431
0.330626 0.116241 0.028260
0.361946 0.115742 0.028094
0.393260 0.115250 0.027935
0.424568 0.114764 0.027780
0.455871 0.114285 0.027631
0.487168 0.113813 0.027488
0.518271 0.113351 0.027354
0.548814 0.112907 0.027236
0.579350 0.112469 0.027123
0.609881 0.112039 0.027016
0.640405 0.111615 0.026915
0.670923 0.111199 0.026821
0.701434 0.110791 0.026733
0.731939 0.110390 0.026651
0.762437 0.109997 0.026576
0.792870 0.109613 0.026509
0.822319 0.109254 0.026463
0.850705 0.108920 0.026441
0.878031 0.108611 0.026440
0.904295 0.108326 0.026461
0.929499 0.108064 0.026503
0.953643 0.107826 0.026566
0.006451 0.150445 0.028790
0.033766 0.149994 0.028665
0.061548 0.149537 0.028535
0.089796 0.149075 0.028400
0.118511 0.148607 0.028260
0.147692 0.148136 0.028116
0.177340 0.147659 0.027967
0.207452 0.147179 0.027815
0.238031 0.146695 0.027659
0.269219 0.146205 0.027497
0.300531 0.145719 0.027339
0.331838 0.145239 0.027186
0.363138 0.144766 0.027038
0.394433 0.144300 0.026897
0.425722 0.143840 0.026761
0.457004 0.143388 0.026631
0.488281 0.142943 0.026508
0.519339 0.142510 0.026394
0.549861 0.142093 0.026296
0.580376 0.141684 0.026203
0.610885 0.141282 0.026117
0.641387 0.140888 0.026038
0.671882 0.140503 0.025965
0.702369 0.140125 0.025899
0.732849 0.139756 0.025841
0.763322 0.139396 0.025790
0.793713 0.139046 0.025747
0.823102 0.138721 0.025727
0.851429 0.138421 0.025730
0.878695 0.138146 0.025754
0.904900 0.137895 0.025800
0.930045 0.137667 0.025868
0.954130 0.137463 0.025956
0.007663 0.180082 0.027543
0.034977 0.179651 0.027432
0.062758 0.179216 0.027317
0.091006 0.178776 0.027197
0.119719 0.178331 0.027072
0.148898 0.177883 0.026944
0.178542 0.177430 0.026812
0.208651 0.176974 0.026677
0.239225 0.176516 0.026539
0.270410 0.176051 0.026396
0.301702 0.175592 0.026256
0.332988 0.175139 0.026122
0.364268 0.174694 0.025995
0.395542 0.174256 0.025874
0.426808 0.173826 0.025759
0.458069 0.173403 0.025650
0.489322 0.172988 0.025548
0.520334 0.172585 0.025457
0.550833 0.172199 0.025380
0.581324 0.171821 0.025311
0.611808 0.171451 0.025248
0.642284 0.171091 0.025193
0.672753 0.170739 0.025145
0.703213 0.170396 0.025105
0.733665 0.170063 0.025074
0.764108 0.169740 0.025050
0.794451 0.169429 0.025037
0.823776 0.169144 0.025047
0.852039 0.168884 0.025079
0.879240 0.168650 0.025134
0.905379 0.168440 0.025212
0.930458 0.168254 0.025311
0.954476 0.168093 0.025431
0.008822 0.210612 0.026300
0.036135 0.210204 0.026204
0.063913 0.209791 0.026105
0.092158 0.209375 0.026001
0.120868 0.208955 0.025894
0.150043 0.208531 0.025783
0.179683 0.208104 0.025669
0.209787 0.207675 0.025553
0.240355 0.207244 0.025434
0.271533 0.206808 0.025311
0.302803 0.206377 0.025192
0.334067 0.205954 0.025080
0.365324 0.205539 0.024975
0.396574 0.205132 0.024876
0.427816 0.204733 0.024784
0.459051 0.204343 0.024699
0.490279 0.203961 0.024622
0.521242 0.203592 0.024556
0.551714 0.203241 0.024504
0.582177 0.202898 0.024461
0.612633 0.202565 0.024425
0.643079 0.202242 0.024398
0.673517 0.201929 0.024380
0.703945 0.201627 0.024370
0.734363 0.201337 0.024371
0.764771 0.201058 0.024381
0.795057 0.200795 0.024404
0.824310 0.200558 0.024451
0.852499 0.200350 0.024523
0.879623 0.200168 0.024619
0.905684 0.200015 0.024740
0.930679 0.199891 0.024887
0.954607 0.199799 0.025062
0.009919 0.242045 0.025069
0.037229 0.241661 0.024990
0.065004 0.241274 0.024908
0.093244 0.240883 0.024822
0.121949 0.240489 0.024733
0.151118 0.240093 0.024642
0.180751 0.239694 0.024548
0.210848 0.239294 0.024453
0.241408 0.238892 0.024356
0.272577 0.238487 0.024255
0.303823 0.238088 0.024160
0.335061 0.237698 0.024072
0.366292 0.237317 0.023991
0.397515 0.236944 0.023917
0.428730 0.236581 0.023851
0.459937 0.236227 0.023794
0.491135 0.235883 0.023744
0.522044 0.235553 0.023707
0.552484 0.235241 0.023686
0.582916 0.234939 0.023673
0.613337 0.234649 0.023670
0.643748 0.234371 0.023677
0.674147 0.234105 0.023694
0.704535 0.233854 0.023724
0.734909 0.233617 0.023766
0.765268 0.233398 0.023822
0.795481 0.233200 0.023896
0.824640 0.233037 0.024001
0.852721 0.232918 0.024144
0.879717 0.232850 0.024331
0.905665 0.232791 0.024527
0.930566 0.232741 0.024732
0.954420 0.232700 0.024946
0.010945 0.274675 0.023842
0.038250 0.274320 0.023782
0.066019 0.273961 0.023719
0.094253 0.273600 0.023654
0.122950 0.273237 0.023586
0.152111 0.272872 0.023516
0.181735 0.272506 0.023445
0.211822 0.272140 0.023372
0.242371 0.271773 0.023300
0.273527 0.271404 0.023225
0.304744 0.271044 0.023156
0.335953 0.270693 0.023096
0.367154 0.270351 0.023043
0.398345 0.270020 0.023000
0.429528 0.269699 0.022965
0.460700 0.269389 0.022939
0.491863 0.269091 0.022923
0.522711 0.268809 0.022922
0.553113 0.268547 0.022937
0.583502 0.268298 0.022964
0.613879 0.268064 0.023003
0.644241 0.267847 0.023056
0.674586 0.267649 0.023125
0.704910 0.267474 0.023214
0.735205 0.267334 0.023331
0.765456 0.267243 0.023490
0.795557 0.267155 0.023651
0.824614 0.267077 0.023822
0.852623 0.267006 0.024001
0.879585 0.266945 0.024189
0.905500 0.266892 0.024386
0.930368 0.266847 0.024591
0.954189 0.266811 0.024805
0.011885 0.307914 0.022669
0.039183 0.307583 0.022630
0.066944 0.307250 0.022589
0.095168 0.306916 0.022546
0.123855 0.306581 0.022502
0.153005 0.306246 0.022457
0.182617 0.305910 0.022411
0.212690 0.305576 0.022366
0.243224 0.305243 0.022321
0.274363 0.304910 0.022276
0.305548 0.304586 0.022239
0.336722 0.304274 0.022211
0.367887 0.303973 0.022192
0.399041 0.303685 0.022185
0.430184 0.303409 0.022188
0.461314 0.303148 0.022202
0.492431 0.302902 0.022230
0.523207 0.302677 0.022276
0.553554 0.302476 0.022343
0.583882 0.302298 0.022428
0.614182 0.302151 0.022540
0.644437 0.302056 0.022695
0.674686 0.301967 0.022855
0.704936 0.301879 0.023015
0.735185 0.301790 0.023175
0.765442 0.301701 0.023336
0.795513 0.301614 0.023498
0.824537 0.301535 0.023669
0.852513 0.301465 0.023849
0.879443 0.301404 0.024037
0.905325 0.301351 0.024235
0.930159 0.301307 0.024441
0.953947 0.301271 0.024655
0.012727 0.341264 0.021590
0.040015 0.340961 0.021574
0.067765 0.340657 0.021557
0.095978 0.340353 0.021540
0.124652 0.340050 0.021522
0.153788 0.339747 0.021504
0.183383 0.339447 0.021488
0.213439 0.339150 0.021474
0.243953 0.338856 0.021462
0.275068 0.338565 0.021452
0.306213 0.338286 0.021452
0.337346 0.338022 0.021464
0.368466 0.337772 0.021488
0.399572 0.337539 0.021527
0.430660 0.337325 0.021581
0.461729 0.337134 0.021655
0.492771 0.336973 0.021754
0.523418 0.336869 0.021900
0.553667 0.336780 0.022060
0.583917 0.336692 0.022220
0.614166 0.336603 0.022380
0.644415 0.336514 0.022540
0.674665 0.336425 0.022701
0.704914 0.336337 0.022861
0.735163 0.336248 0.023022
0.765431 0.336159 0.023183
0.795469 0.336072 0.023345
0.824459 0.335994 0.023517
0.852403 0.335924 0.023697
0.879299 0.335863 0.023886
0.905148 0.335810 0.024084
0.929949 0.335766 0.024291
0.953704 0.335731 0.024506
0.013460 0.374740 0.020616
0.040735 0.374468 0.020626
0.068471 0.374197 0.020637
0.096668 0.373928 0.020648
0.125324 0.373661 0.020661
0.154440 0.373398 0.020676
0.184013 0.373140 0.020695
0.214044 0.372887 0.020719
0.244529 0.372643 0.020748
0.275610 0.372406 0.020783
0.306703 0.372188 0.020833
0.337776 0.371991 0.020902
0.368825 0.371822 0.020994
0.399830 0.371704 0.021127
0.430815 0.371609 0.021281
0.461799 0.371514 0.021434
0.492783 0.371419 0.021588
0.523396 0.371327 0.021745
0.553645 0.371239 0.021905
0.583895 0.371150 0.022065
0.614144 0.371061 0.022226
0.644393 0.370972 0.022386
0.674643 0.370883 0.022547
0.704892 0.370795 0.022708
0.735141 0.370706 0.022869
0.765418 0.370617 0.023030
0.795423 0.370530 0.023193
0.824381 0.370452 0.023365
0.852291 0.370383 0.023546
0.879154 0.370322 0.023736
0.904970 0.370270 0.023934
0.929738 0.370226 0.024141
0.953460 0.370191 0.024357
0.014067 0.408359 0.019761
0.041324 0.408125 0.019802
0.069040 0.407893 0.019846
0.097214 0.407667 0.019893
0.125845 0.407446 0.019944
0.154931 0.407233 0.020002
0.184470 0.407031 0.020067
0.214459 0.406842 0.020144
0.244893 0.406673 0.020236
0.275895 0.406541 0.020358
0.306879 0.406446 0.020511
0.337863 0.406351 0.020664
0.368847 0.406256 0.020818
0.399832 0.406161 0.020971
0.430816 0.406067 0.021125
0.461800 0.405972 0.021279
0.492785 0.405877 0.021433
0.523374 0.405785 0.021591
0.553624 0.405697 0.021751
0.583873 0.405608 0.021912
0.614122 0.405519 0.022072
0.644372 0.405430 0.022233
0.674621 0.405342 0.022394
0.704870 0.405253 0.022555
0.735120 0.405164 0.022716
0.765404 0.405075 0.022878
0.795376 0.404988 0.023041
0.824301 0.404911 0.023214
0.852178 0.404841 0.023396
0.879008 0.404781 0.023586
0.904791 0.404729 0.023785
0.929526 0.404686 0.023992
0.953215 0.404651 0.024209
0.014521 0.442154 0.019052
0.041751 0.441967 0.019133
0.069435 0.441788 0.019221
0.097571 0.441621 0.019318
0.126155 0.441471 0.019428
0.155174 0.441351 0.019562
0.184623 0.441269 0.019728
0.214536 0.441183 0.019890
0.244916 0.441093 0.020048
0.275896 0.440999 0.020201
0.306880 0.440904 0.020355
0.337865 0.440809 0.020509
0.368849 0.440714 0.020662
0.399833 0.440619 0.020816
0.430817 0.440524 0.020970
0.461802 0.440430 0.021124
0.492786 0.440335 0.021279
0.523352 0.440243 0.021437
0.553602 0.440155 0.021597
0.583851 0.440066 0.021758
0.614100 0.439977 0.021919
0.644350 0.439888 0.022080
0.674599 0.439800 0.022242
0.704848 0.439711 0.022403
0.735098 0.439622 0.022565
0.765390 0.439533 0.022726
0.795329 0.439447 0.022890
0.824220 0.439369 0.023064
0.852064 0.439300 0.023246
0.878861 0.439240 0.023436
0.904611 0.439188 0.023636
0.929313 0.439145 0.023844
0.952968 0.439111 0.024061
0.014760 0.476194 0.018548
0.041923 0.476100 0.018706
0.069524 0.476033 0.018887
0.097591 0.475963 0.019063
0.126123 0.475888 0.019237
0.155120 0.475810 0.019406
0.184583 0.475727 0.019572
0.214512 0.475641 0.019734
0.244913 0.475551 0.019892
0.275897 0.475456 0.020046
0.306882 0.475362 0.020199
0.337866 0.475267 0.020353
0.368850 0.475172 0.020507
0.399834 0.475077 0.020662
0.430819 0.474982 0.020816
0.461803 0.474887 0.020970
0.492787 0.474793 0.021125
0.523331 0.474701 0.021283
0.553580 0.474613 0.021444
0.583829 0.474524 0.021606
0.614079 0.474435 0.021767
0.644328 0.474346 0.021928
0.674577 0.474258 0.022090
0.704827 0.474169 0.022252
0.735076 0.474080 0.022413
0.765374 0.473991 0.022575
0.795280 0.473905 0.022740
0.824138 0.473828 0.022914
0.851950 0.473759 0.023096
0.878713 0.473699 0.023288
0.904430 0.473648 0.023488
0.929099 0.473605 0.023697
0.952721 0.473571 0.023914
0.014660 0.510622 0.018365
0.041810 0.510559 0.018550
0.069426 0.510492 0.018730
0.097507 0.510421 0.018907
0.126054 0.510347 0.019080
0.155066 0.510268 0.019250
0.184544 0.510178 0.019416
0.214488 0.510084 0.019579
0.244915 0.509986 0.019737
0.275900 0.509884 0.019891
0.306884 0.509782 0.020046
0.337869 0.509679 0.020200
0.368853 0.509577 0.020355
0.399838 0.509474 0.020509
0.430822 0.509372 0.020664
0.461806 0.509269 0.020819
0.492791 0.509167 0.020974
0.523311 0.509068 0.021133
0.553561 0.508972 0.021295
0.583810 0.508876 0.021456
0.614060 0.508779 0.021618
0.644309 0.508683 0.021780
0.674559 0.508587 0.021942
0.704809 0.508490 0.022104
0.735058 0.508394 0.022267
0.765362 0.508297 0.022429
0.795235 0.508204 0.022595
0.824060 0.508119 0.022769
0.851839 0.508043 0.022953
0.878570 0.507976 0.023145
0.904253 0.507917 0.023346
0.928890 0.507867 0.023555
0.952479 0.507826 0.023774
0.014578 0.543504 0.018254
0.041743 0.543433 0.018438
0.069374 0.543358 0.018619
0.097470 0.543279 0.018797
0.126032 0.543197 0.018970
0.155059 0.543111 0.019140
0.184551 0.543020 0.019307
0.214509 0.542927 0.019469
0.244962 0.542829 0.019628
0.275947 0.542726 0.019782
0.306931 0.542624 0.019937
0.337916 0.542521 0.020092
0.368900 0.542419 0.020246
0.399885 0.542316 0.020401
0.430869 0.542214 0.020557
0.461854 0.542112 0.020712
0.492838 0.542009 0.020867
0.523335 0.541911 0.021027
0.553585 0.541815 0.021189
0.583834 0.541718 0.021351
0.614084 0.541622 0.021513
0.644333 0.541525 0.021675
0.674583 0.541429 0.021837
0.704832 0.541333 0.022000
0.735082 0.541236 0.022162
0.765390 0.541140 0.022325
0.795230 0.541047 0.022491
0.824022 0.540962 0.022666
0.851767 0.540887 0.022850
0.878465 0.540819 0.023043
0.904116 0.540761 0.023244
0.928719 0.540711 0.023455
0.952275 0.540670 0.023674
0.014497 0.576347 0.018144
0.041677 0.576276 0.018329
0.069323 0.576201 0.018510
0.097433 0.576122 0.018687
0.126010 0.576040 0.018861
0.155052 0.575953 0.019031
0.184559 0.575863 0.019198
0.214532 0.575769 0.019361
0.245009 0.575671 0.019519
0.275994 0.575568 0.019674
0.306978 0.575466 0.019829
0.337963 0.575363 0.019984
0.368947 0.575261 0.020139
0.399932 0.575159 0.020294
0.430916 0.575056 0.020450
0.461901 0.574954 0.020605
0.492885 0.574851 0.020761
0.523359 0.574753 0.020921
0.553609 0.574657 0.021083
0.583858 0.574560 0.021245
0.614108 0.574464 0.021408
0.644357 0.574368 0.021570
0.674607 0.574271 0.021733
0.704856 0.574175 0.021896
0.735106 0.574079 0.022059
0.765417 0.573982 0.022221
0.795223 0.573889 0.022388
0.823983 0.573805 0.022564
0.851695 0.573730 0.022748
0.878360 0.573663 0.022942
0.903978 0.573605 0.023144
0.928548 0.573555 0.023354
0.952071 0.573514 0.023574
0.014417 0.609190 0.018034
0.041612 0.609119 0.018219
0.069272 0.609044 0.018401
0.097397 0.608965 0.018579
0.125988 0.608882 0.018753
0.155045 0.608796 0.018923
0.184567 0.608705 0.019089
0.214554 0.608611 0.019252
0.245056 0.608513 0.019411
0.276041 0.608410 0.019566
0.307025 0.608308 0.019721
0.338010 0.608206 0.019877
0.368994 0.608103 0.020032
0.399979 0.608001 0.020188
0.430963 0.607898 0.020343
0.461948 0.607796 0.020499
0.492932 0.607694 0.020655
0.523383 0.607596 0.020816
0.553632 0.607499 0.020978
0.583882 0.607403 0.021141
0.614131 0.607306 0.021303
0.644381 0.607210 0.021466
0.674631 0.607114 0.021629
0.704880 0.607017 0.021792
0.735130 0.606921 0.021956
0.765443 0.606824 0.022118
0.795216 0.606732 0.022286
0.823943 0.606648 0.022462
0.851622 0.606573 0.022647
0.878254 0.606506 0.022841
0.903838 0.606448 0.023043
0.928375 0.606399 0.023255
0.951865 0.606358 0.023475
0.014337 0.642033 0.017926
0.041547 0.641962 0.018111
0.069221 0.641887 0.018292
0.097362 0.641808 0.018470
0.125967 0.641725 0.018644
0.155039 0.641638 0.018815
0.184575 0.641548 0.018982
0.214577 0.641454 0.019145
0.245103 0.641355 0.019304
0.276088 0.641253 0.019459
0.307072 0.641150 0.019614
0.338057 0.641048 0.019770
0.369041 0.640945 0.019926
0.400026 0.640843 0.020082
0.431010 0.640741 0.020238
0.461995 0.640638 0.020394
0.492979 0.640536 0.020550
0.523407 0.640438 0.020711
0.553656 0.640342 0.020874
0.583906 0.640245 0.021037
0.614155 0.640149 0.021200
0.644405 0.640052 0.021363
0.674654 0.639956 0.021526
0.704904 0.639860 0.021689
0.735153 0.639763 0.021853
0.765467 0.639666 0.022016
0.795208 0.639574 0.022184
0.823901 0.639491 0.022361
0.851547 0.639416 0.022546
0.878146 0.639350 0.022741
0.903697 0.639292 0.022944
0.928202 0.639243 0.023156
0.951658 0.639203 0.023377
0.014258 0.674876 0.017817
0.041482 0.674805 0.018003
0.069172 0.674730 0.018185
0.097327 0.674651 0.018363
0.125947 0.674568 0.018537
0.155033 0.674481 0.018708
0.184584 0.674390 0.018875
0.214601 0.674296 0.019038
0.245150 0.674197 0.019197
0.276135 0.674095 0.019352
0.307119 0.673992 0.019508
0.338104 0.673890 0.019664
0.369088 0.673788 0.019820
0.400073 0.673685 0.019976
0.431057 0.673583 0.020133
0.462042 0.673480 0.020289
0.493026 0.673378 0.020446
0.523431 0.673280 0.020607
0.553680 0.673184 0.020770
0.583930 0.673088 0.020933
0.614179 0.672991 0.021096
0.644429 0.672895 0.021260
0.674678 0.672798 0.021423
0.704928 0.672702 0.021587
0.735177 0.672606 0.021751
0.765491 0.672509 0.021914
0.795199 0.672417 0.022083
0.823859 0.672334 0.022260
0.851472 0.672259 0.022446
0.878038 0.672193 0.022641
0.903556 0.672136 0.022845
0.928027 0.672087 0.023058
0.951451 0.672047 0.023279
0.014179 0.707720 0.017710
0.041418 0.707648 0.017895
0.069122 0.707573 0.018077
0.097292 0.707494 0.018256
0.125927 0.707411 0.018430
0.155028 0.707324 0.018601
0.184594 0.707233 0.018768
0.214625 0.707138 0.018931
0.245197 0.707039 0.019091
0.276182 0.706937 0.019246
0.307166 0.706834 0.019402
0.338151 0.706732 0.019559
0.369135 0.706630 0.019715
0.400120 0.706527 0.019871
0.431104 0.706425 0.020028
0.462089 0.706322 0.020185
0.493073 0.706220 0.020342
0.523454 0.706123 0.020504
0.553704 0.706026 0.020667
0.583953 0.705930 0.020830
0.614203 0.705833 0.020994
0.644453 0.705737 0.021157
0.674702 0.705641 0.021321
0.704952 0.705544 0.021485
0.735201 0.705448 0.021649
0.765514 0.705351 0.021813
0.795188 0.705260 0.021982
0.823816 0.705177 0.022160
0.851395 0.705102 0.022347
0.877928 0.705037 0.022542
0.903413 0.704979 0.022747
0.927851 0.704931 0.022960
0.951242 0.704891 0.023182
0.014101 0.740563 0.017603
0.041354 0.740491 0.017789
0.069073 0.740416 0.017971
0.097258 0.740336 0.018149
0.125907 0.740253 0.018324
0.155023 0.740166 0.018495
0.184603 0.740075 0.018662
0.214650 0.739981 0.018826
0.245244 0.739881 0.018985
0.276229 0.739779 0.019141
0.307213 0.739677 0.019297
0.338198 0.739574 0.019454
0.369182 0.739472 0.019610
0.400167 0.739369 0.019767
0.431151 0.739267 0.019924
0.462136 0.739165 0.020081
0.493120 0.739062 0.020238
0.523478 0.738965 0.020401
0.553728 0.738869 0.020564
0.583977 0.738772 0.020728
0.614227 0.738676 0.020892
0.644476 0.738580 0.021056
0.674726 0.738483 0.021220
0.704975 0.738387 0.021384
0.735225 0.738290 0.021549
0.765536 0.738194 0.021713
0.795177 0.738102 0.021882
0.823771 0.738019 0.022061
0.851318 0.737945 0.022248
0.877817 0.737880 0.022444
0.903270 0.737824 0.022649
0.927683 0.737785 0.022857
0.951057 0.737766 0.023066
0.014016 0.773665 0.017489
0.041284 0.773595 0.017675
0.069017 0.773521 0.017857
0.097216 0.773443 0.018036
0.125881 0.773361 0.018210
0.155011 0.773275 0.018382
0.184606 0.773185 0.018549
0.214667 0.773092 0.018713
0.245284 0.772994 0.018872
0.276268 0.772893 0.019028
0.307253 0.772791 0.019185
0.338237 0.772690 0.019342
0.369222 0.772589 0.019499
0.400206 0.772488 0.019656
0.431191 0.772386 0.019813
0.462175 0.772285 0.019970
0.493160 0.772184 0.020128
0.523494 0.772088 0.020290
0.553744 0.771992 0.020454
0.583993 0.771897 0.020618
0.614243 0.771802 0.020782
0.644492 0.771706 0.020947
0.674742 0.771611 0.021111
0.704991 0.771515 0.021275
0.735241 0.771420 0.021440
0.765548 0.771324 0.021604
0.795157 0.771235 0.021774
0.823730 0.771168 0.021944
0.851269 0.771125 0.022114
0.877771 0.771104 0.022284
0.903236 0.771103 0.022456
0.927663 0.771122 0.022630
0.951049 0.771158 0.022807
0.013945 0.806279 0.017390
0.041228 0.806203 0.017576
0.068976 0.806124 0.017758
0.097190 0.806041 0.017937
0.125869 0.805954 0.018112
0.155014 0.805863 0.018284
0.184624 0.805768 0.018451
0.214700 0.805669 0.018616
0.245339 0.805566 0.018775
0.276323 0.805460 0.018932
0.307308 0.805353 0.019089
0.338292 0.805247 0.019246
0.369277 0.805141 0.019403
0.400262 0.805034 0.019561
0.431246 0.804928 0.019718
0.462231 0.804822 0.019876
0.493215 0.804715 0.020034
0.523527 0.804614 0.020198
0.553777 0.804514 0.020362
0.584026 0.804414 0.020526
0.614276 0.804313 0.020691
0.644526 0.804213 0.020855
0.674775 0.804112 0.021020
0.705033 0.804021 0.021179
0.735306 0.803949 0.021327
0.765648 0.803895 0.021463
0.795277 0.803865 0.021595
0.823870 0.803857 0.021727
0.851427 0.803872 0.021859
0.877946 0.803906 0.021994
0.903426 0.803958 0.022131
0.927865 0.804027 0.022273
0.951262 0.804111 0.022419
0.013905 0.837817 0.017321
0.041202 0.837736 0.017508
0.068966 0.837652 0.017691
0.097194 0.837563 0.017870
0.125889 0.837471 0.018045
0.155048 0.837375 0.018217
0.184673 0.837275 0.018385
0.214764 0.837171 0.018549
0.245424 0.837062 0.018709
0.276408 0.836951 0.018866
0.307393 0.836840 0.019024
0.338378 0.836729 0.019182
0.369363 0.836617 0.019339
0.400347 0.836506 0.019497
0.431332 0.836394 0.019655
0.462317 0.836283 0.019813
0.493302 0.836172 0.019972
0.523590 0.836066 0.020136
0.553840 0.835960 0.020300
0.584092 0.835858 0.020464
0.614358 0.835772 0.020617
0.644639 0.835705 0.020759
0.674936 0.835656 0.020889
0.705249 0.835626 0.021008
0.735577 0.835615 0.021117
0.765969 0.835622 0.021213
0.795618 0.835651 0.021306
0.824230 0.835701 0.021401
0.851803 0.835771 0.021498
0.878337 0.835858 0.021598
0.903829 0.835960 0.021702
0.928279 0.836078 0.021812
0.951685 0.836207 0.021928
0.013896 0.868279 0.017284
0.041208 0.868194 0.017471
0.068986 0.868104 0.017654
0.097230 0.868010 0.017833
0.125939 0.867913 0.018009
0.155113 0.867811 0.018181
0.184753 0.867706 0.018350
0.214859 0.867597 0.018514
0.245539 0.867483 0.018674
0.276524 0.867367 0.018832
0.307509 0.867251 0.018990
0.338494 0.867134 0.019148
0.369479 0.867018 0.019306
0.400464 0.866902 0.019464
0.431448 0.866785 0.019623
0.462433 0.866669 0.019781
