flutter_app/assets/lut/cameras/fqs_superia400_indoor.cube
TITLE "FQS Fuji Superia 400 Indoor"
# DAZZ Camera LUT - FQS (Fujifilm QuickSnap Flash 400)
# Fujifilm Superia 400 Indoor Warm Light Color Science
# Variant: Indoor - Warm light compensation, green tone preserved
# Generated by DAZZ Color Science Engine
# Key: R-4%, G+5.5%, B+6.5%, shadow lift, highlight warm yellow
LUT_3D_SIZE 9
DOMAIN_MIN 0.0 0.0 0.0
DOMAIN_MAX 1.0 1.0 1.0
0.031266 0.038923 0.039550
0.124326 0.038823 0.038710
0.236234 0.038547 0.037571
0.364446 0.038139 0.036215
0.493158 0.037772 0.034950
0.611992 0.037546 0.033952
0.728809 0.037382 0.033083
0.845215 0.037269 0.032322
0.946619 0.037329 0.031876
0.035369 0.144158 0.035196
0.128908 0.144307 0.034538
0.241267 0.144302 0.033632
0.369534 0.144192 0.032567
0.498064 0.144135 0.031621
0.616349 0.144222 0.030948
0.732969 0.144380 0.030423
0.848936 0.144606 0.030047
0.949596 0.145008 0.029985
0.039156 0.267763 0.030721
0.133123 0.268225 0.030334
0.245865 0.268569 0.029778
0.374080 0.268849 0.029162
0.502318 0.269211 0.028731
0.619916 0.269739 0.028623
0.736112 0.270416 0.028847
0.851323 0.271234 0.029389
0.951077 0.272117 0.029996
0.042132 0.403349 0.027270
0.136423 0.404014 0.027348
0.249427 0.404655 0.027471
0.377168 0.405405 0.027922
0.504889 0.406171 0.028411
0.621761 0.406982 0.028946
0.737780 0.407797 0.029486
0.852738 0.408617 0.030033
0.951965 0.409503 0.030646
0.043428 0.538297 0.026920
0.137995 0.539111 0.027548
0.251513 0.539846 0.028099
0.379235 0.540522 0.028591
0.506956 0.541198 0.029084
0.623464 0.541920 0.029625
0.739485 0.542645 0.030170
0.854174 0.543375 0.030722
0.952876 0.544172 0.031341
0.044278 0.666134 0.027696
0.139431 0.666946 0.028325
0.253683 0.667678 0.028876
0.381404 0.668353 0.029371
0.509126 0.669029 0.029867
0.625268 0.669753 0.030413
0.741289 0.670478 0.030961
0.855692 0.671209 0.031517
0.953867 0.672008 0.032142
0.045137 0.794642 0.028471
0.140875 0.795447 0.029101
0.255843 0.796169 0.029651
0.383565 0.796836 0.030149
0.511043 0.797503 0.030650
0.627063 0.798216 0.031200
0.743119 0.798954 0.031724
0.857526 0.799901 0.032047
0.955693 0.801073 0.032277
0.046150 0.913606 0.029389
0.142475 0.914249 0.030022
0.258143 0.914809 0.030574
0.385959 0.915386 0.031007
0.513533 0.916238 0.031159
0.630315 0.917359 0.031126
0.747420 0.918719 0.030845
0.862580 0.920307 0.030346
0.961135 0.922004 0.029877
0.047997 0.975202 0.031130
0.144950 0.974815 0.031758
0.261594 0.974537 0.032107
0.389995 0.974495 0.032116
0.517781 0.974726 0.031852
0.635073 0.975175 0.031453
0.752670 0.975851 0.030821
0.867952 0.976733 0.029998
0.966345 0.977656 0.029278
0.032367 0.041686 0.155196
0.125609 0.041601 0.154509
0.237696 0.041343 0.153528
0.365963 0.040956 0.152338
0.494652 0.040612 0.151244
0.613340 0.040410 0.150419
0.730132 0.040271 0.149723
0.846440 0.040184 0.149139
0.947642 0.040271 0.148869
0.036424 0.147550 0.151237
0.130142 0.147715 0.150737
0.242674 0.147732 0.149997
0.370984 0.147648 0.149110
0.499484 0.147619 0.148347
0.617615 0.147738 0.147861
0.734201 0.147928 0.147527
0.850051 0.148191 0.147351
0.950491 0.148632 0.147497
0.040133 0.271892 0.147209
0.134272 0.272372 0.146992
0.247177 0.272739 0.146621
0.375415 0.273052 0.146209
0.503600 0.273453 0.145999
0.621009 0.274035 0.146142
0.737089 0.274802 0.146701
0.852217 0.275620 0.147374
0.951795 0.276504 0.148112
0.042970 0.407592 0.144341
0.137407 0.408294 0.144635
0.250547 0.409024 0.145093
0.378267 0.409790 0.145711
0.505987 0.410556 0.146330
0.622738 0.411368 0.146996
0.738757 0.412183 0.147667
0.853626 0.413003 0.148343
0.952678 0.413889 0.149087
0.044089 0.542368 0.144650
0.138852 0.543181 0.145408
0.252616 0.543915 0.146087
0.380337 0.544590 0.146710
0.508059 0.545266 0.147333
0.624445 0.545989 0.148005
0.740465 0.546713 0.148680
0.855060 0.547444 0.149362
0.953587 0.548241 0.150113
0.044945 0.670204 0.145752
0.140293 0.671015 0.146511
0.254785 0.671746 0.147190
0.382507 0.672421 0.147815
0.510228 0.673097 0.148442
0.626248 0.673821 0.149118
0.742268 0.674546 0.149796
0.856572 0.675277 0.150483
0.954572 0.676077 0.151239
0.045810 0.798687 0.146853
0.141743 0.799485 0.147612
0.256945 0.800201 0.148291
0.384667 0.800863 0.148920
0.512023 0.801525 0.149551
0.628044 0.802232 0.150231
0.744204 0.803043 0.150804
0.858655 0.804096 0.151143
0.956773 0.805358 0.151406
0.046837 0.917093 0.148104
0.143357 0.917730 0.148866
0.259255 0.918285 0.149546
0.387212 0.918961 0.150000
0.514823 0.919927 0.150160
0.631750 0.921151 0.150145
0.749001 0.922615 0.149881
0.864193 0.924304 0.149403
0.962692 0.926085 0.148972
0.048742 0.975029 0.150223
0.145954 0.974690 0.150929
0.262931 0.974493 0.151322
0.391453 0.974541 0.151368
0.519235 0.974860 0.151142
0.636636 0.975391 0.150789
0.754404 0.976151 0.150200
0.869615 0.977111 0.149428
0.967921 0.978100 0.148771
0.033484 0.044423 0.284941
0.126906 0.044353 0.284422
0.239169 0.044114 0.283616
0.367486 0.043752 0.282609
0.496149 0.043433 0.281702
0.614688 0.043258 0.281063
0.731453 0.043146 0.280554
0.847657 0.043088 0.280160
0.948654 0.043204 0.280078
0.037486 0.150921 0.281423
0.131380 0.151105 0.281096
0.244083 0.151145 0.280537
0.372430 0.151090 0.279842
0.500896 0.151094 0.279278
0.618868 0.151246 0.278992
0.735414 0.151473 0.278863
0.851137 0.151779 0.278907
0.951347 0.152269 0.279283
0.041104 0.275991 0.277889
0.135412 0.276491 0.277857
0.248475 0.276885 0.277686
0.376725 0.277236 0.277497
0.504846 0.277688 0.277536
0.622027 0.278353 0.278001
0.738045 0.279168 0.278800
0.853089 0.279987 0.279604
0.952491 0.280871 0.280473
0.043775 0.411825 0.275669
0.138338 0.412580 0.276219
0.251626 0.413390 0.276993
0.379346 0.414156 0.277743
0.507066 0.414922 0.278494
0.623694 0.415734 0.279291
0.739713 0.416549 0.280090
0.854492 0.417369 0.280895
0.953368 0.418255 0.281766
0.044732 0.546418 0.276623
0.139690 0.547231 0.277512
0.253698 0.547963 0.278321
0.381420 0.548639 0.279073
0.509141 0.549314 0.279825
0.625405 0.550037 0.280625
0.741425 0.550761 0.281425
0.855925 0.551492 0.282233
0.954276 0.552290 0.283107
0.045594 0.674254 0.278053
0.141136 0.675064 0.278939
0.255867 0.675794 0.279746
0.383589 0.676469 0.280497
0.511188 0.677145 0.281250
0.627208 0.677869 0.282050
0.743228 0.678593 0.282851
0.857431 0.679325 0.283660
0.955255 0.680126 0.284536
0.046465 0.802693 0.279474
0.142593 0.803485 0.280358
0.258028 0.804194 0.281162
0.385750 0.804851 0.281914
0.512984 0.805508 0.282668
0.629034 0.806232 0.283446
0.745357 0.807159 0.284012
0.859863 0.808327 0.284346
0.957942 0.809687 0.284620
0.047505 0.920542 0.281046
0.144220 0.921172 0.281930
0.260401 0.921762 0.282688
0.388532 0.922563 0.283127
0.516193 0.923653 0.283273
0.633279 0.924990 0.283253
0.750688 0.926567 0.282983
0.865922 0.928366 0.282502
0.964377 0.930240 0.282085
0.049485 0.974849 0.283508
0.146993 0.974584 0.284254
0.264314 0.974478 0.284670
0.392970 0.974626 0.284729
0.520762 0.975045 0.284518
0.638286 0.975667 0.284185
0.756235 0.976518 0.283614
0.871388 0.977566 0.282864
0.969616 0.978630 0.282243
0.034604 0.047157 0.422860
0.128205 0.047105 0.422368
0.240643 0.046887 0.421597
0.369006 0.046549 0.420637
0.497640 0.046259 0.419780
0.616029 0.046113 0.419193
0.732764 0.046029 0.418736
0.848859 0.046003 0.418401
0.949648 0.046151 0.418378
0.038545 0.154295 0.419437
0.132614 0.154500 0.419145
0.245485 0.154565 0.418632
0.373865 0.154542 0.417997
0.502293 0.154581 0.417500
0.620104 0.154771 0.417284
0.736604 0.155039 0.417237
0.852189 0.155395 0.417381
0.952152 0.155948 0.417885
0.042064 0.280082 0.416066
0.136536 0.280605 0.416087
0.249813 0.281031 0.415988
0.378006 0.281427 0.415901
0.506046 0.281941 0.416083
0.622974 0.282709 0.416781
0.738992 0.283524 0.417580
0.853950 0.284343 0.418384
0.953177 0.285228 0.419254
0.044538 0.416074 0.414205
0.139179 0.416921 0.414962
0.252695 0.417746 0.415772
0.380415 0.418512 0.416523
0.508135 0.419277 0.417273
0.624641 0.420090 0.418071
0.740660 0.420905 0.418870
0.855347 0.421725 0.419675
0.954048 0.422613 0.420547
0.045368 0.550459 0.415409
0.140520 0.551271 0.416297
0.254772 0.552002 0.417105
0.382493 0.552678 0.417857
0.510215 0.553353 0.418609
0.626357 0.554077 0.419409
0.742377 0.554801 0.420210
0.856779 0.555532 0.421017
0.954955 0.556331 0.421893
0.046236 0.678295 0.416838
0.141973 0.679104 0.417724
0.256941 0.679833 0.418529
0.384662 0.680508 0.419281
0.512140 0.681184 0.420034
0.628160 0.681909 0.420835
0.744180 0.682633 0.421635
0.858280 0.683365 0.422444
0.955931 0.684168 0.423320
0.047114 0.806672 0.418260
0.143437 0.807458 0.419144
0.259103 0.808161 0.419946
0.386824 0.808812 0.420698
0.513937 0.809464 0.421453
0.630103 0.810270 0.422141
0.746595 0.811318 0.422577
0.861157 0.812604 0.422783
0.959202 0.814064 0.422950
0.048168 0.923964 0.419840
0.145080 0.924589 0.420722
0.261622 0.925276 0.421373
0.389933 0.926205 0.421673
0.517649 0.927422 0.421683
0.634898 0.928876 0.421537
0.752470 0.930569 0.421141
0.867748 0.932481 0.420538
0.966160 0.934449 0.420019
0.050273 0.974699 0.422301
0.148083 0.974513 0.422964
0.265750 0.974502 0.423280
0.394546 0.974754 0.423231
0.522353 0.975275 0.422914
0.640003 0.975992 0.422484
0.758136 0.976938 0.421814
0.873232 0.978076 0.420972
0.971386 0.979215 0.420273
0.035714 0.049925 0.559216
0.129494 0.049890 0.558691
0.242105 0.049693 0.557896
0.370512 0.049382 0.556921
0.499117 0.049120 0.556054
0.617354 0.049004 0.555459
0.734058 0.048950 0.554996
0.850042 0.048957 0.554662
0.950621 0.049138 0.554639
0.039592 0.157704 0.555739
0.133835 0.157931 0.555423
0.246874 0.158022 0.554897
0.375282 0.158032 0.554262
0.503670 0.158108 0.553774
0.621316 0.158337 0.553574
0.737767 0.158650 0.553553
0.853203 0.159065 0.553755
0.952874 0.159715 0.554404
0.043005 0.284194 0.552390
0.137640 0.284741 0.552406
0.251126 0.285201 0.552324
0.379253 0.285648 0.552290
0.507174 0.286257 0.552625
0.623924 0.287069 0.553360
0.739943 0.287884 0.554099
0.854812 0.288703 0.554842
0.953864 0.289589 0.555651
0.045243 0.420377 0.550807
0.140004 0.421281 0.551634
0.253767 0.422105 0.552382
0.381487 0.422871 0.553071
0.509207 0.423637 0.553761
0.625591 0.424450 0.554497
0.741610 0.425265 0.555236
0.856204 0.426086 0.555980
0.954729 0.426974 0.556792
0.046009 0.554503 0.551994
0.141356 0.555314 0.552820
0.255849 0.556045 0.553566
0.383570 0.556720 0.554257
0.511292 0.557396 0.554948
0.627312 0.558120 0.555687
0.743332 0.558844 0.556427
0.857636 0.559576 0.557174
0.955635 0.560376 0.557989
0.046883 0.682339 0.553271
0.142815 0.683148 0.554095
0.258018 0.683875 0.554838
0.385739 0.684551 0.555528
0.513095 0.685228 0.556221
0.629115 0.685952 0.556960
0.745135 0.686676 0.557700
0.859131 0.687409 0.558448
0.956670 0.688260 0.559215
0.047768 0.810636 0.554541
0.144287 0.811415 0.555363
0.260181 0.812112 0.556103
0.387903 0.812758 0.556795
0.514927 0.813431 0.557463
0.631259 0.814356 0.557961
0.747918 0.815522 0.558208
0.862532 0.816924 0.558228
0.960538 0.818482 0.558229
0.048837 0.927371 0.555976
0.145999 0.928032 0.556753
0.262926 0.928833 0.557217
0.391413 0.929889 0.557320
0.519181 0.931230 0.557135
0.636590 0.932798 0.556804
0.754383 0.934606 0.556222
0.869639 0.936627 0.555441
0.968004 0.938688 0.554762
0.051117 0.974590 0.558245
0.149226 0.974481 0.558766
0.267236 0.974563 0.558921
0.396167 0.974917 0.558706
0.523986 0.975538 0.558226
0.641759 0.976347 0.557638
0.760071 0.977385 0.556811
0.875109 0.978611 0.555819
0.973184 0.979824 0.554984
0.036809 0.052737 0.690693
0.130767 0.052720 0.690197
0.243552 0.052544 0.689437
0.372001 0.052260 0.688509
0.500576 0.052026 0.687694
0.618662 0.051939 0.687153
0.735334 0.051916 0.686746
0.851203 0.051957 0.686476
0.951571 0.052172 0.686516
0.040623 0.161159 0.687317
0.135039 0.161407 0.687038
0.248246 0.161525 0.686560
0.376680 0.161568 0.685989
0.505027 0.161682 0.685574
0.622506 0.161953 0.685453
0.738902 0.162314 0.685530
0.854168 0.162802 0.685884
0.953579 0.163525 0.686684
0.043927 0.288334 0.684148
0.138723 0.288907 0.684224
0.252411 0.289404 0.684226
0.380463 0.289910 0.684328
0.508252 0.290622 0.684895
0.624880 0.291434 0.685631
0.740899 0.292249 0.686370
0.855678 0.293069 0.687113
0.954554 0.293956 0.687923
0.045881 0.424744 0.683079
0.140837 0.425647 0.683906
0.254845 0.426470 0.684652
0.382565 0.427236 0.685342
0.510285 0.428002 0.686031
0.626548 0.428816 0.686768
0.742566 0.429630 0.687507
0.857065 0.430452 0.688252
0.955415 0.431340 0.689064
0.046658 0.558553 0.684271
0.142200 0.559363 0.685096
0.256931 0.560093 0.685841
0.384653 0.560769 0.686532
0.512252 0.561445 0.687223
0.628272 0.562169 0.687963
0.744293 0.562893 0.688703
0.858496 0.563625 0.689450
0.956320 0.564426 0.690266
0.047538 0.686389 0.685548
0.143665 0.687197 0.686371
0.259100 0.687924 0.687113
0.386822 0.688599 0.687804
0.514056 0.689277 0.688496
0.630076 0.690001 0.689236
0.746096 0.690725 0.689976
0.859999 0.691469 0.690714
0.957492 0.692417 0.691380
0.048431 0.814587 0.686819
0.145144 0.815360 0.687640
0.261265 0.816051 0.688380
0.388987 0.816692 0.689071
0.516004 0.817445 0.689651
0.632499 0.818486 0.690024
0.749320 0.819768 0.690145
0.863980 0.821284 0.690044
0.961945 0.822937 0.689941
0.049522 0.930772 0.688255
0.147002 0.931517 0.688937
0.264308 0.932431 0.689277
0.392967 0.933610 0.689247
0.520783 0.935074 0.688931
0.638348 0.936753 0.688479
0.756357 0.938673 0.687775
0.871587 0.940801 0.686879
0.969904 0.942952 0.686103
0.052012 0.974519 0.690457
0.150418 0.974485 0.690898
0.268766 0.974659 0.690957
0.397830 0.975112 0.690638
0.525657 0.975830 0.690058
0.643551 0.976729 0.689378
0.762037 0.977858 0.688456
0.877012 0.979170 0.687377
0.975007 0.980454 0.686469
0.037896 0.055576 0.822449
0.132033 0.055577 0.821964
0.244991 0.055423 0.821223
0.373477 0.055166 0.820324
0.502023 0.054962 0.819541
0.619955 0.054905 0.819033
0.736593 0.054914 0.818662
0.852344 0.054991 0.818433
0.952498 0.055243 0.818517
0.041644 0.164642 0.819132
0.136232 0.164913 0.818871
0.249664 0.165059 0.818422
0.378061 0.165138 0.817895
0.506363 0.165292 0.817534
0.623671 0.165607 0.817476
0.740001 0.166025 0.817642
0.855052 0.166621 0.818197
0.954281 0.167354 0.818979
0.044830 0.292490 0.816105
0.139784 0.293092 0.816222
0.253666 0.293630 0.816296
0.381610 0.294221 0.816563
0.509330 0.294987 0.817225
0.625836 0.295800 0.817932
0.741855 0.296615 0.818641
0.856543 0.297435 0.819354
0.955244 0.298323 0.820132
0.046521 0.429110 0.815451
0.141672 0.430013 0.816250
0.255923 0.430835 0.816967
0.383643 0.431601 0.817627
0.511363 0.432367 0.818286
0.627504 0.433181 0.818992
0.743523 0.433996 0.819698
0.857924 0.434818 0.820409
0.956099 0.435707 0.821186
0.047309 0.562604 0.816578
0.143046 0.563413 0.817372
0.258014 0.564142 0.818085
0.385736 0.564817 0.818744
0.513213 0.565493 0.819402
0.629233 0.566218 0.820107
0.745254 0.566942 0.820810
0.859354 0.567675 0.821521
0.957003 0.568476 0.822299
0.048195 0.690440 0.817777
0.144518 0.691246 0.818567
0.260183 0.691972 0.819273
0.387905 0.692648 0.819929
0.515017 0.693326 0.820585
0.631037 0.694050 0.821287
0.747057 0.694774 0.821988
0.860939 0.695584 0.822618
0.958395 0.696636 0.823138
0.049096 0.818520 0.818966
0.146004 0.819287 0.819750
0.262350 0.819972 0.820452
0.390093 0.820623 0.821088
0.517162 0.821501 0.821494
0.633819 0.822658 0.821701
0.750802 0.824056 0.821655
0.865505 0.825684 0.821389
0.963428 0.827431 0.821140
0.050276 0.934203 0.820260
0.148083 0.935041 0.820799
0.265766 0.936067 0.820976
0.394597 0.937369 0.820771
0.522459 0.938954 0.820282
0.640181 0.940744 0.819666
0.758403 0.942775 0.818795
0.873605 0.945010 0.817739
0.971871 0.947249 0.816819
0.052956 0.974483 0.822309
0.151659 0.974525 0.822627
0.270343 0.974790 0.822547
0.399540 0.975342 0.822081
0.527373 0.976157 0.821356
0.645387 0.977145 0.820536
0.764046 0.978365 0.819471
0.878958 0.979760 0.818257
0.976871 0.981116 0.817227
0.038964 0.058474 0.945247
0.133279 0.058493 0.944661
0.246411 0.058361 0.943827
0.374934 0.058130 0.942846
0.503450 0.057956 0.941987
0.621229 0.057930 0.941404
0.737834 0.057971 0.940961
0.853464 0.058084 0.940672
0.953402 0.058374 0.940697
0.042646 0.168185 0.941711
0.137407 0.168478 0.941359
0.251063 0.168651 0.940829
0.379421 0.168766 0.940241
0.507678 0.168962 0.939830
0.624811 0.169325 0.939736
0.741061 0.169812 0.939914
0.855941 0.170478 0.940486
0.954995 0.171218 0.941138
0.045714 0.296688 0.938557
0.140823 0.297319 0.938614
0.254890 0.297906 0.938667
0.382702 0.298600 0.939038
0.510422 0.299366 0.939570
0.626807 0.300180 0.940148
0.742826 0.300995 0.940726
0.857420 0.301816 0.941309
0.955946 0.302704 0.941958
0.047177 0.433491 0.937993
0.142524 0.434393 0.938661
0.257015 0.435214 0.939247
0.384736 0.435980 0.939777
0.512456 0.436747 0.940306
0.628475 0.437562 0.940882
0.744494 0.438377 0.941457
0.858797 0.439199 0.942039
0.956796 0.440090 0.942687
0.047976 0.566668 0.938799
0.143909 0.567477 0.939463
0.259111 0.568205 0.940044
0.386833 0.568880 0.940572
0.514189 0.569557 0.941101
0.630209 0.570282 0.941675
0.746230 0.571006 0.942249
0.860226 0.571740 0.942830
0.957699 0.572542 0.943478
0.048869 0.694504 0.939673
0.145387 0.695311 0.940331
0.261281 0.696036 0.940907
0.389003 0.696711 0.941432
0.515993 0.697390 0.941959
0.632013 0.698115 0.942531
0.748046 0.698848 0.943091
0.861963 0.699766 0.943481
0.959370 0.700914 0.943772
0.049778 0.822449 0.940538
0.146882 0.823211 0.941191
0.263450 0.823889 0.941762
0.391285 0.824603 0.942198
0.518397 0.825600 0.942347
0.635205 0.826864 0.942307
0.752400 0.828370 0.942012
0.867074 0.830102 0.941505
0.964944 0.831938 0.941031
0.051110 0.937678 0.941408
0.149236 0.938603 0.941721
0.267284 0.939734 0.941651
0.396276 0.941151 0.941192
0.524173 0.942847 0.940453
0.642039 0.944740 0.939595
0.760462 0.946875 0.938481
0.875626 0.949207 0.937190
0.973832 0.951528 0.936051
0.053942 0.974481 0.943108
0.152935 0.974592 0.943223
0.271942 0.974941 0.942924
0.401260 0.975584 0.942234
0.529089 0.976487 0.941289
0.647212 0.977557 0.940254
0.766030 0.978859 0.938974
0.880868 0.980331 0.937552
0.978690 0.981750 0.936327
0.039953 0.061621 1.000000
0.134453 0.061656 1.000000
0.247766 0.061542 0.999086
0.376335 0.061332 0.997045
0.504832 0.061180 0.995129
0.622471 0.061178 0.993493
0.739056 0.061243 0.991999
0.854578 0.061382 0.990665
0.954317 0.061700 0.989650
0.043596 0.171961 0.996440
0.138539 0.172273 0.995022
0.252428 0.172467 0.993435
0.380763 0.172609 0.991802
0.508992 0.172834 0.990354
0.625971 0.173232 0.989235
0.742152 0.173781 0.988451
0.856935 0.174461 0.987954
0.955815 0.175209 0.987524
0.046593 0.301068 0.990683
0.141872 0.301721 0.989697
0.256141 0.302343 0.988741
0.383898 0.303083 0.988126
0.511620 0.303851 0.987572
0.627884 0.304667 0.987067
0.743905 0.305483 0.986563
0.858405 0.306306 0.986065
0.956757 0.307197 0.985634
0.047939 0.437975 0.987625
0.143482 0.438878 0.987207
0.258214 0.439700 0.986708
0.385936 0.440467 0.986155
0.513536 0.441235 0.985602
0.629556 0.442052 0.985098
0.745577 0.442869 0.984593
0.859780 0.443693 0.984097
0.957605 0.444586 0.983669
0.048752 0.570839 0.985724
0.144881 0.571648 0.985304
0.260318 0.572377 0.984804
0.388041 0.573054 0.984252
0.515277 0.573733 0.983702
0.631299 0.574459 0.983199
0.747321 0.575186 0.982696
0.861212 0.575921 0.982202
0.958511 0.576725 0.981777
0.049655 0.698679 0.983894
0.146369 0.699486 0.983472
0.262492 0.700212 0.982969
0.390215 0.700889 0.982417
0.517085 0.701570 0.981868
0.633107 0.702296 0.981365
0.749171 0.703054 0.980829
0.863051 0.704028 0.980090
0.960345 0.705224 0.979264
0.050576 0.826473 0.982065
0.147877 0.827230 0.981641
0.264667 0.827904 0.981136
0.392575 0.828668 0.980442
0.519647 0.829722 0.979457
0.636529 0.831036 0.978289
0.753854 0.832590 0.976870
0.868417 0.834366 0.975245
0.966164 0.836237 0.973665
0.052016 0.941216 0.980184
0.150397 0.942180 0.979378
0.268730 0.943358 0.978182
0.397795 0.944824 0.976597
0.525639 0.946568 0.974737
0.643567 0.948502 0.972763
0.762103 0.950677 0.970536
0.877144 0.953044 0.968140
0.975215 0.955392 0.965907
0.054899 0.974486 0.979261
0.154116 0.974619 0.978283
0.273366 0.974993 0.976888
0.402718 0.975662 0.975106
0.530454 0.976587 0.973073
0.648603 0.977677 0.970954
0.767494 0.978998 0.968591
0.882173 0.980484 0.966095
0.979830 0.981912 0.963802
