flutter_app/assets/lut/cameras/fqs_superia400_indoor.cube
TITLE "FQS Fuji Superia 400 Indoor"
# DAZZ Camera LUT - FQS (Fujifilm QuickSnap Flash 400)
# Fujifilm Superia 400 Indoor Warm Light Color Science
# Variant: Indoor - Warm light compensation, green tone preserved
# Generated by DAZZ Color Science Engine
# Key: R-4%, G+5.5%, B+6.5%, shadow lift, highlight warm yellow
LUT_3D_SIZE 5
DOMAIN_MIN 0.0 0.0 0.0
DOMAIN_MAX 1.0 1.0 1.0
0.031266 0.038923 0.039550
0.236234 0.038547 0.037571
0.493158 0.037772 0.034950
0.728809 0.037382 0.033083
0.946619 0.037329 0.031876
0.039156 0.267763 0.030721
0.245865 0.268569 0.029778
0.502318 0.269211 0.028731
0.736112 0.270416 0.028847
0.951077 0.272117 0.029996
0.043428 0.538297 0.026920
0.251513 0.539846 0.028099
0.506956 0.541198 0.029084
0.739485 0.542645 0.030170
0.952876 0.544172 0.031341
0.045137 0.794642 0.028471
0.255843 0.796169 0.029651
0.511043 0.797503 0.030650
0.743119 0.798954 0.031724
0.955693 0.801073 0.032277
0.047997 0.975202 0.031130
0.261594 0.974537 0.032107
0.517781 0.974726 0.031852
0.752670 0.975851 0.030821
0.966345 0.977656 0.029278
0.033484 0.044423 0.284941
0.239169 0.044114 0.283616
0.496149 0.043433 0.281702
0.731453 0.043146 0.280554
0.948654 0.043204 0.280078
0.041104 0.275991 0.277889
0.248475 0.276885 0.277686
0.504846 0.277688 0.277536
0.738045 0.279168 0.278800
0.952491 0.280871 0.280473
0.044732 0.546418 0.276623
0.253698 0.547963 0.278321
0.509141 0.549314 0.279825
0.741425 0.550761 0.281425
0.954276 0.552290 0.283107
0.046465 0.802693 0.279474
0.258028 0.804194 0.281162
0.512984 0.805508 0.282668
0.745357 0.807159 0.284012
0.957942 0.809687 0.284620
0.049485 0.974849 0.283508
0.264314 0.974478 0.284670
0.520762 0.975045 0.284518
0.756235 0.976518 0.283614
0.969616 0.978630 0.282243
0.035714 0.049925 0.559216
0.242105 0.049693 0.557896
0.499117 0.049120 0.556054
0.734058 0.048950 0.554996
0.950621 0.049138 0.554639
0.043005 0.284194 0.552390
0.251126 0.285201 0.552324
0.507174 0.286257 0.552625
0.739943 0.287884 0.554099
0.953864 0.289589 0.555651
0.046009 0.554503 0.551994
0.255849 0.556045 0.553566
0.511292 0.557396 0.554948
0.743332 0.558844 0.556427
0.955635 0.560376 0.557989
0.047768 0.810636 0.554541
0.260181 0.812112 0.556103
0.514927 0.813431 0.557463
0.747918 0.815522 0.558208
0.960538 0.818482 0.558229
0.051117 0.974590 0.558245
0.267236 0.974563 0.558921
0.523986 0.975538 0.558226
0.760071 0.977385 0.556811
0.973184 0.979824 0.554984
0.037896 0.055576 0.822449
0.244991 0.055423 0.821223
0.502023 0.054962 0.819541
0.736593 0.054914 0.818662
0.952498 0.055243 0.818517
0.044830 0.292490 0.816105
0.253666 0.293630 0.816296
0.509330 0.294987 0.817225
0.741855 0.296615 0.818641
0.955244 0.298323 0.820132
0.047309 0.562604 0.816578
0.258014 0.564142 0.818085
0.513213 0.565493 0.819402
0.745254 0.566942 0.820810
0.957003 0.568476 0.822299
0.049096 0.818520 0.818966
0.262350 0.819972 0.820452
0.517162 0.821501 0.821494
0.750802 0.824056 0.821655
0.963428 0.827431 0.821140
0.052956 0.974483 0.822309
0.270343 0.974790 0.822547
0.527373 0.976157 0.821356
0.764046 0.978365 0.819471
0.976871 0.981116 0.817227
0.039953 0.061621 1.000000
0.247766 0.061542 0.999086
0.504832 0.061180 0.995129
0.739056 0.061243 0.991999
0.954317 0.061700 0.989650
0.046593 0.301068 0.990683
0.256141 0.302343 0.988741
0.511620 0.303851 0.987572
0.743905 0.305483 0.986563
0.956757 0.307197 0.985634
0.048752 0.570839 0.985724
0.260318 0.572377 0.984804
0.515277 0.573733 0.983702
0.747321 0.575186 0.982696
0.958511 0.576725 0.981777
0.050576 0.826473 0.982065
0.264667 0.827904 0.981136
0.519647 0.829722 0.979457
0.753854 0.832590 0.976870
0.966164 0.836237 0.973665
0.054899 0.974486 0.979261
0.273366 0.974993 0.976888
0.530454 0.976587 0.973073
0.767494 0.978998 0.968591
0.979830 0.981912 0.963802
