flutter_app/assets/lut/cameras/fqs_superia400_flash.cube
TITLE "FQS Fuji Superia 400 Flash"
# DAZZ Camera LUT - FQS (Fujifilm QuickSnap Flash 400)
# Fujifilm Superia 400 + Flash Color Science
# Variant: Flash (default) - Cool white flash, green tone, cold shadows
# Generated by DAZZ Color Science Engine
# Key: R-4%, G+6%, B+4%, shadow cyan-green, highlight cool white
LUT_3D_SIZE 5
DOMAIN_MIN 0.0 0.0 0.0
DOMAIN_MAX 1.0 1.0 1.0
0.007140 0.042846 0.035334
0.228297 0.040675 0.033855
0.479596 0.038187 0.032000
0.720686 0.036120 0.030858
0.935713 0.034708 0.030751
0.020060 0.271701 0.024236
0.241897 0.270998 0.024132
0.491923 0.270253 0.024162
0.730458 0.270226 0.025462
0.940218 0.271103 0.028253
0.026098 0.543608 0.019056
0.247588 0.544206 0.021741
0.495725 0.544585 0.024221
0.732723 0.545055 0.026806
0.939488 0.545774 0.029653
0.027283 0.802341 0.020840
0.250805 0.802879 0.023537
0.498944 0.803206 0.026045
0.735465 0.803649 0.028684
0.939384 0.804803 0.031978
0.031001 0.974350 0.025131
0.256645 0.972635 0.028037
0.504952 0.971491 0.031396
0.742589 0.971156 0.035454
0.944230 0.971452 0.040098
0.012173 0.046670 0.286267
0.234140 0.044585 0.285639
0.485447 0.042218 0.284683
0.726101 0.040290 0.284456
0.939521 0.039039 0.285283
0.024585 0.278018 0.277107
0.247126 0.277449 0.277954
0.496926 0.276932 0.279091
0.734554 0.277329 0.281842
0.942833 0.278216 0.285298
0.029434 0.550173 0.274791
0.251948 0.550760 0.278135
0.500083 0.551137 0.281267
0.736831 0.551607 0.284494
0.942035 0.552338 0.287980
0.030660 0.808749 0.277899
0.255166 0.809255 0.281228
0.503056 0.809560 0.284365
0.739698 0.810166 0.287772
0.942186 0.811628 0.291943
0.034619 0.973597 0.283660
0.261364 0.972115 0.287371
0.509620 0.971273 0.291582
0.747445 0.971226 0.296467
0.947514 0.971761 0.301886
0.017205 0.050476 0.556363
0.239967 0.048491 0.555765
0.491239 0.046264 0.554907
0.731433 0.044494 0.554810
0.943177 0.043426 0.555805
0.029021 0.284323 0.547580
0.252335 0.283922 0.548620
0.501617 0.283739 0.550251
0.738609 0.284389 0.553343
0.945368 0.285289 0.556687
0.032747 0.556693 0.546438
0.256265 0.557272 0.549649
0.504401 0.557649 0.552657
0.740902 0.558122 0.555761
0.944507 0.558866 0.559136
0.034019 0.815051 0.549303
0.259491 0.815527 0.552501
0.507148 0.815833 0.555532
0.744027 0.816777 0.559113
0.945047 0.818554 0.563441
0.038274 0.972890 0.555086
0.266136 0.971691 0.558905
0.514349 0.971165 0.563253
0.752476 0.971418 0.568261
0.950832 0.972196 0.573759
0.022173 0.054421 0.820618
0.245722 0.052540 0.820115
0.496930 0.050458 0.819402
0.736650 0.048856 0.819470
0.946656 0.047986 0.820656
0.033340 0.290744 0.812374
0.257355 0.290543 0.813684
0.505937 0.290812 0.816023
0.742680 0.291466 0.818973
0.947880 0.292379 0.822163
0.036095 0.563229 0.812236
0.260599 0.563801 0.815292
0.508488 0.564180 0.818135
0.744989 0.564653 0.821052
0.946956 0.565411 0.824235
0.037416 0.821303 0.814795
0.263835 0.821751 0.817799
0.511361 0.822215 0.820773
0.748490 0.823518 0.824443
0.947996 0.825597 0.828795
0.042042 0.972315 0.820549
0.270997 0.971395 0.824370
0.519163 0.971176 0.828726
0.757547 0.971724 0.833710
0.954184 0.972734 0.839116
0.026972 0.058832 1.000000
0.251439 0.057067 1.000000
0.502474 0.055138 1.000000
0.741752 0.053706 1.000000
0.950016 0.053033 1.000000
0.037562 0.297572 1.000000
0.262259 0.297595 1.000000
0.510484 0.298116 0.999284
0.746994 0.298785 0.997260
0.950608 0.299726 0.995506
0.039693 0.569995 0.995521
0.265177 0.570572 0.993593
0.512832 0.570968 0.991481
0.749347 0.571455 0.989462
0.949649 0.572240 0.987741
0.041091 0.827747 0.988157
0.268450 0.828178 0.986216
0.515898 0.828873 0.984472
0.753315 0.830427 0.983460
0.951099 0.832704 0.983109
0.046103 0.972010 0.984408
0.276072 0.971270 0.983470
0.524117 0.971240 0.983093
0.762642 0.971958 0.983350
0.957489 0.973084 0.984007
