flutter_app/assets/lut/cameras/fqs_superia400_flash.cube
TITLE "FQS Fuji Superia 400 Flash"
# DAZZ Camera LUT - FQS (Fujifilm QuickSnap Flash 400)
# Fujifilm Superia 400 + Flash Color Science
# Variant: Flash (default) - Cool white flash, green tone, cold shadows
# Generated by DAZZ Color Science Engine
# Key: R-4%, G+6%, B+4%, shadow cyan-green, highlight cool white
LUT_3D_SIZE 9
DOMAIN_MIN 0.0 0.0 0.0
DOMAIN_MAX 1.0 1.0 1.0
0.007140 0.042846 0.035334
0.112199 0.041837 0.034698
0.228297 0.040675 0.033855
0.353761 0.039403 0.032874
0.479596 0.038187 0.032000
0.600943 0.037108 0.031350
0.720686 0.036120 0.030858
0.837928 0.035237 0.030544
0.935713 0.034708 0.030751
0.013922 0.147923 0.029960
0.119227 0.147221 0.029578
0.235533 0.146389 0.029033
0.360872 0.145476 0.028403
0.486383 0.144637 0.027911
0.607143 0.143948 0.027664
0.726522 0.143362 0.027602
0.842894 0.142909 0.027765
0.939369 0.142800 0.028428
0.020060 0.271701 0.024236
0.125508 0.271396 0.024229
0.241897 0.270998 0.024132
0.366931 0.270570 0.024041
0.491923 0.270253 0.024162
0.611845 0.270133 0.024616
0.730458 0.270226 0.025462
0.845357 0.270582 0.026773
0.940218 0.271103 0.028253
0.024649 0.407709 0.019687
0.130028 0.407744 0.020320
0.246152 0.407813 0.021096
0.370246 0.408076 0.022292
0.494312 0.408356 0.023525
0.613303 0.408678 0.024802
0.731552 0.409006 0.026089
0.845901 0.409366 0.027411
0.939832 0.409895 0.028905
0.026098 0.543608 0.019056
0.131317 0.543953 0.020442
0.247588 0.544206 0.021741
0.371657 0.544395 0.022980
0.495725 0.544585 0.024221
0.614471 0.544818 0.025510
0.732723 0.545055 0.026806
0.846485 0.545329 0.028142
0.939488 0.545774 0.029653
0.026687 0.672746 0.019948
0.132372 0.673086 0.021338
0.249202 0.673335 0.022639
0.373271 0.673524 0.023883
0.497340 0.673713 0.025131
0.615838 0.673948 0.026429
0.734089 0.674185 0.027731
0.847223 0.674465 0.029079
0.939295 0.674917 0.030605
0.027283 0.802341 0.020840
0.133434 0.802657 0.022233
0.250805 0.802879 0.023537
0.374874 0.803043 0.024789
0.498944 0.803206 0.026045
0.617195 0.803415 0.027352
0.735465 0.803649 0.028684
0.848054 0.804089 0.030200
0.939384 0.804803 0.031978
0.028262 0.919128 0.022108
0.134884 0.919247 0.023510
0.252779 0.919271 0.024821
0.376892 0.919301 0.026134
0.500893 0.919537 0.027622
0.619447 0.920006 0.029316
0.738129 0.920670 0.031175
0.850413 0.921530 0.033212
0.941138 0.922549 0.035415
0.031001 0.974350 0.025131
0.138123 0.973469 0.026570
0.256645 0.972635 0.028037
0.380980 0.971961 0.029630
0.504952 0.971491 0.031396
0.623710 0.971231 0.033347
0.742589 0.971156 0.035454
0.854301 0.971254 0.037718
0.944230 0.971452 0.040098
0.009650 0.044774 0.156285
0.114916 0.043785 0.155850
0.231215 0.042644 0.155214
0.356730 0.041400 0.154449
0.482524 0.040214 0.153796
0.603702 0.039169 0.153372
0.723400 0.038214 0.153105
0.840361 0.037370 0.153026
0.937633 0.036880 0.153465
0.016340 0.150421 0.151344
0.121844 0.149742 0.151172
0.238344 0.148937 0.150844
0.363713 0.148059 0.150443
0.489171 0.147258 0.150186
0.609748 0.146612 0.150182
0.729063 0.146071 0.150367
0.845111 0.145672 0.150792
0.941045 0.145620 0.151721
0.022330 0.274874 0.146116
0.127963 0.274596 0.146336
0.244525 0.274234 0.146479
0.369554 0.273852 0.146649
0.494455 0.273594 0.147051
0.614132 0.273552 0.147823
0.732519 0.273790 0.149110
0.847147 0.274148 0.150596
0.941543 0.274672 0.152252
0.026659 0.411054 0.142233
0.132171 0.411150 0.143155
0.248365 0.411359 0.144365
0.372431 0.411639 0.145767
0.496497 0.411919 0.147171
0.615364 0.412241 0.148622
0.733612 0.412569 0.150082
0.847671 0.412931 0.151579
0.941136 0.413463 0.153249
0.027776 0.546903 0.142369
0.133228 0.547245 0.143927
0.249780 0.547496 0.145396
0.373849 0.547685 0.146807
0.497917 0.547873 0.148221
0.616539 0.548107 0.149683
0.734789 0.548343 0.151151
0.848242 0.548620 0.152663
0.940779 0.549068 0.154350
0.028375 0.676039 0.143607
0.134292 0.676378 0.145167
0.251394 0.676624 0.146638
0.375462 0.676812 0.148056
0.499530 0.677001 0.149476
0.617905 0.677237 0.150947
0.736155 0.677473 0.152422
0.848959 0.677755 0.153946
0.940565 0.678211 0.155647
0.028982 0.805566 0.144846
0.135365 0.805874 0.146410
0.252998 0.806087 0.147884
0.377067 0.806246 0.149309
0.501012 0.806404 0.150738
0.619264 0.806607 0.152218
0.737578 0.806903 0.153780
0.849874 0.807427 0.155543
0.940783 0.808208 0.157555
0.029986 0.921773 0.146475
0.136840 0.921884 0.148048
0.254990 0.921903 0.149532
0.379158 0.922011 0.151087
0.503094 0.922335 0.152826
0.621705 0.922886 0.154765
0.740445 0.923632 0.156870
0.852413 0.924570 0.159150
0.942714 0.925650 0.161582
0.032819 0.973984 0.149928
0.140195 0.973135 0.151567
0.259005 0.972369 0.153261
0.383388 0.971768 0.155088
0.507284 0.971372 0.157088
0.626087 0.971181 0.159269
0.745011 0.971176 0.161607
0.856375 0.971339 0.164098
0.945869 0.971588 0.166695
0.012173 0.046670 0.286267
0.117642 0.045701 0.286052
0.234140 0.044585 0.285639
0.359698 0.043370 0.285104
0.485447 0.042218 0.284683
0.606453 0.041209 0.284492
0.726101 0.040290 0.284456
0.842767 0.039487 0.284613
0.939521 0.039039 0.285283
0.018761 0.152892 0.281801
0.124461 0.152239 0.281851
0.241149 0.151465 0.281752
0.366540 0.150625 0.281588
0.491938 0.149866 0.281573
0.612326 0.149266 0.281816
0.731570 0.148776 0.282251
0.847273 0.148438 0.282941
0.942652 0.148451 0.284139
0.024585 0.278018 0.277107
0.130398 0.277772 0.277563
0.247126 0.277449 0.277954
0.372134 0.277121 0.278393
0.496926 0.276932 0.279091
0.616305 0.277002 0.280232
0.734554 0.277329 0.281842
0.848903 0.277688 0.283486
0.942833 0.278216 0.285298
0.028615 0.414395 0.273938
0.134225 0.414576 0.275187
0.250526 0.414898 0.276775
0.374591 0.415177 0.278339
0.498656 0.415456 0.279902
0.617399 0.415779 0.281510
0.735646 0.416106 0.283122
0.849406 0.416471 0.284770
0.942405 0.417006 0.286590
0.029434 0.550173 0.274791
0.135118 0.550513 0.276509
0.251948 0.550760 0.278135
0.376015 0.550949 0.279701
0.500083 0.551137 0.281267
0.618581 0.551371 0.282879
0.736831 0.551607 0.284494
0.849964 0.551886 0.286150
0.942035 0.552338 0.287980
0.030042 0.679308 0.276350
0.136191 0.679644 0.278064
0.253560 0.679887 0.279685
0.377628 0.680076 0.281251
0.501696 0.680264 0.282817
0.619946 0.680500 0.284432
0.738196 0.680736 0.286046
0.850661 0.681020 0.287708
0.941801 0.681480 0.289545
0.030660 0.808749 0.277899
0.137276 0.809049 0.279610
0.255166 0.809255 0.281228
0.379235 0.809407 0.282796
0.503056 0.809560 0.284365
0.621322 0.809779 0.285998
0.739698 0.810166 0.287772
0.851695 0.810777 0.289742
0.942186 0.811628 0.291943
0.031690 0.924376 0.279839
0.138776 0.924479 0.281552
0.257198 0.924528 0.283205
0.381430 0.924728 0.284977
0.505305 0.925143 0.286928
0.623977 0.925782 0.289074
0.742778 0.926614 0.291381
0.854422 0.927635 0.293856
0.944300 0.928779 0.296466
0.034619 0.973597 0.283660
0.142268 0.972807 0.285484
0.261364 0.972115 0.287371
0.385798 0.971591 0.289392
0.509620 0.971273 0.291582
0.628472 0.971157 0.293948
0.747445 0.971226 0.296467
0.858453 0.971458 0.299131
0.947514 0.971761 0.301886
0.014696 0.048559 0.421552
0.120368 0.047612 0.421372
0.237062 0.046522 0.421000
0.362655 0.045341 0.420517
0.488355 0.044224 0.420153
0.609186 0.043254 0.420024
0.728781 0.042374 0.420051
0.845137 0.041616 0.420280
0.941370 0.041212 0.421021
0.021173 0.155364 0.417198
0.127067 0.154739 0.417294
0.243941 0.153998 0.417248
0.369343 0.153199 0.417152
0.494677 0.152486 0.417213
0.614872 0.151937 0.417540
0.734035 0.151503 0.418070
0.849372 0.151235 0.418877
0.944175 0.151328 0.420210
0.026817 0.281158 0.412696
0.132805 0.280947 0.413219
0.249752 0.280670 0.413695
0.374664 0.280404 0.414250
0.499323 0.280300 0.415105
0.618333 0.280530 0.416541
0.736580 0.280857 0.418153
0.850639 0.281219 0.419799
0.944104 0.281751 0.421615
0.030505 0.417762 0.409947
0.136126 0.418084 0.411459
0.252675 0.418425 0.413085
0.376740 0.418704 0.414648
0.500806 0.418984 0.416212
0.619425 0.419308 0.417821
0.737672 0.419635 0.419432
0.851122 0.420002 0.421083
0.943656 0.420541 0.422907
0.031087 0.553431 0.411113
0.137003 0.553769 0.412828
0.254105 0.554015 0.414452
0.378173 0.554203 0.416018
0.502241 0.554391 0.417585
0.620614 0.554627 0.419198
0.738865 0.554863 0.420812
0.851669 0.555144 0.422471
0.943274 0.555600 0.424305
0.031704 0.682567 0.412671
0.138086 0.682901 0.414383
0.255717 0.683142 0.416002
0.379785 0.683330 0.417568
0.503729 0.683519 0.419136
0.621979 0.683755 0.420750
0.740230 0.683992 0.422364
0.852345 0.684278 0.424029
0.943020 0.684742 0.425870
0.032335 0.811906 0.414223
0.139184 0.812199 0.415933
0.257326 0.812397 0.417549
0.381395 0.812544 0.419116
0.505093 0.812693 0.420687
0.623404 0.812976 0.422378
0.741845 0.813455 0.424232
0.853532 0.814154 0.426281
0.943605 0.815076 0.428546
0.033391 0.926954 0.416180
0.140711 0.927052 0.417892
0.259430 0.927175 0.419611
0.383726 0.927468 0.421464
0.507542 0.927976 0.423498
0.626275 0.928703 0.425721
0.745137 0.929624 0.428106
0.856448 0.930727 0.430654
0.945904 0.931935 0.433322
0.036432 0.973226 0.420108
0.144359 0.972504 0.421987
0.263738 0.971886 0.423936
0.388225 0.971442 0.426021
0.511974 0.971203 0.428278
0.630875 0.971163 0.430706
0.749955 0.971308 0.433287
0.860540 0.971608 0.436010
0.949169 0.971965 0.438809
0.017205 0.050476 0.556363
0.123078 0.049554 0.556157
0.239967 0.048491 0.555765
0.365589 0.047343 0.555274
0.491239 0.046264 0.554907
0.611894 0.045334 0.554780
0.731433 0.044494 0.554810
0.847468 0.043784 0.555052
0.943177 0.043426 0.555805
0.023567 0.157868 0.552002
0.129652 0.157273 0.552082
0.246710 0.156566 0.552031
0.372117 0.155810 0.551943
0.497384 0.155146 0.552022
0.617380 0.154651 0.552377
0.736457 0.154278 0.552948
0.851402 0.154088 0.553828
0.945575 0.154297 0.555299
0.029021 0.284323 0.547580
0.135180 0.284150 0.548113
0.252335 0.283922 0.548620
0.377138 0.283726 0.549242
0.501617 0.283739 0.550251
0.620361 0.284062 0.551794
0.738609 0.284389 0.553343
0.852369 0.284753 0.554930
0.945368 0.285289 0.556687
0.032307 0.421193 0.545199
0.138001 0.421616 0.546838
0.254827 0.421955 0.548399
0.378893 0.422235 0.549900
0.502958 0.422514 0.551401
0.621454 0.422840 0.552949
0.739701 0.423167 0.554498
0.852832 0.423537 0.556090
0.944901 0.424080 0.557855
0.032747 0.556693 0.546438
0.138896 0.557029 0.548090
0.256265 0.557272 0.549649
0.380333 0.557461 0.551153
0.504401 0.557649 0.552657
0.622652 0.557886 0.554209
0.740902 0.558122 0.555761
0.853367 0.558406 0.557361
0.944507 0.558866 0.559136
0.033374 0.685828 0.547872
0.139989 0.686160 0.549520
0.257878 0.686400 0.551075
0.381946 0.686588 0.552579
0.505767 0.686779 0.554085
0.624017 0.687015 0.555637
0.742267 0.687251 0.557189
0.854024 0.687541 0.558794
0.944251 0.688036 0.560600
0.034019 0.815051 0.549303
0.141101 0.815336 0.550949
0.259491 0.815527 0.552501
0.383560 0.815669 0.554006
0.507148 0.815833 0.555532
0.625522 0.816207 0.557241
0.744027 0.816777 0.559113
0.855393 0.817564 0.561176
0.945047 0.818554 0.563441
0.035101 0.929520 0.551152
0.142677 0.929644 0.552827
0.261694 0.929854 0.554560
0.386055 0.930239 0.556432
0.509810 0.930839 0.558484
0.628605 0.931654 0.560722
0.747527 0.932662 0.563122
0.858494 0.933844 0.565679
0.947527 0.935115 0.568342
0.038274 0.972890 0.555086
0.146479 0.972235 0.556958
0.266136 0.971691 0.558905
0.390673 0.971326 0.560994
0.514349 0.971165 0.563253
0.633299 0.971199 0.565680
0.752476 0.971418 0.568261
0.862637 0.971786 0.570977
0.950832 0.972196 0.573759
0.019696 0.052436 0.688473
0.125768 0.051537 0.688303
0.242852 0.050502 0.687954
0.368497 0.049388 0.687517
0.494096 0.048346 0.687210
0.614574 0.047456 0.687148
0.734056 0.046658 0.687246
0.849757 0.045996 0.687567
0.944939 0.045686 0.688395
0.025939 0.160415 0.684232
0.132215 0.159850 0.684360
0.249515 0.159178 0.684366
0.374859 0.158467 0.684352
0.500056 0.157852 0.684515
0.619849 0.157415 0.684965
0.738830 0.157109 0.685650
0.853349 0.157014 0.686696
0.946868 0.157352 0.688394
0.031196 0.287522 0.680025
0.137521 0.287390 0.680635
0.254872 0.287215 0.681243
0.379547 0.287102 0.682018
0.503777 0.287275 0.683322
0.622396 0.287599 0.684869
0.740644 0.287927 0.686418
0.854094 0.288294 0.688007
0.946628 0.288833 0.689768
0.033973 0.424726 0.678263
0.139887 0.425155 0.679914
0.256986 0.425492 0.681472
0.381051 0.425771 0.682974
0.505117 0.426051 0.684475
0.623488 0.426377 0.686024
0.741736 0.426705 0.687573
0.854538 0.427077 0.689167
0.946141 0.427624 0.690936
0.034418 0.559960 0.679524
0.140800 0.560295 0.681174
0.258432 0.560536 0.682731
0.382500 0.560724 0.684235
0.506444 0.560914 0.685740
0.624694 0.561150 0.687292
0.742944 0.561386 0.688844
0.855060 0.561673 0.690446
0.945735 0.562137 0.692226
0.035055 0.689096 0.680958
0.141903 0.689426 0.682604
0.260044 0.689663 0.684156
0.384112 0.689852 0.685660
0.507809 0.690043 0.687168
0.626059 0.690279 0.688719
0.744310 0.690516 0.690271
0.855701 0.690814 0.691884
0.945507 0.691380 0.693749
0.035714 0.818184 0.682393
0.143028 0.818463 0.684036
0.261661 0.818646 0.685586
0.385731 0.818782 0.687092
0.509238 0.819008 0.688673
0.627675 0.819472 0.690461
0.746242 0.820133 0.692413
0.857278 0.821004 0.694552
0.946511 0.822062 0.696877
0.036824 0.932077 0.684259
0.144681 0.932267 0.685995
0.263992 0.932563 0.687802
0.388416 0.933040 0.689754
0.512110 0.933730 0.691886
0.630964 0.934631 0.694200
0.750005 0.935725 0.696676
0.860559 0.936987 0.699304
0.949167 0.938319 0.702023
0.040145 0.972587 0.688346
0.148626 0.971998 0.690272
0.268556 0.971528 0.692280
0.393144 0.971240 0.694433
0.516746 0.971156 0.696756
0.635744 0.971264 0.699244
0.755006 0.971558 0.701886
0.864743 0.971992 0.704658
0.952504 0.972453 0.707483
0.022173 0.054421 0.820618
0.128445 0.053547 0.820454
0.245722 0.052540 0.820115
0.371383 0.051462 0.819693
0.496930 0.050458 0.819402
0.617228 0.049611 0.819357
0.736650 0.048856 0.819470
0.852005 0.048245 0.819812
0.946656 0.047986 0.820656
0.028293 0.162992 0.816437
0.134758 0.162458 0.816575
0.252292 0.161822 0.816594
0.377571 0.161159 0.816608
0.502693 0.160598 0.816803
0.622275 0.160222 0.817297
0.741144 0.159993 0.818049
0.855149 0.160044 0.819282
0.948153 0.160424 0.820969
0.033340 0.290744 0.812374
0.139826 0.290657 0.813016
0.257355 0.290543 0.813684
0.381861 0.290539 0.814599
0.505937 0.290812 0.816023
0.624432 0.291138 0.817499
0.742680 0.291466 0.818973
0.855811 0.291835 0.820483
0.947880 0.292379 0.822163
0.035632 0.428267 0.811094
0.141779 0.428695 0.812682
0.259146 0.429030 0.814173
0.383211 0.429309 0.815603
0.507277 0.429589 0.817029
0.625525 0.429916 0.818497
0.743773 0.430244 0.819961
0.856235 0.430619 0.821467
0.947373 0.431171 0.823144
0.036095 0.563229 0.812236
0.142710 0.563561 0.813813
0.260599 0.563801 0.815292
0.384668 0.563990 0.816715
0.508488 0.564180 0.818135
0.626739 0.564417 0.819596
0.744989 0.564653 0.821052
0.856747 0.564944 0.822557
0.946956 0.565411 0.824235
0.036743 0.692365 0.813523
0.143823 0.692693 0.815086
0.262213 0.692929 0.816551
0.386281 0.693117 0.817964
0.509854 0.693310 0.819376
0.628105 0.693547 0.820827
0.746355 0.693783 0.822274
0.857398 0.694130 0.823816
0.946786 0.694772 0.825629
0.037416 0.821303 0.814795
0.144964 0.821575 0.816346
0.263835 0.821751 0.817799
0.387914 0.821896 0.819215
0.511361 0.822215 0.820773
0.629861 0.822769 0.822528
0.748490 0.823518 0.824443
0.859184 0.824474 0.826535
0.947996 0.825597 0.828795
0.038575 0.934652 0.816520
0.146720 0.934920 0.818222
0.266321 0.935301 0.819999
0.390807 0.935868 0.821920
0.514439 0.936648 0.824014
0.633354 0.937634 0.826283
0.752501 0.938814 0.828708
0.862641 0.940153 0.831274
0.950825 0.941544 0.833911
0.042042 0.972315 0.820549
0.150800 0.971792 0.822418
0.270997 0.971395 0.824370
0.395636 0.971184 0.826466
0.519163 0.971176 0.828726
0.638209 0.971357 0.831144
0.757547 0.971724 0.833710
0.866857 0.972223 0.836395
0.954184 0.972734 0.839116
0.024620 0.056481 0.944596
0.131092 0.055632 0.944212
0.248623 0.054654 0.943658
0.374236 0.053612 0.943035
0.499732 0.052647 0.942547
0.619850 0.051843 0.942310
0.739213 0.051133 0.942236
0.854210 0.050573 0.942403
0.948331 0.050366 0.943071
0.030618 0.165645 0.940026
0.137272 0.165142 0.939955
0.255036 0.164544 0.939776
0.380249 0.163929 0.939610
0.505295 0.163423 0.939638
0.624663 0.163113 0.939983
0.743402 0.162973 0.940632
0.856917 0.163150 0.941824
0.949456 0.163538 0.943255
0.035453 0.294031 0.935680
0.142097 0.293991 0.936152
0.259788 0.293948 0.936690
0.384057 0.294097 0.937630
0.508124 0.294378 0.938807
0.626496 0.294705 0.940025
0.744745 0.295033 0.941240
0.857547 0.295406 0.942495
0.949151 0.295955 0.943919
0.037322 0.431835 0.934400
0.143703 0.432261 0.935727
0.261333 0.432595 0.936957
0.385399 0.432875 0.938128
0.509342 0.433157 0.939296
0.627590 0.433485 0.940506
0.745839 0.433813 0.941710
0.857953 0.434192 0.942961
0.948627 0.434748 0.944383
0.037805 0.566525 0.935032
0.144653 0.566856 0.936348
0.262796 0.567094 0.937566
0.386865 0.567284 0.938730
0.510562 0.567476 0.939893
0.628814 0.567714 0.941095
0.747065 0.567951 0.942292
0.858454 0.568245 0.943541
0.948199 0.568717 0.944963
0.038464 0.695662 0.935801
0.145778 0.695989 0.937103
0.264410 0.696224 0.938307
0.388479 0.696413 0.939461
0.511930 0.696608 0.940616
0.630181 0.696845 0.941808
0.748436 0.697087 0.943000
0.859142 0.697517 0.944352
0.948108 0.698230 0.945965
0.039153 0.824436 0.936560
0.146934 0.824700 0.937850
0.266039 0.824870 0.939042
0.390153 0.825063 0.940243
0.513538 0.825471 0.941620
0.632097 0.826108 0.943190
0.750842 0.826941 0.944918
0.861122 0.827973 0.946820
0.949510 0.829157 0.948875
0.040387 0.937278 0.937842
0.148816 0.937617 0.939348
0.268697 0.938078 0.940936
0.393242 0.938729 0.942671
0.516808 0.939592 0.944580
0.635778 0.940657 0.946659
0.755019 0.941916 0.948895
0.864741 0.943325 0.951264
0.952496 0.944770 0.953692
0.043985 0.972091 0.941484
0.153018 0.971628 0.943144
0.273473 0.971299 0.944893
0.398158 0.971159 0.946787
0.521607 0.971220 0.948845
0.640697 0.971468 0.951059
0.760095 0.971901 0.953420
0.868977 0.972458 0.955894
0.955864 0.973013 0.958393
0.026972 0.058832 1.000000
0.133650 0.058013 1.000000
0.251439 0.057067 1.000000
0.377016 0.056063 1.000000
0.502474 0.055138 1.000000
0.622430 0.054375 1.000000
0.741752 0.053706 1.000000
0.856404 0.053193 1.000000
0.950016 0.053033 1.000000
0.032880 0.168586 1.000000
0.139735 0.168118 1.000000
0.257738 0.167557 1.000000
0.382905 0.166986 1.000000
0.507898 0.166530 1.000000
0.627079 0.166276 1.000000
0.745711 0.166220 1.000000
0.858853 0.166449 1.000000
0.950933 0.166852 0.999294
0.037562 0.297572 1.000000
0.144385 0.297576 1.000000
0.262259 0.297595 1.000000
0.386412 0.297830 1.000000
0.510484 0.298116 0.999284
0.628739 0.298451 0.998272
0.746994 0.298785 0.997260
0.859464 0.299168 0.996295
0.950608 0.299726 0.995506
0.039180 0.435566 0.999360
0.145800 0.435996 0.998444
0.263694 0.436334 0.997434
0.387766 0.436620 0.996374
0.511591 0.436909 0.995316
0.629846 0.437243 0.994304
0.748101 0.437578 0.993291
0.859862 0.437966 0.992333
0.950076 0.438531 0.991551
0.039693 0.569995 0.995521
0.146780 0.570330 0.994603
0.265177 0.570572 0.993593
0.389252 0.570768 0.992535
0.512832 0.570968 0.991481
0.631089 0.571211 0.990472
0.749347 0.571455 0.989462
0.860363 0.571758 0.988512
0.949649 0.572240 0.987741
0.040374 0.699144 0.991831
0.147927 0.699476 0.990910
0.266804 0.699714 0.989895
0.390879 0.699910 0.988837
0.514211 0.700111 0.987786
0.632469 0.700355 0.986776
0.750740 0.700620 0.985784
0.861082 0.701101 0.984982
0.949609 0.701854 0.984437
0.041091 0.827747 0.988157
0.149111 0.828010 0.987233
0.268450 0.828178 0.986216
0.392600 0.828417 0.985253
0.515898 0.828873 0.984472
0.634491 0.829554 0.983886
0.753315 0.830427 0.983460
0.863156 0.831495 0.983210
0.951099 0.832704 0.983109
0.042397 0.940075 0.985080
0.151092 0.940452 0.984414
0.271224 0.940954 0.983838
0.395802 0.941645 0.983414
0.519274 0.942546 0.983167
0.638272 0.943645 0.983091
0.757566 0.944935 0.983175
0.866841 0.946367 0.983393
0.954143 0.947827 0.983666
0.046103 0.972010 0.984408
0.155389 0.971573 0.983891
0.276072 0.971270 0.983470
0.400776 0.971156 0.983198
0.524117 0.971240 0.983093
0.643222 0.971507 0.983146
0.762642 0.971958 0.983350
0.871064 0.972525 0.983666
0.957489 0.973084 0.984007
