flutter_app/assets/lut/cameras/fqs_superia400_natural.cube
TITLE "FQS Fuji Superia 400 Natural"
# DAZZ Camera LUT - FQS (Fujifilm QuickSnap Flash 400)
# Fujifilm Superia 400 Natural Light Color Science
# Variant: Natural - Outdoor daylight, stronger green tone, cyan shadows
# Generated by DAZZ Color Science Engine
# Key: R-5%, G+6.5%, B+5.5%, shadow cyan-green, highlight yellow-green
LUT_3D_SIZE 5
DOMAIN_MIN 0.0 0.0 0.0
DOMAIN_MAX 1.0 1.0 1.0
0.001217 0.040671 0.033681
0.232772 0.036291 0.032129
0.483501 0.031792 0.030460
0.728783 0.027771 0.029202
0.951609 0.024556 0.028653
0.010945 0.274675 0.023842
0.242371 0.271773 0.023300
0.491863 0.269091 0.022923
0.735205 0.267334 0.023331
0.954189 0.266811 0.024805
0.014578 0.543504 0.018254
0.244962 0.542829 0.019628
0.492838 0.542009 0.020867
0.735082 0.541236 0.022162
0.952275 0.540670 0.023674
0.013945 0.806279 0.017390
0.245339 0.805566 0.018775
0.493215 0.804715 0.020034
0.735306 0.803949 0.021327
0.951262 0.804111 0.022419
0.015844 0.980558 0.019066
0.248475 0.978903 0.020332
0.497435 0.978268 0.020782
0.741584 0.978823 0.020595
0.957699 0.980276 0.020249
0.006338 0.044374 0.285124
0.238411 0.040116 0.284361
0.489087 0.035780 0.283504
0.734088 0.031942 0.283069
0.955597 0.028941 0.283357
0.015591 0.280498 0.277036
0.247447 0.277811 0.277346
0.496712 0.275462 0.277912
0.739369 0.274343 0.279506
0.957163 0.273831 0.281637
0.018200 0.550157 0.273790
0.249258 0.549475 0.275813
0.497132 0.548654 0.277698
0.739250 0.547880 0.279631
0.955212 0.547322 0.281779
0.017588 0.812728 0.274232
0.249637 0.811999 0.276248
0.497450 0.811138 0.278135
0.739707 0.810640 0.279878
0.954799 0.811300 0.281285
0.019713 0.979807 0.277371
0.253292 0.978524 0.279018
0.502503 0.978343 0.279802
0.747019 0.979341 0.279943
0.962119 0.981174 0.279972
0.011455 0.047991 0.561141
0.244029 0.043881 0.560343
0.494620 0.039733 0.559488
0.739316 0.036112 0.559076
0.959451 0.033359 0.559416
0.020152 0.286297 0.553214
0.252451 0.283878 0.553596
0.501289 0.282017 0.554417
0.743473 0.281297 0.556192
0.960052 0.280795 0.558184
0.021775 0.556751 0.550640
0.253497 0.556064 0.552509
0.501371 0.555243 0.554245
0.743366 0.554471 0.556029
0.958068 0.553924 0.558038
0.021192 0.819068 0.550791
0.253884 0.818325 0.552653
0.501599 0.817486 0.554374
0.744312 0.817530 0.555632
0.958527 0.818707 0.556588
0.023656 0.979140 0.553748
0.258235 0.978307 0.554964
0.507719 0.978606 0.555308
0.752651 0.980074 0.555013
0.966692 0.982301 0.554673
0.016507 0.051795 0.827990
0.249608 0.047834 0.827254
0.500066 0.043884 0.826490
0.744446 0.040490 0.826183
0.963161 0.038005 0.826654
0.024610 0.292282 0.820440
0.257297 0.290178 0.821006
0.505547 0.288988 0.822295
0.747603 0.288277 0.823978
0.962937 0.287785 0.825870
0.025389 0.563370 0.818540
0.257760 0.562678 0.820304
0.505511 0.561859 0.821931
0.747507 0.561087 0.823593
0.960919 0.560551 0.825481
0.024835 0.825378 0.818490
0.258157 0.824621 0.820225
0.505972 0.824044 0.821651
0.749167 0.824660 0.822412
0.962457 0.826334 0.822924
0.027781 0.978672 0.821201
0.263338 0.978278 0.821999
0.513082 0.979043 0.821906
0.758425 0.980967 0.821169
0.971355 0.983569 0.820441
0.021421 0.056268 1.000000
0.255089 0.052455 1.000000
0.505410 0.048690 1.000000
0.749510 0.045505 1.000000
0.966812 0.043268 1.000000
0.029023 0.298831 1.000000
0.262097 0.297051 1.000000
0.509991 0.296219 0.999343
0.751995 0.295519 0.997311
0.966065 0.295048 0.995509
0.029269 0.570242 0.995602
0.262287 0.569555 0.993646
0.509924 0.568747 0.991569
0.751930 0.567985 0.989539
0.964033 0.567470 0.987755
0.028766 0.831907 0.988142
0.262715 0.831146 0.986180
0.510712 0.830928 0.983708
0.754293 0.831941 0.980558
0.966442 0.833942 0.977230
0.032190 0.978470 0.983503
0.268576 0.978350 0.980461
0.518428 0.979393 0.976548
0.763990 0.981577 0.972009
0.975660 0.984371 0.967553
