flutter_app/assets/lut/cameras/fqs_superia400_natural.cube
TITLE "FQS Fuji Superia 400 Natural"
# DAZZ Camera LUT - FQS (Fujifilm QuickSnap Flash 400)
# Fujifilm Superia 400 Natural Light Color Science
# Variant: Natural - Outdoor daylight, stronger green tone, cyan shadows
# Generated by DAZZ Color Science Engine
# Key: R-5%, G+6.5%, B+5.5%, shadow cyan-green, highlight yellow-green
LUT_3D_SIZE 9
DOMAIN_MIN 0.0 0.0 0.0
DOMAIN_MAX 1.0 1.0 1.0
0.001217 0.040671 0.033681
0.113252 0.038533 0.032952
0.232772 0.036291 0.032129
0.358076 0.033999 0.031258
0.483501 0.031792 0.030460
0.606497 0.029727 0.029784
0.728783 0.027771 0.029202
0.848037 0.025971 0.028757
0.951609 0.024556 0.028653
0.006451 0.150445 0.028790
0.118511 0.148607 0.028260
0.238031 0.146695 0.027659
0.363138 0.144766 0.027038
0.488281 0.142943 0.026508
0.610885 0.141282 0.026117
0.732849 0.139756 0.025841
0.851429 0.138421 0.025730
0.954130 0.137463 0.025956
0.010945 0.274675 0.023842
0.122950 0.273237 0.023586
0.242371 0.271773 0.023300
0.367154 0.270351 0.023043
0.491863 0.269091 0.022923
0.613879 0.268064 0.023003
0.735205 0.267334 0.023331
0.852623 0.267006 0.024001
0.954189 0.266811 0.024805
0.014067 0.408359 0.019761
0.125845 0.407446 0.019944
0.244893 0.406673 0.020236
0.368847 0.406256 0.020818
0.492785 0.405877 0.021433
0.614122 0.405519 0.022072
0.735120 0.405164 0.022716
0.852178 0.404841 0.023396
0.953215 0.404651 0.024209
0.014578 0.543504 0.018254
0.126032 0.543197 0.018970
0.244962 0.542829 0.019628
0.368900 0.542419 0.020246
0.492838 0.542009 0.020867
0.614084 0.541622 0.021513
0.735082 0.541236 0.022162
0.851767 0.540887 0.022850
0.952275 0.540670 0.023674
0.014258 0.674876 0.017817
0.125947 0.674568 0.018537
0.245150 0.674197 0.019197
0.369088 0.673788 0.019820
0.493026 0.673378 0.020446
0.614179 0.672991 0.021096
0.735177 0.672606 0.021751
0.851472 0.672259 0.022446
0.951451 0.672047 0.023279
0.013945 0.806279 0.017390
0.125869 0.805954 0.018112
0.245339 0.805566 0.018775
0.369277 0.805141 0.019403
0.493215 0.804715 0.020034
0.614276 0.804313 0.020691
0.735306 0.803949 0.021327
0.851427 0.803872 0.021859
0.951262 0.804111 0.022419
0.013970 0.925978 0.017302
0.126132 0.925570 0.018030
0.245862 0.925099 0.018697
0.369889 0.924698 0.019269
0.494140 0.924605 0.019656
0.615724 0.924827 0.019891
0.737556 0.925348 0.019947
0.854046 0.926148 0.019909
0.954030 0.927128 0.019983
0.015844 0.980558 0.019066
0.128273 0.979647 0.019799
0.248475 0.978903 0.020332
0.372891 0.978433 0.020648
0.497435 0.978268 0.020782
0.619390 0.978400 0.020776
0.741584 0.978823 0.020595
0.857967 0.979493 0.020345
0.957699 0.980276 0.020249
0.003772 0.042556 0.153544
0.115940 0.040446 0.153001
0.235589 0.038235 0.152367
0.360907 0.035980 0.151689
0.486296 0.033813 0.151087
0.609194 0.031791 0.150611
0.731442 0.029879 0.150228
0.850439 0.028131 0.149988
0.953617 0.026766 0.150090
0.008916 0.152812 0.149050
0.121102 0.151009 0.148711
0.240744 0.149136 0.148305
0.365852 0.147253 0.147886
0.490950 0.145482 0.147561
0.613444 0.143877 0.147380
0.735355 0.142413 0.147318
0.853648 0.141151 0.147431
0.955931 0.140271 0.147885
0.013277 0.277611 0.144537
0.125396 0.276218 0.144483
0.244923 0.274809 0.144407
0.369681 0.273455 0.144371
0.494316 0.272279 0.144485
0.616171 0.271365 0.144823
0.737304 0.270854 0.145498
0.854484 0.270530 0.146335
0.955696 0.270338 0.147307
0.016182 0.411546 0.140993
0.128032 0.410726 0.141418
0.247070 0.410158 0.142044
0.371007 0.409778 0.142821
0.494944 0.409399 0.143601
0.616219 0.409041 0.144404
0.737216 0.408685 0.145213
0.854027 0.408364 0.146058
0.954710 0.408176 0.147039
0.016404 0.546847 0.140101
0.128014 0.546538 0.140981
0.247127 0.546168 0.141801
0.371064 0.545758 0.142583
0.495002 0.545348 0.143368
0.616185 0.544961 0.144178
0.737183 0.544575 0.144992
0.853609 0.544226 0.145846
0.953764 0.544012 0.146837
0.016088 0.678219 0.139993
0.127933 0.677908 0.140875
0.247314 0.677536 0.141698
0.371251 0.677126 0.142485
0.495189 0.676716 0.143275
0.616279 0.676329 0.144090
0.737277 0.675943 0.144909
0.853301 0.675598 0.145771
0.952927 0.675389 0.146770
0.015781 0.809527 0.139896
0.127862 0.809198 0.140782
0.247504 0.808806 0.141607
0.371442 0.808378 0.142400
0.495380 0.807950 0.143194
0.616378 0.807546 0.144016
0.737491 0.807279 0.144755
0.853439 0.807332 0.145375
0.953012 0.807682 0.146034
0.015824 0.928741 0.140150
0.128143 0.928329 0.141041
0.248048 0.927864 0.141865
0.372183 0.927591 0.142521
0.496485 0.927631 0.142990
0.618179 0.927985 0.143309
0.740121 0.928637 0.143447
0.856421 0.929560 0.143500
0.956138 0.930645 0.143678
0.017791 0.980196 0.142331
0.130424 0.979341 0.143191
0.250876 0.978701 0.143823
0.375382 0.978340 0.144236
0.499953 0.978283 0.144470
0.621995 0.978521 0.144562
0.744278 0.979050 0.144481
0.860438 0.979819 0.144338
0.959883 0.980685 0.144361
0.006338 0.044374 0.285124
0.118635 0.042293 0.284788
0.238411 0.040116 0.284361
0.363736 0.037902 0.283895
0.489087 0.035780 0.283504
0.611882 0.033805 0.283240
0.734088 0.031942 0.283069
0.852817 0.030250 0.283043
0.955597 0.028941 0.283357
0.011381 0.155123 0.281072
0.123690 0.153358 0.280941
0.243450 0.151528 0.280746
0.368551 0.149697 0.280543
0.493599 0.147984 0.280436
0.615976 0.146443 0.280476
0.737826 0.145049 0.280638
0.855814 0.143872 0.280984
0.957666 0.143084 0.281677
0.015591 0.280498 0.277036
0.127820 0.279157 0.277199
0.247447 0.277811 0.277346
0.372167 0.276537 0.277547
0.496712 0.275462 0.277912
0.618366 0.274707 0.278546
0.739369 0.274343 0.279506
0.856304 0.274021 0.280505
0.957163 0.273831 0.281637
0.018245 0.414724 0.274079
0.130138 0.414033 0.274780
0.249198 0.413648 0.275725
0.373134 0.413267 0.276667
0.497070 0.412887 0.277608
0.618283 0.412530 0.278572
0.739280 0.412174 0.279538
0.855835 0.411854 0.280541
0.956165 0.411669 0.281677
0.018200 0.550157 0.273790
0.129966 0.549847 0.274833
0.249258 0.549475 0.275813
0.373195 0.549064 0.276756
0.497132 0.548654 0.277698
0.618253 0.548266 0.278664
0.739250 0.547880 0.279631
0.855410 0.547534 0.280637
0.955212 0.547322 0.281779
0.017888 0.681528 0.274008
0.129890 0.681216 0.275049
0.249444 0.680842 0.276028
0.373381 0.680431 0.276970
0.497319 0.680021 0.277913
0.618347 0.679634 0.278879
0.739344 0.679248 0.279846
0.855091 0.678905 0.280856
0.954363 0.678697 0.282002
0.017588 0.812728 0.274232
0.129826 0.812395 0.275271
0.249637 0.811999 0.276248
0.373574 0.811569 0.277191
0.497450 0.811138 0.278135
0.618473 0.810762 0.279084
0.739707 0.810640 0.279878
0.855482 0.810831 0.280556
0.954799 0.811300 0.281285
0.017649 0.931456 0.274808
0.130124 0.931040 0.275848
0.250252 0.930642 0.276776
0.374508 0.930513 0.277489
0.498868 0.930697 0.278013
0.620681 0.931191 0.278386
0.742741 0.931983 0.278576
0.858851 0.933040 0.278688
0.958307 0.934236 0.278934
0.019713 0.979807 0.277371
0.132586 0.979052 0.278314
0.253292 0.978524 0.279018
0.377896 0.978281 0.279501
0.502503 0.978343 0.279802
0.624641 0.978697 0.279961
0.747019 0.979341 0.279943
0.862955 0.980218 0.279871
0.962119 0.981174 0.279972
0.008904 0.046164 0.423671
0.121329 0.044117 0.423361
0.241228 0.041978 0.422964
0.366554 0.039809 0.422533
0.491865 0.037735 0.422182
0.614554 0.035812 0.421959
0.736714 0.034004 0.421831
0.855163 0.032373 0.421855
0.957542 0.031124 0.422218
0.013837 0.157419 0.419705
0.126267 0.155696 0.419608
0.246141 0.153915 0.419451
0.371227 0.152141 0.419293
0.496221 0.150491 0.419238
0.618478 0.149020 0.419334
0.740259 0.147706 0.419561
0.857925 0.146626 0.419987
0.959327 0.145954 0.420774
0.017884 0.283378 0.415807
0.130217 0.282095 0.416018
0.249967 0.280819 0.416224
0.374606 0.279638 0.416501
0.499042 0.278687 0.416969
0.620422 0.278174 0.417804
0.741419 0.277818 0.418770
0.858102 0.277497 0.419771
0.958609 0.277310 0.420906
0.020248 0.417939 0.413129
0.132108 0.417463 0.414008
0.251309 0.417122 0.414989
0.375246 0.416742 0.415930
0.499182 0.416361 0.416872
0.620333 0.416004 0.417837
0.741329 0.415648 0.418802
0.857622 0.415331 0.419807
0.957599 0.415148 0.420946
0.019984 0.553452 0.413061
0.131907 0.553141 0.414103
0.251375 0.552767 0.415082
0.375312 0.552356 0.416025
0.499249 0.551946 0.416967
0.620308 0.551559 0.417933
0.741305 0.551173 0.418900
0.857192 0.550828 0.419909
0.956640 0.550620 0.421053
0.019677 0.684823 0.413280
0.131835 0.684509 0.414320
0.251561 0.684134 0.415297
0.375498 0.683723 0.416239
0.499404 0.683313 0.417182
0.620402 0.682927 0.418149
0.741399 0.682540 0.419116
0.856861 0.682200 0.420128
0.955781 0.681996 0.421276
0.019386 0.815902 0.413507
0.131780 0.815566 0.414545
0.251757 0.815166 0.415521
0.375695 0.814733 0.416464
0.499509 0.814301 0.417408
0.620619 0.814027 0.418293
0.741977 0.814053 0.418996
0.857573 0.814386 0.419590
0.956637 0.814975 0.420250
0.019465 0.934146 0.414097
0.132103 0.933734 0.415130
0.252505 0.933468 0.415975
0.376885 0.933486 0.416597
0.501306 0.933817 0.417031
0.623239 0.934454 0.417315
0.745420 0.935390 0.417417
0.861334 0.936580 0.417450
0.960530 0.937889 0.417631
0.021660 0.979447 0.416719
0.134782 0.978801 0.417593
0.255742 0.978391 0.418224
0.380447 0.978270 0.418633
0.505091 0.978452 0.418861
0.627327 0.978924 0.418947
0.749804 0.979687 0.418857
0.865510 0.980673 0.418723
0.964394 0.981720 0.418774
0.011455 0.047991 0.561141
0.124007 0.045980 0.560784
0.244029 0.043881 0.560343
0.369352 0.041758 0.559875
0.494620 0.039733 0.559488
0.617204 0.037864 0.559233
0.739316 0.036112 0.559076
0.857476 0.034545 0.559077
0.959451 0.033359 0.559416
0.016275 0.159757 0.557117
0.128824 0.158078 0.556979
0.248827 0.156347 0.556788
0.373879 0.154633 0.556603
0.498816 0.153049 0.556526
0.620947 0.151653 0.556609
0.742655 0.150426 0.556831
0.859979 0.149457 0.557274
0.960886 0.148953 0.558124
0.020152 0.286297 0.553214
0.132587 0.285077 0.553401
0.252451 0.283878 0.553596
0.376998 0.282801 0.553885
0.501289 0.282017 0.554417
0.622477 0.281653 0.555301
0.743473 0.281297 0.556192
0.859899 0.280979 0.557121
0.960052 0.280795 0.558184
0.022180 0.421248 0.550709
0.134046 0.420943 0.551655
0.253426 0.420601 0.552560
0.377362 0.420221 0.553427
0.501299 0.419841 0.554294
0.622388 0.419484 0.555184
0.743385 0.419128 0.556076
0.859408 0.418814 0.557008
0.959032 0.418634 0.558075
0.021775 0.556751 0.550640
0.133856 0.556439 0.551606
0.253497 0.556064 0.552509
0.377434 0.555654 0.553377
0.501371 0.555243 0.554245
0.622369 0.554857 0.555137
0.743366 0.554471 0.556029
0.858972 0.554129 0.556966
0.958068 0.553924 0.558038
0.021474 0.688123 0.550710
0.133789 0.687808 0.551673
0.253684 0.687431 0.552574
0.377621 0.687021 0.553442
0.501465 0.686611 0.554311
0.622463 0.686225 0.555203
0.743460 0.685839 0.556095
0.858630 0.685501 0.557035
0.957234 0.685345 0.558085
0.021192 0.819068 0.550791
0.133743 0.818728 0.551753
0.253884 0.818325 0.552653
0.377822 0.817890 0.553522
0.501599 0.817486 0.554374
0.622831 0.817358 0.555094
0.744312 0.817530 0.555632
0.859719 0.818001 0.556071
0.958527 0.818707 0.556588
0.021290 0.936827 0.551245
0.134142 0.936480 0.552162
0.254820 0.936354 0.552843
0.379322 0.936517 0.553301
0.503803 0.936993 0.553572
0.625855 0.937771 0.553694
0.748155 0.938848 0.553635
0.863863 0.940170 0.553516
0.962797 0.941589 0.553559
0.023656 0.979140 0.553748
0.137024 0.978602 0.554481
0.258235 0.978307 0.554964
0.383038 0.978305 0.555226
0.507719 0.978606 0.555308
0.630051 0.979195 0.555249
0.752651 0.980074 0.555013
0.868089 0.981166 0.554745
0.966692 0.982301 0.554673
0.013987 0.049879 0.694487
0.126666 0.047902 0.694156
0.246811 0.045843 0.693746
0.372127 0.043766 0.693314
0.497354 0.041792 0.692968
0.619830 0.039976 0.692756
0.741894 0.038281 0.692644
0.859756 0.036779 0.692698
0.961326 0.035659 0.693090
0.018694 0.162157 0.690554
0.131361 0.160521 0.690451
0.251505 0.158840 0.690299
0.376504 0.157188 0.690164
0.501383 0.155673 0.690142
0.623385 0.154355 0.690288
0.745011 0.153223 0.690588
0.861967 0.152388 0.691140
0.962353 0.152080 0.692152
0.022395 0.289272 0.686800
0.134928 0.288117 0.687042
0.254897 0.287002 0.687306
0.379339 0.286045 0.687694
0.503421 0.285499 0.688423
0.624541 0.285142 0.689313
0.745538 0.284787 0.690205
0.861697 0.284471 0.691136
0.961498 0.284290 0.692202
0.023997 0.424715 0.684703
0.135998 0.424433 0.685669
0.255552 0.424089 0.686572
0.379488 0.423709 0.687439
0.503425 0.423329 0.688306
0.624452 0.422973 0.689197
0.745449 0.422617 0.690088
0.861195 0.422305 0.691022
0.960467 0.422128 0.692093
0.023580 0.560061 0.684660
0.135818 0.559747 0.685624
0.255628 0.559371 0.686526
0.379565 0.558960 0.687394
0.503441 0.558550 0.688262
0.624438 0.558164 0.689154
0.745436 0.557778 0.690046
0.860753 0.557439 0.690985
0.959496 0.557236 0.692061
0.023284 0.691432 0.684729
0.135756 0.691116 0.685692
0.255815 0.690738 0.686591
0.379752 0.690328 0.687459
0.503535 0.689918 0.688328
0.624532 0.689532 0.689220
0.745530 0.689146 0.690112
0.860406 0.688818 0.691051
0.958747 0.688772 0.692038
0.023011 0.822230 0.684815
0.135719 0.821886 0.685776
0.256020 0.821479 0.686674
0.379958 0.821042 0.687543
0.503755 0.820736 0.688335
0.625109 0.820752 0.688967
0.746710 0.821067 0.689416
0.861918 0.821674 0.689775
0.960468 0.822494 0.690226
0.023136 0.939513 0.685277
0.136247 0.939287 0.686117
0.257197 0.939298 0.686711
0.381819 0.939604 0.687081
0.506357 0.940222 0.687265
0.628527 0.941139 0.687301
0.750958 0.942355 0.687156
0.866435 0.943805 0.686962
0.965105 0.945331 0.686943
0.025698 0.978883 0.687789
0.139312 0.978451 0.688456
0.260767 0.978270 0.688868
0.385668 0.978386 0.689058
0.510382 0.978803 0.689070
0.632809 0.979506 0.688942
0.755524 0.980500 0.688636
0.870693 0.981695 0.688310
0.969012 0.982916 0.688190
0.016507 0.051795 0.827990
0.129312 0.049854 0.827661
0.249608 0.047834 0.827254
0.374883 0.045806 0.826830
0.500066 0.043884 0.826490
0.622433 0.042125 0.826287
0.744446 0.040490 0.826183
0.862001 0.039057 0.826251
0.963161 0.038005 0.826654
0.021095 0.164589 0.824098
0.133880 0.162999 0.824000
0.254158 0.161372 0.823856
0.379102 0.159784 0.823737
0.503919 0.158342 0.823734
0.625786 0.157110 0.823907
0.747318 0.156087 0.824251
0.863834 0.155459 0.824925
0.963813 0.155218 0.825940
0.024610 0.292282 0.820440
0.137237 0.291198 0.820703
0.257297 0.290178 0.821006
0.381601 0.289380 0.821483
0.505547 0.288988 0.822295
0.626606 0.288632 0.823138
0.747603 0.288277 0.823978
0.863489 0.287963 0.824858
0.962937 0.287785 0.825870
0.025795 0.428206 0.818665
0.137953 0.427923 0.819587
0.257679 0.427578 0.820444
0.381615 0.427198 0.821262
0.505521 0.426819 0.822079
0.626518 0.426463 0.822916
0.747514 0.426108 0.823751
0.862976 0.425798 0.824629
0.961895 0.425624 0.825640
0.025389 0.563370 0.818540
0.137783 0.563055 0.819455
0.257760 0.562678 0.820304
0.381698 0.562268 0.821118
0.505511 0.561859 0.821931
0.626509 0.561473 0.822764
0.747507 0.561087 0.823593
0.862528 0.560750 0.824470
0.960919 0.560551 0.825481
0.025098 0.694742 0.818510
0.137727 0.694425 0.819417
0.257947 0.694045 0.820259
0.381885 0.693635 0.821068
0.505606 0.693227 0.821875
0.626603 0.692841 0.822703
0.747601 0.692455 0.823527
0.862225 0.692196 0.824357
0.960311 0.692271 0.825202
0.024835 0.825378 0.818490
0.137700 0.825031 0.819390
0.258157 0.824621 0.820225
0.382114 0.824205 0.821015
0.505972 0.824044 0.821651
0.627445 0.824202 0.822124
0.749167 0.824660 0.822412
0.864168 0.825401 0.822617
0.962457 0.826334 0.822924
0.025035 0.942245 0.818803
0.138412 0.942147 0.819496
0.259631 0.942296 0.819936
0.384372 0.942743 0.820148
0.508967 0.943502 0.820173
0.631252 0.944558 0.820048
0.753823 0.945912 0.819738
0.869051 0.947488 0.819389
0.967455 0.949120 0.819226
0.027781 0.978672 0.821201
0.141641 0.978346 0.821731
0.263338 0.978278 0.821999
0.388334 0.978510 0.822043
0.513082 0.979043 0.821906
0.635603 0.979860 0.821628
0.758425 0.980967 0.821169
0.873322 0.982263 0.820698
0.971355 0.983569 0.820441
0.019003 0.053804 0.952764
0.131934 0.051900 0.952267
0.252379 0.049920 0.951694
0.377615 0.047941 0.951111
0.502754 0.046070 0.950615
0.625013 0.044368 0.950259
0.746976 0.042793 0.950007
0.864215 0.041430 0.949934
0.964965 0.040449 0.950198
0.023474 0.167115 0.948573
0.136376 0.165572 0.948315
0.256787 0.163998 0.948017
0.381676 0.162476 0.947752
0.506429 0.161109 0.947614
0.628158 0.159968 0.947663
0.749581 0.159072 0.947912
0.865667 0.158632 0.948544
0.965294 0.158396 0.949365
0.026803 0.295378 0.944684
0.139520 0.294369 0.944812
0.259659 0.293456 0.945006
0.383765 0.292885 0.945474
0.507702 0.292505 0.946098
0.628699 0.292150 0.946745
0.749697 0.291795 0.947388
0.865302 0.291485 0.948073
0.964398 0.291310 0.948891
0.027624 0.431725 0.942865
0.139939 0.431441 0.943589
0.259833 0.431095 0.944247
0.383770 0.430716 0.944869
0.507615 0.430338 0.945489
0.628612 0.429983 0.946129
0.749609 0.429627 0.946767
0.864779 0.429320 0.947450
0.963346 0.429150 0.948267
0.027229 0.566708 0.942351
0.139781 0.566392 0.943067
0.259921 0.566014 0.943719
0.383859 0.565604 0.944336
0.507612 0.565196 0.944952
0.628610 0.564811 0.945588
0.749608 0.564426 0.946221
0.864327 0.564092 0.946903
0.962365 0.563896 0.947720
0.026944 0.698081 0.941927
0.139731 0.697763 0.942636
0.260110 0.697383 0.943280
0.384048 0.696973 0.943892
0.507707 0.696566 0.944503
0.628705 0.696180 0.945133
0.749709 0.695802 0.945756
0.864119 0.695665 0.946319
0.961942 0.695852 0.946904
0.026692 0.828543 0.941518
0.139715 0.828193 0.942220
0.260325 0.827780 0.942857
0.384353 0.827446 0.943399
0.508264 0.827422 0.943754
0.629849 0.827714 0.943948
0.751711 0.828305 0.943957
0.866461 0.829170 0.943893
0.964484 0.830207 0.943943
0.027014 0.945049 0.941376
0.140650 0.945071 0.941796
0.262127 0.945349 0.941958
0.386979 0.945929 0.941892
0.511622 0.946819 0.941640
0.634016 0.948003 0.941239
0.756711 0.949485 0.940652
0.871682 0.951176 0.940040
0.969813 0.952904 0.939625
0.029920 0.978517 0.943417
0.144018 0.978288 0.943688
0.265945 0.978325 0.943695
0.391031 0.978664 0.943477
0.515804 0.979303 0.943080
0.638410 0.980222 0.942542
0.761322 0.981433 0.941823
0.875940 0.982821 0.941105
0.973681 0.984202 0.940610
0.021421 0.056268 1.000000
0.134488 0.054398 1.000000
0.255089 0.052455 1.000000
0.380298 0.050517 1.000000
0.505410 0.048690 1.000000
0.627579 0.047032 1.000000
0.749510 0.045505 1.000000
0.866449 0.044195 1.000000
0.966812 0.043268 1.000000
0.025816 0.170066 1.000000
0.138849 0.168563 1.000000
0.259405 0.167032 1.000000
0.384259 0.165562 1.000000
0.508972 0.164252 1.000000
0.630592 0.163178 1.000000
0.751935 0.162385 1.000000
0.867693 0.162016 1.000000
0.966972 0.161790 0.999302
0.029023 0.298831 1.000000
0.141854 0.297881 1.000000
0.262097 0.297051 1.000000
0.386112 0.296594 1.000000
0.509991 0.296219 0.999343
0.630993 0.295869 0.998327
0.751995 0.295519 0.997311
0.867317 0.295215 0.996341
0.966065 0.295048 0.995509
0.029645 0.435432 0.999445
0.142121 0.435152 0.998499
0.262185 0.434809 0.997491
0.386126 0.434434 0.996450
0.509913 0.434061 0.995411
0.630915 0.433710 0.994395
0.751917 0.433360 0.993379
0.866792 0.433060 0.992414
0.965011 0.432898 0.991585
0.029269 0.570242 0.995602
0.141982 0.569930 0.994655
0.262287 0.569555 0.993646
0.386229 0.569150 0.992607
0.509924 0.568747 0.991569
0.630927 0.568366 0.990554
0.751930 0.567985 0.989539
0.866343 0.567659 0.988578
0.964033 0.567470 0.987755
0.028998 0.701624 0.991857
0.141946 0.701310 0.990908
0.262484 0.700933 0.989897
0.386427 0.700528 0.988857
0.510029 0.700126 0.987821
0.631032 0.699745 0.986805
0.752073 0.699393 0.985772
0.866204 0.699327 0.984660
0.963720 0.699572 0.983580
0.028766 0.831907 0.988142
0.141950 0.831558 0.987193
0.262715 0.831146 0.986180
0.386802 0.830881 0.985036
0.510712 0.830928 0.983708
0.632356 0.831286 0.982223
0.754293 0.831941 0.980558
0.868737 0.832861 0.978831
0.966442 0.833942 0.977230
0.029185 0.948021 0.984664
0.143032 0.948104 0.983401
0.264709 0.948445 0.981882
0.389616 0.949087 0.980139
0.514248 0.950036 0.978216
0.636690 0.951275 0.976149
0.759440 0.952809 0.973901
0.874093 0.954543 0.971641
0.971897 0.956301 0.969587
0.032190 0.978470 0.983503
0.146477 0.978277 0.982113
0.268576 0.978350 0.980461
0.393690 0.978723 0.978591
0.518428 0.979393 0.976548
0.641058 0.980341 0.974366
0.763990 0.981577 0.972009
0.878267 0.982981 0.969666
0.975660 0.984371 0.967553
