flutter_app/assets/lut/cameras/fqs_fuji_portra.cube
TITLE "FQS Fuji Superia + Kodak Portra"
# DAZZ Camera LUT - FQS
# Fuji Superia 400 + Kodak Portra 400 Color Science
# 2000s 35mm SLR: Canon EOS 300 / Nikon F80 style
# Soft green tone, natural skin, visible grain, low contrast
LUT_3D_SIZE 33
DOMAIN_MIN 0.0 0.0 0.0
DOMAIN_MAX 1.0 1.0 1.0
0.000000 0.003000 0.004400
0.013230 0.002805 0.004213
0.050319 0.002376 0.003801
0.087566 0.001945 0.003387
0.104869 0.001745 0.003195
0.122400 0.001542 0.003000
0.161964 0.001084 0.002560
0.202035 0.000620 0.002115
0.221075 0.000400 0.001903
0.230735 0.000288 0.001796
0.257316 0.000000 0.001501
0.295286 0.000000 0.001079
0.339082 0.000000 0.000592
0.383140 0.000000 0.000103
0.421896 0.000000 0.000000
0.449785 0.000000 0.000000
0.461246 0.000000 0.000000
0.473697 0.000000 0.000000
0.509525 0.000000 0.000000
0.561207 0.000000 0.000000
0.621115 0.000000 0.000000
0.681621 0.000000 0.000000
0.735098 0.000000 0.000000
0.773917 0.000000 0.000000
0.790452 0.000000 0.000000
0.797633 0.000000 0.000000
0.818930 0.000000 0.000000
0.849857 0.000000 0.000000
0.885709 0.000000 0.000000
0.921782 0.000000 0.000000
0.953373 0.000000 0.000000
0.975777 0.000000 0.000000
0.984290 0.000000 0.000000
0.000000 0.021656 0.004291
0.012777 0.021461 0.004104
0.049867 0.021032 0.003692
0.087252 0.020670 0.003278
0.105185 0.020785 0.003085
0.123353 0.020901 0.002891
0.164358 0.021163 0.002451
0.205887 0.021428 0.002006
0.225621 0.021555 0.001794
0.235632 0.021619 0.001687
0.263180 0.021795 0.001391
0.302533 0.022046 0.000970
0.347923 0.022337 0.000483
0.393584 0.022629 0.000000
0.433443 0.022731 0.000000
0.461333 0.022409 0.000000
0.472793 0.022276 0.000000
0.485244 0.022132 0.000000
0.521072 0.021717 0.000000
0.572754 0.021119 0.000000
0.632662 0.020426 0.000000
0.693169 0.019725 0.000000
0.746645 0.019107 0.000000
0.785465 0.018657 0.000000
0.801999 0.018466 0.000000
0.809181 0.018383 0.000000
0.830478 0.018136 0.000000
0.861404 0.017778 0.000000
0.897256 0.017363 0.000000
0.933330 0.016946 0.000000
0.964920 0.016580 0.000000
0.987324 0.016321 0.000000
0.995838 0.016222 0.000000
0.000000 0.062769 0.004050
0.011780 0.062575 0.003863
0.048869 0.062145 0.003451
0.086227 0.061770 0.003037
0.104160 0.061884 0.002844
0.122328 0.062001 0.002650
0.163333 0.062263 0.002210
0.204862 0.062528 0.001765
0.224596 0.062654 0.001553
0.234607 0.062718 0.001446
0.262156 0.062895 0.001151
0.301508 0.063146 0.000729
0.346898 0.063436 0.000242
0.392560 0.063728 0.000000
0.432446 0.063845 0.000000
0.460335 0.063522 0.000000
0.471796 0.063389 0.000000
0.484247 0.063245 0.000000
0.520075 0.062831 0.000000
0.571757 0.062232 0.000000
0.631665 0.061539 0.000000
0.692171 0.060839 0.000000
0.745648 0.060220 0.000000
0.784467 0.059771 0.000000
0.801002 0.059579 0.000000
0.808183 0.059496 0.000000
0.829480 0.059250 0.000000
0.860407 0.058892 0.000000
0.896259 0.058477 0.000000
0.932332 0.058059 0.000000
0.963923 0.057694 0.000000
0.986327 0.057434 0.000000
0.994840 0.057336 0.000000
0.000000 0.104058 0.003808
0.010778 0.103863 0.003621
0.047868 0.103434 0.003209
0.085115 0.103002 0.002795
0.102418 0.102802 0.002602
0.121299 0.103275 0.002408
0.162304 0.103537 0.001968
0.203833 0.103803 0.001523
0.223567 0.103929 0.001311
0.233578 0.103993 0.001204
0.261127 0.104169 0.000909
0.300479 0.104421 0.000487
0.345869 0.104711 0.000000
0.391531 0.105003 0.000000
0.431444 0.105133 0.000000
0.459334 0.104810 0.000000
0.470794 0.104678 0.000000
0.483245 0.104533 0.000000
0.519073 0.104119 0.000000
0.570755 0.103521 0.000000
0.630663 0.102827 0.000000
0.691170 0.102127 0.000000
0.744646 0.101508 0.000000
0.783466 0.101059 0.000000
0.800000 0.100867 0.000000
0.807181 0.100784 0.000000
0.828479 0.100538 0.000000
0.859405 0.100180 0.000000
0.895257 0.099765 0.000000
0.931331 0.099347 0.000000
0.962921 0.098982 0.000000
0.985325 0.098722 0.000000
0.993839 0.098624 0.000000
0.000000 0.123238 0.003695
0.010313 0.123043 0.003508
0.047402 0.122614 0.003096
0.084649 0.122183 0.002682
0.101952 0.121983 0.002490
0.119483 0.121780 0.002295
0.161826 0.122711 0.001856
0.203355 0.122977 0.001410
0.223089 0.123103 0.001199
0.233100 0.123167 0.001091
0.260649 0.123343 0.000796
0.300001 0.123595 0.000374
0.345391 0.123885 0.000000
0.391052 0.124177 0.000000
0.430979 0.124313 0.000000
0.458868 0.123991 0.000000
0.470329 0.123858 0.000000
0.482780 0.123714 0.000000
0.518608 0.123299 0.000000
0.570290 0.122701 0.000000
0.630198 0.122008 0.000000
0.690704 0.121307 0.000000
0.744181 0.120688 0.000000
0.783000 0.120239 0.000000
0.799535 0.120048 0.000000
0.806716 0.119965 0.000000
0.828013 0.119718 0.000000
0.858940 0.119360 0.000000
0.894792 0.118945 0.000000
0.930865 0.118528 0.000000
0.962456 0.118162 0.000000
0.984860 0.117903 0.000000
0.993373 0.117804 0.000000
0.000000 0.142670 0.003581
0.009842 0.142476 0.003394
0.046931 0.142046 0.002982
0.084178 0.141615 0.002568
0.101481 0.141415 0.002376
0.119011 0.141212 0.002181
0.161342 0.142137 0.001742
0.202871 0.142403 0.001296
0.222605 0.142529 0.001085
0.232616 0.142593 0.000978
0.260164 0.142769 0.000682
0.299517 0.143021 0.000260
0.344907 0.143311 0.000000
0.390568 0.143603 0.000000
0.430507 0.143746 0.000000
0.458397 0.143423 0.000000
0.469857 0.143290 0.000000
0.482308 0.143146 0.000000
0.518136 0.142732 0.000000
0.569818 0.142133 0.000000
0.629726 0.141440 0.000000
0.690233 0.140740 0.000000
0.743710 0.140121 0.000000
0.782529 0.139672 0.000000
0.799063 0.139480 0.000000
0.806245 0.139397 0.000000
0.827542 0.139151 0.000000
0.858468 0.138793 0.000000
0.894320 0.138378 0.000000
0.930394 0.137960 0.000000
0.961984 0.137595 0.000000
0.984389 0.137335 0.000000
0.992902 0.137237 0.000000
0.000000 0.186527 0.003324
0.008778 0.186333 0.003137
0.045867 0.185903 0.002725
0.083114 0.185472 0.002311
0.100417 0.185272 0.002119
0.117947 0.185069 0.001924
0.157512 0.184611 0.001485
0.201778 0.186245 0.001039
0.221512 0.186371 0.000828
0.231523 0.186435 0.000721
0.259071 0.186611 0.000425
0.298424 0.186863 0.000003
0.343814 0.187153 0.000000
0.389475 0.187445 0.000000
0.429443 0.187603 0.000000
0.457333 0.187280 0.000000
0.468793 0.187147 0.000000
0.481244 0.187003 0.000000
0.517072 0.186589 0.000000
0.568754 0.185990 0.000000
0.628662 0.185297 0.000000
0.689169 0.184597 0.000000
0.742646 0.183978 0.000000
0.781465 0.183528 0.000000
0.797999 0.183337 0.000000
0.805181 0.183254 0.000000
0.826478 0.183008 0.000000
0.857404 0.182650 0.000000
0.893256 0.182235 0.000000
0.929330 0.181817 0.000000
0.960920 0.181451 0.000000
0.983325 0.181192 0.000000
0.991838 0.181094 0.000000
0.000000 0.230946 0.003064
0.007700 0.230751 0.002877
0.044789 0.230322 0.002465
0.082036 0.229891 0.002051
0.099339 0.229691 0.001859
0.116870 0.229488 0.001664
0.156434 0.229030 0.001224
0.196505 0.228566 0.000779
0.215545 0.228346 0.000568
0.225205 0.228234 0.000460
0.257964 0.231015 0.000165
0.297317 0.231267 0.000000
0.342707 0.231557 0.000000
0.388368 0.231849 0.000000
0.428365 0.232021 0.000000
0.456255 0.231699 0.000000
0.467716 0.231566 0.000000
0.480167 0.231422 0.000000
0.515995 0.231007 0.000000
0.567677 0.230409 0.000000
0.627585 0.229716 0.000000
0.688091 0.229015 0.000000
0.741568 0.228396 0.000000
0.780387 0.227947 0.000000
0.796922 0.227756 0.000000
0.804103 0.227673 0.000000
0.825400 0.227426 0.000000
0.856327 0.227068 0.000000
0.892179 0.226653 0.000000
0.928252 0.226236 0.000000
0.959843 0.225870 0.000000
0.982247 0.225611 0.000000
0.990760 0.225512 0.000000
0.000000 0.252052 0.002940
0.007188 0.251858 0.002753
0.044277 0.251428 0.002341
0.081524 0.250997 0.001927
0.098827 0.250797 0.001735
0.116358 0.250594 0.001540
0.155922 0.250136 0.001101
0.195993 0.249672 0.000655
0.215033 0.249452 0.000444
0.224693 0.249340 0.000337
0.257438 0.252115 0.000041
0.296791 0.252366 0.000000
0.342181 0.252657 0.000000
0.387842 0.252948 0.000000
0.427853 0.253128 0.000000
0.455743 0.252805 0.000000
0.467204 0.252672 0.000000
0.479655 0.252528 0.000000
0.515483 0.252113 0.000000
0.567165 0.251515 0.000000
0.627073 0.250822 0.000000
0.687579 0.250122 0.000000
0.741056 0.249503 0.000000
0.779875 0.249053 0.000000
0.796410 0.248862 0.000000
0.803591 0.248779 0.000000
0.824888 0.248532 0.000000
0.855815 0.248175 0.000000
0.891667 0.247760 0.000000
0.927740 0.247342 0.000000
0.959331 0.246976 0.000000
0.981735 0.246717 0.000000
0.990248 0.246619 0.000000
0.000000 0.262760 0.002878
0.006928 0.262565 0.002691
0.044017 0.262136 0.002279
0.081264 0.261705 0.001865
0.098567 0.261505 0.001672
0.116098 0.261302 0.001478
0.155662 0.260844 0.001038
0.195733 0.260380 0.000593
0.214774 0.260160 0.000381
0.224433 0.260048 0.000274
0.251014 0.259740 0.000000
0.296524 0.263071 0.000000
0.341914 0.263361 0.000000
0.387575 0.263653 0.000000
0.427594 0.263836 0.000000
0.455484 0.263513 0.000000
0.466944 0.263380 0.000000
0.479395 0.263236 0.000000
0.515223 0.262821 0.000000
0.566905 0.262223 0.000000
0.626813 0.261530 0.000000
0.687319 0.260829 0.000000
0.740796 0.260211 0.000000
0.779616 0.259761 0.000000
0.796150 0.259570 0.000000
0.803331 0.259487 0.000000
0.824628 0.259240 0.000000
0.855555 0.258882 0.000000
0.891407 0.258467 0.000000
0.927480 0.258050 0.000000
0.959071 0.257684 0.000000
0.981475 0.257425 0.000000
0.989988 0.257326 0.000000
0.000000 0.292225 0.002705
0.006213 0.292030 0.002518
0.043303 0.291601 0.002106
0.080549 0.291170 0.001692
0.097853 0.290970 0.001500
0.115383 0.290767 0.001305
0.154947 0.290309 0.000865
0.195018 0.289845 0.000420
0.214059 0.289625 0.000208
0.223718 0.289513 0.000101
0.250299 0.289205 0.000000
0.288269 0.288766 0.000000
0.341179 0.292816 0.000000
0.386841 0.293108 0.000000
0.426879 0.293300 0.000000
0.454769 0.292977 0.000000
0.466229 0.292845 0.000000
0.478680 0.292701 0.000000
0.514508 0.292286 0.000000
0.566190 0.291688 0.000000
0.626098 0.290995 0.000000
0.686604 0.290294 0.000000
0.740081 0.289675 0.000000
0.778901 0.289226 0.000000
0.795435 0.289035 0.000000
0.802616 0.288952 0.000000
0.823914 0.288705 0.000000
0.854840 0.288347 0.000000
0.890692 0.287932 0.000000
0.926766 0.287515 0.000000
0.958356 0.287149 0.000000
0.980760 0.286890 0.000000
0.989274 0.286791 0.000000
0.000000 0.334315 0.002458
0.005192 0.334120 0.002271
0.042281 0.333691 0.001859
0.079528 0.333260 0.001445
0.096831 0.333059 0.001253
0.114362 0.332857 0.001058
0.153926 0.332399 0.000619
0.193997 0.331935 0.000173
0.213038 0.331715 0.000000
0.222697 0.331603 0.000000
0.249278 0.331295 0.000000
0.287248 0.330856 0.000000
0.340130 0.334892 0.000000
0.385792 0.335184 0.000000
0.425858 0.335390 0.000000
0.453748 0.335067 0.000000
0.465208 0.334935 0.000000
0.477659 0.334791 0.000000
0.513487 0.334376 0.000000
0.565169 0.333778 0.000000
0.625077 0.333084 0.000000
0.685583 0.332384 0.000000
0.739060 0.331765 0.000000
0.777880 0.331316 0.000000
0.794414 0.331125 0.000000
0.801595 0.331041 0.000000
0.822892 0.330795 0.000000
0.853819 0.330437 0.000000
0.889671 0.330022 0.000000
0.925744 0.329605 0.000000
0.957335 0.329239 0.000000
0.979739 0.328980 0.000000
0.988252 0.328881 0.000000
0.000000 0.382863 0.002174
0.004014 0.382668 0.001987
0.041104 0.382238 0.001575
0.078351 0.381807 0.001161
0.095654 0.381607 0.000968
0.113184 0.381404 0.000774
0.152748 0.380946 0.000334
0.192819 0.380483 0.000000
0.211860 0.380262 0.000000
0.221519 0.380150 0.000000
0.248100 0.379843 0.000000
0.286071 0.379403 0.000000
0.329866 0.378896 0.000000
0.373924 0.378386 0.000000
0.424680 0.383938 0.000000
0.452570 0.383615 0.000000
0.464030 0.383482 0.000000
0.476481 0.383338 0.000000
0.512309 0.382924 0.000000
0.563991 0.382326 0.000000
0.623899 0.381632 0.000000
0.684406 0.380932 0.000000
0.737882 0.380313 0.000000
0.776702 0.379864 0.000000
0.793236 0.379672 0.000000
0.800417 0.379589 0.000000
0.821715 0.379343 0.000000
0.852641 0.378985 0.000000
0.888493 0.378570 0.000000
0.924567 0.378152 0.000000
0.956157 0.377787 0.000000
0.978561 0.377495 0.000000
0.987075 0.377337 0.000000
0.000000 0.431700 0.001888
0.002830 0.431506 0.001701
0.039919 0.431076 0.001288
0.077166 0.430645 0.000875
0.094469 0.430445 0.000682
0.111999 0.430242 0.000487
0.151563 0.429784 0.000048
0.191634 0.429320 0.000000
0.210675 0.429100 0.000000
0.220335 0.428988 0.000000
0.246915 0.428681 0.000000
0.284886 0.428241 0.000000
0.328682 0.427734 0.000000
0.372739 0.427224 0.000000
0.411495 0.426776 0.000000
0.451385 0.432453 0.000000
0.462845 0.432320 0.000000
0.475296 0.432176 0.000000
0.511124 0.431762 0.000000
0.562806 0.431163 0.000000
0.622714 0.430470 0.000000
0.683221 0.429770 0.000000
0.736697 0.429151 0.000000
0.775517 0.428702 0.000000
0.792051 0.428510 0.000000
0.799233 0.428427 0.000000
0.820530 0.428181 0.000000
0.851456 0.427823 0.000000
0.887308 0.427326 0.000000
0.923382 0.426658 0.000000
0.954972 0.426073 0.000000
0.977376 0.425659 0.000000
0.985890 0.425501 0.000000
0.000000 0.474661 0.001636
0.001787 0.474466 0.001449
0.038877 0.474037 0.001037
0.076123 0.473606 0.000623
0.093426 0.473406 0.000430
0.110957 0.473203 0.000236
0.150521 0.472745 0.000000
0.190592 0.472281 0.000000
0.209633 0.472061 0.000000
0.219292 0.471949 0.000000
0.245873 0.471641 0.000000
0.283843 0.471202 0.000000
0.327639 0.470695 0.000000
0.371697 0.470185 0.000000
0.410453 0.469736 0.000000
0.438343 0.469414 0.000000
0.449803 0.469281 0.000000
0.462254 0.469137 0.000000
0.510082 0.474722 0.000000
0.561764 0.474124 0.000000
0.621672 0.473431 0.000000
0.682178 0.472730 0.000000
0.735655 0.472111 0.000000
0.774475 0.471662 0.000000
0.791009 0.471456 0.000000
0.798190 0.471324 0.000000
0.819488 0.470929 0.000000
0.850414 0.470357 0.000000
0.886266 0.469693 0.000000
0.922339 0.469026 0.000000
0.953930 0.468441 0.000000
0.976334 0.468027 0.000000
0.984848 0.467869 0.000000
0.000000 0.505577 0.001455
0.001037 0.505382 0.001268
0.038126 0.504953 0.000855
0.075373 0.504522 0.000442
0.092676 0.504322 0.000249
0.110207 0.504119 0.000055
0.149771 0.503661 0.000000
0.189842 0.503197 0.000000
0.208883 0.502977 0.000000
0.218542 0.502865 0.000000
0.245123 0.502557 0.000000
0.283093 0.502118 0.000000
0.326889 0.501611 0.000000
0.370947 0.501101 0.000000
0.409703 0.500652 0.000000
0.437593 0.500330 0.000000
0.449053 0.500197 0.000000
0.461504 0.500053 0.000000
0.497332 0.499638 0.000000
0.561014 0.505040 0.000000
0.620922 0.504347 0.000000
0.681428 0.503646 0.000000
0.734905 0.502970 0.000000
0.773725 0.502252 0.000000
0.790259 0.501946 0.000000
0.797440 0.501813 0.000000
0.818738 0.501419 0.000000
0.849664 0.500846 0.000000
0.885516 0.500183 0.000000
0.921589 0.499515 0.000000
0.953180 0.498931 0.000000
0.975584 0.498516 0.000000
0.984098 0.498358 0.000000
0.000000 0.518281 0.001380
0.000729 0.518086 0.001193
0.037818 0.517657 0.000781
0.075065 0.517226 0.000367
0.092368 0.517025 0.000175
0.109899 0.516822 0.000000
0.149463 0.516365 0.000000
0.189534 0.515901 0.000000
0.208574 0.515680 0.000000
0.218234 0.515569 0.000000
0.244815 0.515261 0.000000
0.282785 0.514821 0.000000
0.326581 0.514315 0.000000
0.370639 0.513805 0.000000
0.409395 0.513356 0.000000
0.437284 0.513033 0.000000
0.448745 0.512901 0.000000
0.461196 0.512757 0.000000
0.497024 0.512342 0.000000
0.560706 0.517744 0.000000
0.620614 0.517050 0.000000
0.681120 0.516350 0.000000
0.734597 0.515499 0.000000
0.773416 0.514780 0.000000
0.789951 0.514474 0.000000
0.797132 0.514341 0.000000
0.818429 0.513947 0.000000
0.849356 0.513375 0.000000
0.885208 0.512711 0.000000
0.921281 0.512044 0.000000
0.952872 0.511459 0.000000
0.975276 0.511044 0.000000
0.983789 0.510887 0.000000
0.000000 0.532083 0.001299
0.000394 0.531888 0.001112
0.037483 0.531458 0.000700
0.074730 0.531027 0.000286
0.092033 0.530827 0.000094
0.109564 0.530624 0.000000
0.149128 0.530166 0.000000
0.189199 0.529703 0.000000
0.208240 0.529482 0.000000
0.217899 0.529370 0.000000
0.244480 0.529063 0.000000
0.282450 0.528623 0.000000
0.326246 0.528116 0.000000
0.370304 0.527606 0.000000
0.409060 0.527158 0.000000
0.436950 0.526835 0.000000
0.448410 0.526702 0.000000
0.460861 0.526558 0.000000
0.496689 0.526144 0.000000
0.560371 0.531545 0.000000
0.620279 0.530852 0.000000
0.680785 0.530100 0.000000
0.734262 0.529110 0.000000
0.773082 0.528391 0.000000
0.789616 0.528085 0.000000
0.796797 0.527953 0.000000
0.818094 0.527558 0.000000
0.849021 0.526986 0.000000
0.884873 0.526323 0.000000
0.920946 0.525655 0.000000
0.952537 0.525070 0.000000
0.974941 0.524656 0.000000
0.983454 0.524498 0.000000
0.000000 0.571798 0.001066
0.000000 0.571603 0.000879
0.036520 0.571174 0.000467
0.073767 0.570743 0.000053
0.091070 0.570543 0.000000
0.108600 0.570340 0.000000
0.148165 0.569882 0.000000
0.188236 0.569418 0.000000
0.207276 0.569198 0.000000
0.216936 0.569086 0.000000
0.243517 0.568778 0.000000
0.281487 0.568339 0.000000
0.325283 0.567832 0.000000
0.369340 0.567322 0.000000
0.408096 0.566873 0.000000
0.435986 0.566551 0.000000
0.447446 0.566418 0.000000
0.459897 0.566274 0.000000
0.495725 0.565859 0.000000
0.547407 0.565261 0.000000
0.619315 0.570387 0.000000
0.679822 0.569267 0.000000
0.733299 0.568277 0.000000
0.772118 0.567559 0.000000
0.788652 0.567253 0.000000
0.795834 0.567120 0.000000
0.817131 0.566726 0.000000
0.848058 0.566153 0.000000
0.883910 0.565490 0.000000
0.919983 0.564822 0.000000
0.951574 0.564238 0.000000
0.973978 0.563823 0.000000
0.982491 0.563665 0.000000
0.000000 0.629087 0.000731
0.000000 0.628893 0.000544
0.035130 0.628463 0.000132
0.072377 0.628032 0.000000
0.089680 0.627832 0.000000
0.107210 0.627629 0.000000
0.146775 0.627171 0.000000
0.186846 0.626707 0.000000
0.205886 0.626487 0.000000
0.215546 0.626375 0.000000
0.242127 0.626068 0.000000
0.280097 0.625628 0.000000
0.323893 0.625121 0.000000
0.367951 0.624611 0.000000
0.406706 0.624163 0.000000
0.434596 0.623840 0.000000
0.446057 0.623707 0.000000
0.458507 0.623563 0.000000
0.494336 0.622951 0.000000
0.546018 0.621994 0.000000
0.605926 0.620886 0.000000
0.678432 0.625766 0.000000
0.731909 0.624776 0.000000
0.770728 0.624058 0.000000
0.787262 0.623752 0.000000
0.794444 0.623619 0.000000
0.815741 0.623225 0.000000
0.846668 0.622652 0.000000
0.882520 0.621989 0.000000
0.918593 0.621321 0.000000
0.950184 0.620736 0.000000
0.972588 0.620322 0.000000
0.981101 0.620164 0.000000
0.000000 0.695495 0.000342
0.000000 0.695301 0.000155
0.033519 0.694871 0.000000
0.070766 0.694440 0.000000
0.088069 0.694240 0.000000
0.105599 0.694037 0.000000
0.145164 0.693579 0.000000
0.185235 0.693115 0.000000
0.204275 0.692895 0.000000
0.213935 0.692783 0.000000
0.240516 0.692476 0.000000
0.278486 0.692036 0.000000
0.322282 0.691529 0.000000
0.366339 0.690781 0.000000
0.405095 0.690064 0.000000
0.432985 0.689548 0.000000
0.444445 0.689336 0.000000
0.456896 0.689105 0.000000
0.492724 0.688442 0.000000
0.544406 0.687486 0.000000
0.604315 0.686377 0.000000
0.664821 0.685257 0.000000
0.730298 0.690268 0.000000
0.769117 0.689549 0.000000
0.785651 0.689243 0.000000
0.792833 0.689110 0.000000
0.814130 0.688716 0.000000
0.845057 0.688144 0.000000
0.880909 0.687480 0.000000
0.916982 0.686813 0.000000
0.948573 0.686228 0.000000
0.970977 0.685813 0.000000
0.979490 0.685656 0.000000
0.000000 0.762567 0.000000
0.000000 0.762372 0.000000
0.031892 0.761942 0.000000
0.069139 0.761511 0.000000
0.086442 0.761311 0.000000
0.103972 0.761108 0.000000
0.143536 0.760650 0.000000
0.183607 0.760187 0.000000
0.202648 0.759926 0.000000
0.212308 0.759748 0.000000
0.238888 0.759256 0.000000
0.276859 0.758553 0.000000
0.320655 0.757742 0.000000
0.364712 0.756927 0.000000
0.403468 0.756210 0.000000
0.431358 0.755694 0.000000
0.442818 0.755481 0.000000
0.455269 0.755251 0.000000
0.491097 0.754588 0.000000
0.542779 0.753631 0.000000
0.602687 0.752523 0.000000
0.663194 0.751403 0.000000
0.716670 0.750413 0.000000
0.767490 0.755695 0.000000
0.784024 0.755389 0.000000
0.791206 0.755256 0.000000
0.812503 0.754862 0.000000
0.843429 0.754289 0.000000
0.879281 0.753626 0.000000
0.915355 0.752958 0.000000
0.946945 0.752374 0.000000
0.969349 0.751959 0.000000
0.977863 0.751801 0.000000
0.000000 0.821845 0.000000
0.000000 0.821651 0.000000
0.030454 0.821221 0.000000
0.067701 0.820790 0.000000
0.085004 0.820538 0.000000
0.102534 0.820213 0.000000
0.142098 0.819481 0.000000
0.182169 0.818740 0.000000
0.201210 0.818387 0.000000
0.210869 0.818208 0.000000
0.237450 0.817717 0.000000
0.275421 0.817014 0.000000
0.319216 0.816203 0.000000
0.363274 0.815388 0.000000
0.402030 0.814671 0.000000
0.429920 0.814154 0.000000
0.441380 0.813942 0.000000
0.453831 0.813712 0.000000
0.489659 0.813049 0.000000
0.541341 0.812092 0.000000
0.601249 0.810984 0.000000
0.661756 0.809864 0.000000
0.715232 0.808874 0.000000
0.754052 0.808156 0.000000
0.770586 0.807850 0.000000
0.777767 0.807717 0.000000
0.799065 0.807323 0.000000
0.841991 0.812750 0.000000
0.877843 0.812087 0.000000
0.913917 0.811419 0.000000
0.945507 0.810834 0.000000
0.967685 0.810239 0.000000
0.976051 0.809963 0.000000
0.000000 0.864877 0.000000
0.000000 0.864671 0.000000
0.029410 0.863985 0.000000
0.066657 0.863296 0.000000
0.083960 0.862975 0.000000
0.101490 0.862651 0.000000
0.141054 0.861919 0.000000
0.181125 0.861177 0.000000
0.200166 0.860825 0.000000
0.209826 0.860646 0.000000
0.236406 0.860154 0.000000
0.274377 0.859451 0.000000
0.318172 0.858641 0.000000
0.362230 0.857825 0.000000
0.400986 0.857108 0.000000
0.428876 0.856592 0.000000
0.440336 0.856380 0.000000
0.452787 0.856149 0.000000
0.488615 0.855486 0.000000
0.540297 0.854530 0.000000
0.600205 0.853421 0.000000
0.660712 0.852301 0.000000
0.714188 0.851312 0.000000
0.753008 0.850593 0.000000
0.769542 0.850287 0.000000
0.776723 0.850154 0.000000
0.798021 0.849760 0.000000
0.828947 0.849188 0.000000
0.876650 0.854405 0.000000
0.912098 0.853237 0.000000
0.943141 0.852214 0.000000
0.965157 0.851489 0.000000
0.973522 0.851213 0.000000
0.000000 0.883058 0.000000
0.000000 0.882747 0.000000
0.028965 0.882060 0.000000
0.066212 0.881371 0.000000
0.083515 0.881051 0.000000
0.101045 0.880726 0.000000
0.140610 0.879994 0.000000
0.180681 0.879252 0.000000
0.199721 0.878900 0.000000
0.209381 0.878721 0.000000
0.235962 0.878229 0.000000
0.273932 0.877527 0.000000
0.317728 0.876716 0.000000
0.361786 0.875901 0.000000
0.400541 0.875183 0.000000
0.428431 0.874667 0.000000
0.439891 0.874455 0.000000
0.452342 0.874225 0.000000
0.488170 0.873562 0.000000
0.539852 0.872605 0.000000
0.599761 0.871496 0.000000
0.660267 0.870377 0.000000
0.713744 0.869387 0.000000
0.752563 0.868668 0.000000
0.769097 0.868362 0.000000
0.776279 0.868229 0.000000
0.797576 0.867835 0.000000
0.828342 0.867135 0.000000
0.863573 0.865974 0.000000
0.911021 0.870806 0.000000
0.942064 0.869783 0.000000
0.964080 0.869058 0.000000
0.972445 0.868783 0.000000
0.000000 0.890909 0.000000
0.000000 0.890597 0.000000
0.028772 0.889911 0.000000
0.066019 0.889222 0.000000
0.083322 0.888901 0.000000
0.100852 0.888577 0.000000
0.140417 0.887845 0.000000
0.180488 0.887103 0.000000
0.199528 0.886751 0.000000
0.209188 0.886572 0.000000
0.235769 0.886080 0.000000
0.273739 0.885377 0.000000
0.317535 0.884567 0.000000
0.361592 0.883751 0.000000
0.400348 0.883034 0.000000
0.428238 0.882518 0.000000
0.439698 0.882306 0.000000
0.452149 0.882075 0.000000
0.487977 0.881412 0.000000
0.539659 0.880456 0.000000
0.599567 0.879347 0.000000
0.660074 0.878227 0.000000
0.713551 0.877238 0.000000
0.752370 0.876519 0.000000
0.768904 0.876213 0.000000
0.776086 0.876080 0.000000
0.797383 0.875686 0.000000
0.827874 0.874766 0.000000
0.863105 0.873605 0.000000
0.910553 0.878437 0.000000
0.941596 0.877414 0.000000
0.963612 0.876689 0.000000
0.971978 0.876414 0.000000
0.000000 0.914191 0.000000
0.000000 0.913879 0.000000
0.028199 0.913193 0.000000
0.065446 0.912504 0.000000
0.082749 0.912183 0.000000
0.100280 0.911859 0.000000
0.139844 0.911127 0.000000
0.179915 0.910385 0.000000
0.198955 0.910033 0.000000
0.208615 0.909854 0.000000
0.235196 0.909362 0.000000
0.273166 0.908659 0.000000
0.316962 0.907849 0.000000
0.361020 0.907033 0.000000
0.399775 0.906316 0.000000
0.427665 0.905800 0.000000
0.439126 0.905588 0.000000
0.451576 0.905358 0.000000
0.487405 0.904694 0.000000
0.539087 0.903738 0.000000
