flutter_app/assets/lut/cameras/fxn_r.cube
TITLE "FXN R"
# DAZZ Camera LUT - FXN R
# Generated for DAZZ retro camera app
LUT_3D_SIZE 5
DOMAIN_MIN 0.0 0.0 0.0
DOMAIN_MAX 1.0 1.0 1.0
0.000000 0.004233 0.000000
0.268057 0.000000 0.000000
0.541391 0.000000 0.000000
0.811126 0.000000 0.000000
1.000000 0.000000 0.000000
0.000000 0.272680 0.000000
0.253040 0.268321 0.000000
0.526373 0.263948 0.000000
0.796109 0.259632 0.000000
1.000000 0.255567 0.000000
0.000000 0.564993 0.000000
0.236688 0.560635 0.000000
0.510021 0.556262 0.000000
0.779757 0.551946 0.000000
1.000000 0.547881 0.000000
0.000000 0.856011 0.000000
0.220408 0.851653 0.000000
0.493741 0.847279 0.000000
0.763477 0.842963 0.000000
1.000000 0.838898 0.000000
0.000000 1.000000 0.000000
0.208492 1.000000 0.000000
0.481826 1.000000 0.000000
0.751561 1.000000 0.000000
1.000000 1.000000 0.000000
0.000000 0.002747 0.263940
0.266571 0.000000 0.259582
0.539904 0.000000 0.255208
0.809639 0.000000 0.250892
1.000000 0.000000 0.246827
0.000000 0.271193 0.248923
0.251553 0.266835 0.244564
0.524887 0.262461 0.240191
0.794622 0.258146 0.235875
1.000000 0.254080 0.231810
0.000000 0.563507 0.232570
0.235201 0.559148 0.228212
0.508534 0.554775 0.223839
0.778270 0.550459 0.219523
1.000000 0.546394 0.215457
0.000000 0.854524 0.216290
0.218921 0.850166 0.211932
0.492254 0.845792 0.207559
0.761990 0.841477 0.203243
1.000000 0.837411 0.199177
0.000000 1.000000 0.204375
0.207006 1.000000 0.200016
0.480339 1.000000 0.195643
0.750074 1.000000 0.191327
1.000000 1.000000 0.187262
0.000000 0.001294 0.534091
0.265118 0.000000 0.529732
0.538451 0.000000 0.525359
0.808187 0.000000 0.521043
1.000000 0.000000 0.516978
0.000000 0.269741 0.519073
0.250101 0.265382 0.514715
0.523434 0.261009 0.510342
0.793170 0.256693 0.506026
1.000000 0.252628 0.501960
0.000000 0.562054 0.502721
0.233748 0.557696 0.498363
0.507082 0.553322 0.493989
0.776817 0.549007 0.489673
1.000000 0.544941 0.485608
0.000000 0.853072 0.486441
0.217468 0.848713 0.482083
0.490802 0.844340 0.477709
0.760537 0.840024 0.473393
1.000000 0.835959 0.469328
0.000000 1.000000 0.474526
0.205553 1.000000 0.470167
0.478886 1.000000 0.465794
0.748622 1.000000 0.461478
1.000000 1.000000 0.457413
0.000000 0.000000 0.800016
0.263688 0.000000 0.795657
0.537022 0.000000 0.791284
0.806757 0.000000 0.786968
1.000000 0.000000 0.782903
0.000000 0.268311 0.784998
0.248671 0.263952 0.780640
0.522004 0.259579 0.776267
0.791740 0.255263 0.771951
1.000000 0.251198 0.767886
0.000000 0.560624 0.768646
0.232319 0.556266 0.764288
0.505652 0.551893 0.759914
0.775387 0.547577 0.755598
1.000000 0.543511 0.751533
0.000000 0.851642 0.752366
0.216039 0.847283 0.748008
0.489372 0.842910 0.743634
0.759107 0.838594 0.739319
1.000000 0.834529 0.735253
0.000000 1.000000 0.740451
0.204123 1.000000 0.736092
0.477456 1.000000 0.731719
0.747192 1.000000 0.727403
1.000000 1.000000 0.723338
0.000000 0.000000 1.000000
0.262367 0.000000 1.000000
0.535701 0.000000 1.000000
0.805436 0.000000 1.000000
1.000000 0.000000 1.000000
0.000000 0.266990 1.000000
0.247350 0.262631 1.000000
0.520683 0.258258 1.000000
0.790419 0.253942 1.000000
1.000000 0.249877 1.000000
0.000000 0.559303 1.000000
0.230998 0.554945 1.000000
0.504331 0.550571 1.000000
0.774066 0.546256 1.000000
1.000000 0.542190 0.997219
0.000000 0.850321 0.998052
0.214718 0.845962 0.993694
0.488051 0.841589 0.989321
0.757786 0.837273 0.985005
1.000000 0.833208 0.980939
0.000000 1.000000 0.986137
0.202802 1.000000 0.981778
0.476135 1.000000 0.977405
0.745871 1.000000 0.973089
0.999955 1.000000 0.969024
