flutter_app/assets/lut/cameras/fxn_r.cube
TITLE "FXN R"
# DAZZ Camera LUT - FXN R
# Generated for DAZZ retro camera app
LUT_3D_SIZE 9
DOMAIN_MIN 0.0 0.0 0.0
DOMAIN_MAX 1.0 1.0 1.0
0.000000 0.004233 0.000000
0.134670 0.002009 0.000000
0.268057 0.000000 0.000000
0.403252 0.000000 0.000000
0.541391 0.000000 0.000000
0.678861 0.000000 0.000000
0.811126 0.000000 0.000000
0.937384 0.000000 0.000000
1.000000 0.000000 0.000000
0.000000 0.136287 0.000000
0.127283 0.134062 0.000000
0.260670 0.131928 0.000000
0.395865 0.129765 0.000000
0.534004 0.127555 0.000000
0.671474 0.125355 0.000000
0.803739 0.123239 0.000000
0.929997 0.121219 0.000000
1.000000 0.119174 0.000000
0.000000 0.272680 0.000000
0.119653 0.270456 0.000000
0.253040 0.268321 0.000000
0.388235 0.266158 0.000000
0.526373 0.263948 0.000000
0.663844 0.261749 0.000000
0.796109 0.259632 0.000000
0.922367 0.257612 0.000000
1.000000 0.255567 0.000000
0.000000 0.416351 0.000000
0.111615 0.414127 0.000000
0.245003 0.411993 0.000000
0.380197 0.409830 0.000000
0.518336 0.407619 0.000000
0.655807 0.405420 0.000000
0.788072 0.403303 0.000000
0.914330 0.401283 0.000000
1.000000 0.399238 0.000000
0.000000 0.564993 0.000000
0.103300 0.562769 0.000000
0.236688 0.560635 0.000000
0.371882 0.558472 0.000000
0.510021 0.556262 0.000000
0.647491 0.554062 0.000000
0.779757 0.551946 0.000000
0.906014 0.549926 0.000000
1.000000 0.547881 0.000000
0.000000 0.715179 0.000000
0.094899 0.712955 0.000000
0.228286 0.710820 0.000000
0.363481 0.708657 0.000000
0.501619 0.706447 0.000000
0.639090 0.704247 0.000000
0.771355 0.702131 0.000000
0.897613 0.700111 0.000000
1.000000 0.698066 0.000000
0.000000 0.856011 0.000000
0.087020 0.853787 0.000000
0.220408 0.851653 0.000000
0.355602 0.849489 0.000000
0.493741 0.847279 0.000000
0.631211 0.845080 0.000000
0.763477 0.842963 0.000000
0.889734 0.840943 0.000000
1.000000 0.838898 0.000000
0.000000 0.997053 0.000000
0.079130 0.994829 0.000000
0.212518 0.992695 0.000000
0.347712 0.990532 0.000000
0.485851 0.988321 0.000000
0.623321 0.986122 0.000000
0.755586 0.984006 0.000000
0.881844 0.981985 0.000000
1.000000 0.979940 0.000000
0.000000 1.000000 0.000000
0.075105 1.000000 0.000000
0.208492 1.000000 0.000000
0.343687 1.000000 0.000000
0.481826 1.000000 0.000000
0.619296 1.000000 0.000000
0.751561 1.000000 0.000000
0.877819 1.000000 0.000000
1.000000 1.000000 0.000000
0.000000 0.003466 0.130224
0.133902 0.001241 0.128000
0.267290 0.000000 0.125866
0.402484 0.000000 0.123703
0.540623 0.000000 0.121492
0.678093 0.000000 0.119293
0.810358 0.000000 0.117177
0.936616 0.000000 0.115156
1.000000 0.000000 0.113111
0.000000 0.135519 0.122837
0.126515 0.133295 0.120613
0.259902 0.131160 0.118479
0.395097 0.128997 0.116315
0.533236 0.126787 0.114105
0.670706 0.124587 0.111906
0.802971 0.122471 0.109789
0.929229 0.120451 0.107769
1.000000 0.118406 0.105724
0.000000 0.271912 0.115207
0.118885 0.269688 0.112983
0.252272 0.267554 0.110849
0.387467 0.265391 0.108685
0.525606 0.263180 0.106475
0.663076 0.260981 0.104276
0.795341 0.258864 0.102159
0.921599 0.256844 0.100139
1.000000 0.254799 0.098094
0.000000 0.415583 0.107170
0.110848 0.413359 0.104946
0.244235 0.411225 0.102811
0.379430 0.409062 0.100648
0.517569 0.406852 0.098438
0.655039 0.404652 0.096238
0.787304 0.402536 0.094122
0.913562 0.400516 0.092102
1.000000 0.398470 0.090057
0.000000 0.564226 0.098855
0.102532 0.562002 0.096630
0.235920 0.559867 0.094496
0.371114 0.557704 0.092333
0.509253 0.555494 0.090123
0.646724 0.553294 0.087923
0.778989 0.551178 0.085807
0.905247 0.549158 0.083787
1.000000 0.547113 0.081742
0.000000 0.714411 0.090453
0.094131 0.712187 0.088229
0.227518 0.710053 0.086094
0.362713 0.707890 0.083931
0.500852 0.705679 0.081721
0.638322 0.703480 0.079522
0.770587 0.701363 0.077405
0.896845 0.699343 0.075385
1.000000 0.697298 0.073340
0.000000 0.855243 0.082575
0.086252 0.853019 0.080350
0.219640 0.850885 0.078216
0.354834 0.848722 0.076053
0.492973 0.846511 0.073843
0.630444 0.844312 0.071643
0.762709 0.842196 0.069527
0.888967 0.840175 0.067507
1.000000 0.838130 0.065462
0.000000 0.996285 0.074684
0.078362 0.994061 0.072460
0.211750 0.991927 0.070326
0.346944 0.989764 0.068163
0.485083 0.987554 0.065953
0.622554 0.985354 0.063753
0.754819 0.983238 0.061637
0.881077 0.981218 0.059617
1.000000 0.979172 0.057571
0.000000 1.000000 0.070659
0.074337 1.000000 0.068435
0.207725 1.000000 0.066301
0.342919 1.000000 0.064138
0.481058 1.000000 0.061927
0.618528 1.000000 0.059728
0.750793 1.000000 0.057611
0.877051 1.000000 0.055591
1.000000 1.000000 0.053546
0.000000 0.002747 0.263940
0.133183 0.000522 0.261716
0.266571 0.000000 0.259582
0.401765 0.000000 0.257419
0.539904 0.000000 0.255208
0.677374 0.000000 0.253009
0.809639 0.000000 0.250892
0.935897 0.000000 0.248872
1.000000 0.000000 0.246827
0.000000 0.134800 0.256553
0.125796 0.132576 0.254329
0.259183 0.130441 0.252194
0.394378 0.128278 0.250031
0.532517 0.126068 0.247821
0.669987 0.123869 0.245621
0.802252 0.121752 0.243505
0.928510 0.119732 0.241485
1.000000 0.117687 0.239440
0.000000 0.271193 0.248923
0.118166 0.268969 0.246699
0.251553 0.266835 0.244564
0.386748 0.264672 0.242401
0.524887 0.262461 0.240191
0.662357 0.260262 0.237991
0.794622 0.258146 0.235875
0.920880 0.256125 0.233855
1.000000 0.254080 0.231810
0.000000 0.414864 0.240886
0.110129 0.412640 0.238661
0.243516 0.410506 0.236527
0.378711 0.408343 0.234364
0.516850 0.406133 0.232154
0.654320 0.403933 0.229954
0.786585 0.401817 0.227838
0.912843 0.399797 0.225818
1.000000 0.397751 0.223773
0.000000 0.563507 0.232570
0.101813 0.561283 0.230346
0.235201 0.559148 0.228212
0.370395 0.556985 0.226049
0.508534 0.554775 0.223839
0.646005 0.552575 0.221639
0.778270 0.550459 0.219523
0.904528 0.548439 0.217503
1.000000 0.546394 0.215457
0.000000 0.713692 0.224169
0.093412 0.711468 0.221945
0.226799 0.709334 0.219810
0.361994 0.707171 0.217647
0.500133 0.704960 0.215437
0.637603 0.702761 0.213237
0.769868 0.700644 0.211121
0.896126 0.698624 0.209101
1.000000 0.696579 0.207056
0.000000 0.854524 0.216290
0.085533 0.852300 0.214066
0.218921 0.850166 0.211932
0.354115 0.848003 0.209769
0.492254 0.845792 0.207559
0.629725 0.843593 0.205359
0.761990 0.841477 0.203243
0.888248 0.839456 0.201223
1.000000 0.837411 0.199177
0.000000 0.995566 0.208400
0.077643 0.993342 0.206176
0.211031 0.991208 0.204042
0.346225 0.989045 0.201879
0.484364 0.986835 0.199669
0.621835 0.984635 0.197469
0.754100 0.982519 0.195353
0.880358 0.980499 0.193333
1.000000 0.978454 0.191287
0.000000 1.000000 0.204375
0.073618 1.000000 0.202151
0.207006 1.000000 0.200016
0.342200 1.000000 0.197853
0.480339 1.000000 0.195643
0.617809 1.000000 0.193444
0.750074 1.000000 0.191327
0.876332 1.000000 0.189307
1.000000 1.000000 0.187262
0.000000 0.002027 0.397762
0.132464 0.000000 0.395538
0.265851 0.000000 0.393404
0.401046 0.000000 0.391241
0.539184 0.000000 0.389030
0.676655 0.000000 0.386831
0.808920 0.000000 0.384715
0.935178 0.000000 0.382695
1.000000 0.000000 0.380649
0.000000 0.134080 0.390375
0.125076 0.131856 0.388151
0.258464 0.129722 0.386017
0.393658 0.127559 0.383853
0.531797 0.125349 0.381643
0.669268 0.123149 0.379444
0.801533 0.121033 0.377327
0.927790 0.119013 0.375307
1.000000 0.116967 0.373262
0.000000 0.270474 0.382745
0.117446 0.268249 0.380521
0.250834 0.266115 0.378387
0.386028 0.263952 0.376223
0.524167 0.261742 0.374013
0.661638 0.259542 0.371814
0.793903 0.257426 0.369697
0.920160 0.255406 0.367677
1.000000 0.253361 0.365632
0.000000 0.414145 0.374708
0.109409 0.411921 0.372484
0.242797 0.409786 0.370349
0.377991 0.407623 0.368186
0.516130 0.405413 0.365976
0.653600 0.403213 0.363776
0.785865 0.401097 0.361660
0.912123 0.399077 0.359640
1.000000 0.397032 0.357595
0.000000 0.562787 0.366393
0.101094 0.560563 0.364168
0.234481 0.558429 0.362034
0.369676 0.556266 0.359871
0.507815 0.554055 0.357661
0.645285 0.551856 0.355461
0.777550 0.549740 0.353345
0.903808 0.547719 0.351325
1.000000 0.545674 0.349280
0.000000 0.712973 0.357991
0.092692 0.710748 0.355767
0.226080 0.708614 0.353633
0.361274 0.706451 0.351469
0.499413 0.704241 0.349259
0.636884 0.702041 0.347060
0.769149 0.699925 0.344943
0.895406 0.697905 0.342923
1.000000 0.695860 0.340878
0.000000 0.853805 0.350113
0.084814 0.851580 0.347888
0.218201 0.849446 0.345754
0.353396 0.847283 0.343591
0.491535 0.845073 0.341381
0.629005 0.842873 0.339181
0.761270 0.840757 0.337065
0.887528 0.838737 0.335045
1.000000 0.836692 0.333000
0.000000 0.994847 0.342222
0.076924 0.992623 0.339998
0.210311 0.990489 0.337864
0.345506 0.988325 0.335701
0.483645 0.986115 0.333491
0.621115 0.983916 0.331291
0.753380 0.981799 0.329175
0.879638 0.979779 0.327155
1.000000 0.977734 0.325110
0.000000 1.000000 0.338197
0.072898 1.000000 0.335973
0.206286 1.000000 0.333839
0.341480 1.000000 0.331676
0.479619 1.000000 0.329465
0.617090 1.000000 0.327266
0.749355 1.000000 0.325149
0.875613 1.000000 0.323129
1.000000 1.000000 0.321084
0.000000 0.001294 0.534091
0.131731 0.000000 0.531866
0.265118 0.000000 0.529732
0.400313 0.000000 0.527569
0.538451 0.000000 0.525359
0.675922 0.000000 0.523159
0.808187 0.000000 0.521043
0.934445 0.000000 0.519023
1.000000 0.000000 0.516978
0.000000 0.133347 0.526703
0.124343 0.131123 0.524479
0.257731 0.128989 0.522345
0.392925 0.126826 0.520182
0.531064 0.124615 0.517972
0.668535 0.122416 0.515772
0.800800 0.120300 0.513656
0.927057 0.118280 0.511636
1.000000 0.116234 0.509590
0.000000 0.269741 0.519073
0.116713 0.267516 0.516849
0.250101 0.265382 0.514715
0.385295 0.263219 0.512552
0.523434 0.261009 0.510342
0.660905 0.258809 0.508142
0.793170 0.256693 0.506026
0.919427 0.254673 0.504006
1.000000 0.252628 0.501960
0.000000 0.413412 0.511036
0.108676 0.411188 0.508812
0.242064 0.409053 0.506678
0.377258 0.406890 0.504515
0.515397 0.404680 0.502304
0.652867 0.402480 0.500105
0.785132 0.400364 0.497989
0.911390 0.398344 0.495968
1.000000 0.396299 0.493923
0.000000 0.562054 0.502721
0.100361 0.559830 0.500497
0.233748 0.557696 0.498363
0.368943 0.555533 0.496199
0.507082 0.553322 0.493989
0.644552 0.551123 0.491790
0.776817 0.549007 0.489673
0.903075 0.546986 0.487653
1.000000 0.544941 0.485608
0.000000 0.712240 0.494319
0.091959 0.710015 0.492095
0.225347 0.707881 0.489961
0.360541 0.705718 0.487798
0.498680 0.703508 0.485588
0.636150 0.701308 0.483388
0.768416 0.699192 0.481272
0.894673 0.697172 0.479252
1.000000 0.695127 0.477206
0.000000 0.853072 0.486441
0.084081 0.850847 0.484217
0.217468 0.848713 0.482083
0.352663 0.846550 0.479919
0.490802 0.844340 0.477709
0.628272 0.842140 0.475510
0.760537 0.840024 0.473393
0.886795 0.838004 0.471373
1.000000 0.835959 0.469328
0.000000 0.994114 0.478551
0.076191 0.991890 0.476327
0.209578 0.989755 0.474192
0.344773 0.987592 0.472029
0.482912 0.985382 0.469819
0.620382 0.983183 0.467620
0.752647 0.981066 0.465503
0.878905 0.979046 0.463483
1.000000 0.977001 0.461438
0.000000 1.000000 0.474526
0.072165 1.000000 0.472301
0.205553 1.000000 0.470167
0.340747 1.000000 0.468004
0.478886 1.000000 0.465794
0.616357 1.000000 0.463594
0.748622 1.000000 0.461478
0.874880 1.000000 0.459458
1.000000 1.000000 0.457413
0.000000 0.000568 0.669128
0.131004 0.000000 0.666904
0.264392 0.000000 0.664770
0.399586 0.000000 0.662607
0.537725 0.000000 0.660397
0.675196 0.000000 0.658197
0.807461 0.000000 0.656081
0.933719 0.000000 0.654061
1.000000 0.000000 0.652015
0.000000 0.132621 0.661741
0.123617 0.130397 0.659517
0.257005 0.128263 0.657383
0.392199 0.126100 0.655220
0.530338 0.123889 0.653009
0.667808 0.121690 0.650810
0.800074 0.119574 0.648693
0.926331 0.117553 0.646673
1.000000 0.115508 0.644628
0.000000 0.269014 0.654111
0.115987 0.266790 0.651887
0.249375 0.264656 0.649753
0.384569 0.262493 0.647590
0.522708 0.260283 0.645379
0.660178 0.258083 0.643180
0.792444 0.255967 0.641063
0.918701 0.253947 0.639043
1.000000 0.251901 0.636998
0.000000 0.412686 0.646074
0.107950 0.410461 0.643850
0.241338 0.408327 0.641715
0.376532 0.406164 0.639552
0.514671 0.403954 0.637342
0.652141 0.401754 0.635143
0.784406 0.399638 0.633026
0.910664 0.397618 0.631006
1.000000 0.395573 0.628961
0.000000 0.561328 0.637759
0.099635 0.559104 0.635534
0.233022 0.556970 0.633400
0.368217 0.554807 0.631237
0.506356 0.552596 0.629027
0.643826 0.550397 0.626827
0.776091 0.548280 0.624711
0.902349 0.546260 0.622691
1.000000 0.544215 0.620646
0.000000 0.711513 0.629357
0.091233 0.709289 0.627133
0.224621 0.707155 0.624999
0.359815 0.704992 0.622835
0.497954 0.702782 0.620625
0.635424 0.700582 0.618426
0.767690 0.698466 0.616309
0.893947 0.696446 0.614289
1.000000 0.694400 0.612244
0.000000 0.852346 0.621479
0.083355 0.850121 0.619254
0.216742 0.847987 0.617120
0.351937 0.845824 0.614957
0.490076 0.843614 0.612747
0.627546 0.841414 0.610547
0.759811 0.839298 0.608431
0.886069 0.837278 0.606411
1.000000 0.835233 0.604366
0.000000 0.993388 0.613589
0.075465 0.991164 0.611364
0.208852 0.989029 0.609230
0.344047 0.986866 0.607067
0.482186 0.984656 0.604857
0.619656 0.982456 0.602657
0.751921 0.980340 0.600541
0.878179 0.978320 0.598521
1.000000 0.976275 0.596476
0.000000 1.000000 0.609563
0.071439 1.000000 0.607339
0.204827 1.000000 0.605205
0.340021 1.000000 0.603042
0.478160 1.000000 0.600831
0.615631 1.000000 0.598632
0.747896 1.000000 0.596516
0.874153 1.000000 0.594495
1.000000 1.000000 0.592450
0.000000 0.000000 0.800016
0.130301 0.000000 0.797792
0.263688 0.000000 0.795657
0.398883 0.000000 0.793494
0.537022 0.000000 0.791284
0.674492 0.000000 0.789084
0.806757 0.000000 0.786968
0.933015 0.000000 0.784948
1.000000 0.000000 0.782903
0.000000 0.131917 0.792629
0.122913 0.129693 0.790404
0.256301 0.127559 0.788270
0.391495 0.125396 0.786107
0.529634 0.123186 0.783897
0.667105 0.120986 0.781697
0.799370 0.118870 0.779581
0.925628 0.116850 0.777561
1.000000 0.114804 0.775516
0.000000 0.268311 0.784998
0.115283 0.266086 0.782774
0.248671 0.263952 0.780640
0.383865 0.261789 0.778477
0.522004 0.259579 0.776267
0.659475 0.257379 0.774067
0.791740 0.255263 0.771951
0.917998 0.253243 0.769931
1.000000 0.251198 0.767886
0.000000 0.411982 0.776961
0.107246 0.409758 0.774737
0.240634 0.407624 0.772603
0.375828 0.405460 0.770440
0.513967 0.403250 0.768230
0.651437 0.401051 0.766030
0.783703 0.398934 0.763914
0.909960 0.396914 0.761894
1.000000 0.394869 0.759848
0.000000 0.560624 0.768646
0.098931 0.558400 0.766422
0.232319 0.556266 0.764288
0.367513 0.554103 0.762124
0.505652 0.551893 0.759914
0.643122 0.549693 0.757715
0.775387 0.547577 0.755598
0.901645 0.545557 0.753578
1.000000 0.543511 0.751533
0.000000 0.710810 0.760244
0.090529 0.708585 0.758020
0.223917 0.706451 0.755886
0.359111 0.704288 0.753723
0.497250 0.702078 0.751513
0.634721 0.699878 0.749313
0.766986 0.697762 0.747197
0.893244 0.695742 0.745177
1.000000 0.693697 0.743131
0.000000 0.851642 0.752366
0.082651 0.849418 0.750142
0.216039 0.847283 0.748008
0.351233 0.845120 0.745845
0.489372 0.842910 0.743634
0.626842 0.840710 0.741435
0.759107 0.838594 0.739319
0.885365 0.836574 0.737298
1.000000 0.834529 0.735253
0.000000 0.992684 0.744476
0.074761 0.990460 0.742252
0.208148 0.988326 0.740118
0.343343 0.986162 0.737954
0.481482 0.983952 0.735744
0.618952 0.981753 0.733545
0.751217 0.979636 0.731428
0.877475 0.977616 0.729408
1.000000 0.975571 0.727363
0.000000 1.000000 0.740451
0.070736 1.000000 0.738226
0.204123 1.000000 0.736092
0.339318 1.000000 0.733929
0.477456 1.000000 0.731719
0.614927 1.000000 0.729519
0.747192 1.000000 0.727403
0.873450 1.000000 0.725383
1.000000 1.000000 0.723338
0.000000 0.000000 0.923193
0.129638 0.000000 0.920969
0.263026 0.000000 0.918835
0.398220 0.000000 0.916672
0.536359 0.000000 0.914462
0.673830 0.000000 0.912262
0.806095 0.000000 0.910146
0.932353 0.000000 0.908126
1.000000 0.000000 0.906081
0.000000 0.131255 0.915806
0.122251 0.129031 0.913582
0.255639 0.126897 0.911448
0.390833 0.124734 0.909285
0.528972 0.122523 0.907074
0.666442 0.120324 0.904875
0.798707 0.118208 0.902759
0.924965 0.116187 0.900739
1.000000 0.114142 0.898693
0.000000 0.267648 0.908176
0.114621 0.265424 0.905952
0.248009 0.263290 0.903818
0.383203 0.261127 0.901655
0.521342 0.258917 0.899444
0.658812 0.256717 0.897245
0.791077 0.254601 0.895129
0.917335 0.252581 0.893108
1.000000 0.250535 0.891063
0.000000 0.411320 0.900139
0.106584 0.409095 0.897915
0.239971 0.406961 0.895781
0.375166 0.404798 0.893617
0.513305 0.402588 0.891407
0.650775 0.400388 0.889208
0.783040 0.398272 0.887091
0.909298 0.396252 0.885071
1.000000 0.394207 0.883026
0.000000 0.559962 0.891824
0.098269 0.557738 0.889600
0.231656 0.555604 0.887465
0.366851 0.553440 0.885302
0.504990 0.551230 0.883092
0.642460 0.549031 0.880892
0.774725 0.546914 0.878776
0.900983 0.544894 0.876756
1.000000 0.542849 0.874711
0.000000 0.710147 0.883422
0.089867 0.707923 0.881198
0.223255 0.705789 0.879064
0.358449 0.703626 0.876901
0.496588 0.701416 0.874690
0.634058 0.699216 0.872491
0.766323 0.697100 0.870375
0.892581 0.695080 0.868354
1.000000 0.693034 0.866309
0.000000 0.850979 0.875544
0.081989 0.848755 0.873320
0.215376 0.846621 0.871185
0.350571 0.844458 0.869022
0.488710 0.842248 0.866812
0.626180 0.840048 0.864612
0.758445 0.837932 0.862496
0.884703 0.835912 0.860476
1.000000 0.833867 0.858431
0.000000 0.992022 0.867654
0.074099 0.989798 0.865430
0.207486 0.987663 0.863295
0.342681 0.985500 0.861132
0.480820 0.983290 0.858922
0.618290 0.981090 0.856722
0.750555 0.978974 0.854606
0.876813 0.976954 0.852586
1.000000 0.974909 0.850541
0.000000 1.000000 0.863628
0.070073 1.000000 0.861404
0.203461 1.000000 0.859270
0.338655 1.000000 0.857107
0.476794 1.000000 0.854897
0.614264 1.000000 0.852697
0.746530 1.000000 0.850581
0.872787 1.000000 0.848561
1.000000 1.000000 0.846515
0.000000 0.000000 1.000000
0.128980 0.000000 1.000000
0.262367 0.000000 1.000000
0.397562 0.000000 1.000000
0.535701 0.000000 1.000000
0.673171 0.000000 1.000000
0.805436 0.000000 1.000000
0.931694 0.000000 1.000000
1.000000 0.000000 1.000000
0.000000 0.130596 1.000000
0.121592 0.128372 1.000000
0.254980 0.126238 1.000000
0.390174 0.124075 1.000000
0.528313 0.121865 1.000000
0.665784 0.119665 1.000000
0.798049 0.117549 1.000000
0.924307 0.115529 1.000000
1.000000 0.113483 1.000000
0.000000 0.266990 1.000000
0.113962 0.264765 1.000000
0.247350 0.262631 1.000000
0.382544 0.260468 1.000000
0.520683 0.258258 1.000000
0.658154 0.256058 1.000000
0.790419 0.253942 1.000000
0.916677 0.251922 1.000000
1.000000 0.249877 1.000000
0.000000 0.410661 1.000000
0.105925 0.408437 1.000000
0.239313 0.406302 1.000000
0.374507 0.404139 1.000000
0.512646 0.401929 1.000000
0.650116 0.399730 1.000000
0.782382 0.397613 1.000000
0.908639 0.395593 1.000000
1.000000 0.393548 1.000000
0.000000 0.559303 1.000000
0.097610 0.557079 1.000000
0.230998 0.554945 1.000000
0.366192 0.552782 1.000000
0.504331 0.550571 1.000000
0.641801 0.548372 1.000000
0.774066 0.546256 1.000000
0.900324 0.544236 0.999265
1.000000 0.542190 0.997219
0.000000 0.709489 1.000000
0.089208 0.707264 1.000000
0.222596 0.705130 1.000000
0.357790 0.702967 0.999409
0.495929 0.700757 0.997199
0.633400 0.698557 0.994999
0.765665 0.696441 0.992883
0.891923 0.694421 0.990863
1.000000 0.692376 0.988818
0.000000 0.850321 0.998052
0.081330 0.848097 0.995828
0.214718 0.845962 0.993694
0.349912 0.843799 0.991531
0.488051 0.841589 0.989321
0.625521 0.839389 0.987121
0.757786 0.837273 0.985005
0.884044 0.835253 0.982985
1.000000 0.833208 0.980939
0.000000 0.991363 0.990162
0.073440 0.989139 0.987938
0.206827 0.987005 0.985804
0.342022 0.984841 0.983641
0.480161 0.982631 0.981431
0.617631 0.980432 0.979231
0.749896 0.978315 0.977115
0.876154 0.976295 0.975095
1.000000 0.974250 0.973049
0.000000 1.000000 0.986137
0.069414 1.000000 0.983913
0.202802 1.000000 0.981778
0.337996 1.000000 0.979615
0.476135 1.000000 0.977405
0.613606 1.000000 0.975206
0.745871 1.000000 0.973089
0.872129 1.000000 0.971069
0.999955 1.000000 0.969024
