flutter_app/assets/lut/cameras/fxn_r.cube
TITLE "FXN R"
# DAZZ Camera LUT - FXN R
# Generated for DAZZ retro camera app
LUT_3D_SIZE 33
DOMAIN_MIN 0.0 0.0 0.0
DOMAIN_MAX 1.0 1.0 1.0
0.000000 0.004233 0.000000
0.032221 0.003648 0.000000
0.067134 0.003090 0.000000
0.101003 0.002548 0.000000
0.134670 0.002009 0.000000
0.168184 0.001473 0.000000
0.201574 0.000939 0.000000
0.234860 0.000406 0.000000
0.268057 0.000000 0.000000
0.301176 0.000000 0.000000
0.334226 0.000000 0.000000
0.368589 0.000000 0.000000
0.403252 0.000000 0.000000
0.437859 0.000000 0.000000
0.472416 0.000000 0.000000
0.506926 0.000000 0.000000
0.541391 0.000000 0.000000
0.575815 0.000000 0.000000
0.610200 0.000000 0.000000
0.644548 0.000000 0.000000
0.678861 0.000000 0.000000
0.713141 0.000000 0.000000
0.747390 0.000000 0.000000
0.779501 0.000000 0.000000
0.811126 0.000000 0.000000
0.842726 0.000000 0.000000
0.874302 0.000000 0.000000
0.905854 0.000000 0.000000
0.937384 0.000000 0.000000
0.968892 0.000000 0.000000
1.000000 0.000000 0.000000
1.000000 0.000000 0.000000
1.000000 0.000000 0.000000
0.000000 0.037097 0.000000
0.030382 0.036512 0.000000
0.065295 0.035954 0.000000
0.099164 0.035412 0.000000
0.132831 0.034873 0.000000
0.166345 0.034337 0.000000
0.199735 0.033803 0.000000
0.233022 0.033270 0.000000
0.266219 0.032739 0.000000
0.299338 0.032209 0.000000
0.332387 0.031680 0.000000
0.366751 0.031130 0.000000
0.401413 0.030576 0.000000
0.436021 0.030022 0.000000
0.470578 0.029469 0.000000
0.505087 0.028917 0.000000
0.539552 0.028366 0.000000
0.573976 0.027815 0.000000
0.608361 0.027265 0.000000
0.642709 0.026715 0.000000
0.677023 0.026166 0.000000
0.711303 0.025617 0.000000
0.745552 0.025069 0.000000
0.777662 0.024556 0.000000
0.809288 0.024050 0.000000
0.840888 0.023544 0.000000
0.872464 0.023039 0.000000
0.904016 0.022534 0.000000
0.935546 0.022030 0.000000
0.967053 0.021525 0.000000
0.998540 0.021022 0.000000
1.000000 0.020518 0.000000
1.000000 0.019984 0.000000
0.000000 0.069898 0.000000
0.028547 0.069313 0.000000
0.063460 0.068754 0.000000
0.097329 0.068212 0.000000
0.130996 0.067674 0.000000
0.164510 0.067137 0.000000
0.197900 0.066603 0.000000
0.231187 0.066071 0.000000
0.264384 0.065539 0.000000
0.297503 0.065010 0.000000
0.330553 0.064481 0.000000
0.364916 0.063931 0.000000
0.399578 0.063376 0.000000
0.434186 0.062823 0.000000
0.468743 0.062270 0.000000
0.503252 0.061718 0.000000
0.537717 0.061166 0.000000
0.572141 0.060615 0.000000
0.606526 0.060065 0.000000
0.640874 0.059516 0.000000
0.675188 0.058967 0.000000
0.709468 0.058418 0.000000
0.743717 0.057870 0.000000
0.775827 0.057356 0.000000
0.807453 0.056850 0.000000
0.839053 0.056345 0.000000
0.870629 0.055839 0.000000
0.902181 0.055335 0.000000
0.933711 0.054830 0.000000
0.965218 0.054326 0.000000
0.996705 0.053822 0.000000
1.000000 0.053319 0.000000
1.000000 0.052785 0.000000
0.000000 0.102880 0.000000
0.026702 0.102295 0.000000
0.061615 0.101736 0.000000
0.095484 0.101194 0.000000
0.129151 0.100655 0.000000
0.162665 0.100119 0.000000
0.196055 0.099585 0.000000
0.229342 0.099052 0.000000
0.262539 0.098521 0.000000
0.295658 0.097991 0.000000
0.328707 0.097462 0.000000
0.363071 0.096913 0.000000
0.397733 0.096358 0.000000
0.432341 0.095804 0.000000
0.466898 0.095251 0.000000
0.501407 0.094699 0.000000
0.535872 0.094148 0.000000
0.570296 0.093597 0.000000
0.604681 0.093047 0.000000
0.639029 0.092497 0.000000
0.673343 0.091948 0.000000
0.707623 0.091400 0.000000
0.741872 0.090852 0.000000
0.773982 0.090338 0.000000
0.805608 0.089832 0.000000
0.837208 0.089326 0.000000
0.868784 0.088821 0.000000
0.900336 0.088316 0.000000
0.931866 0.087812 0.000000
0.963373 0.087308 0.000000
0.994860 0.086804 0.000000
1.000000 0.086300 0.000000
1.000000 0.085767 0.000000
0.000000 0.136287 0.000000
0.024833 0.135702 0.000000
0.059746 0.135143 0.000000
0.093615 0.134601 0.000000
0.127283 0.134062 0.000000
0.160796 0.133526 0.000000
0.194186 0.132992 0.000000
0.227473 0.132459 0.000000
0.260670 0.131928 0.000000
0.293789 0.131398 0.000000
0.326839 0.130869 0.000000
0.361202 0.130320 0.000000
0.395865 0.129765 0.000000
0.430472 0.129211 0.000000
0.465029 0.128658 0.000000
0.499538 0.128106 0.000000
0.534004 0.127555 0.000000
0.568427 0.127004 0.000000
0.602812 0.126454 0.000000
0.637161 0.125904 0.000000
0.671474 0.125355 0.000000
0.705754 0.124807 0.000000
0.740003 0.124259 0.000000
0.772113 0.123745 0.000000
0.803739 0.123239 0.000000
0.835339 0.122733 0.000000
0.866915 0.122228 0.000000
0.898467 0.121723 0.000000
0.929997 0.121219 0.000000
0.961505 0.120715 0.000000
0.992991 0.120211 0.000000
1.000000 0.119707 0.000000
1.000000 0.119174 0.000000
0.000000 0.170022 0.000000
0.022946 0.169437 0.000000
0.057859 0.168878 0.000000
0.091728 0.168336 0.000000
0.125395 0.167798 0.000000
0.158909 0.167261 0.000000
0.192299 0.166727 0.000000
0.225586 0.166194 0.000000
0.258783 0.165663 0.000000
0.291902 0.165133 0.000000
0.324951 0.164605 0.000000
0.359315 0.164055 0.000000
0.393977 0.163500 0.000000
0.428585 0.162946 0.000000
0.463142 0.162394 0.000000
0.497651 0.161841 0.000000
0.532116 0.161290 0.000000
0.566540 0.160739 0.000000
0.600925 0.160189 0.000000
0.635273 0.159639 0.000000
0.669587 0.159090 0.000000
0.703867 0.158542 0.000000
0.738116 0.157994 0.000000
0.770226 0.157480 0.000000
0.801852 0.156974 0.000000
0.833452 0.156469 0.000000
0.865028 0.155963 0.000000
0.896580 0.155458 0.000000
0.928110 0.154954 0.000000
0.959617 0.154450 0.000000
0.991104 0.153946 0.000000
1.000000 0.153443 0.000000
1.000000 0.152909 0.000000
0.000000 0.204025 0.000000
0.021044 0.203440 0.000000
0.055957 0.202881 0.000000
0.089826 0.202339 0.000000
0.123493 0.201800 0.000000
0.157007 0.201264 0.000000
0.190397 0.200730 0.000000
0.223684 0.200197 0.000000
0.256881 0.199666 0.000000
0.290000 0.199136 0.000000
0.323049 0.198607 0.000000
0.357413 0.198058 0.000000
0.392075 0.197503 0.000000
0.426683 0.196949 0.000000
0.461239 0.196396 0.000000
0.495749 0.195844 0.000000
0.530214 0.195293 0.000000
0.564638 0.194742 0.000000
0.599023 0.194192 0.000000
0.633371 0.193642 0.000000
0.667685 0.193093 0.000000
0.701965 0.192545 0.000000
0.736214 0.191997 0.000000
0.768324 0.191483 0.000000
0.799950 0.190977 0.000000
0.831550 0.190471 0.000000
0.863126 0.189966 0.000000
0.894678 0.189461 0.000000
0.926207 0.188957 0.000000
0.957715 0.188453 0.000000
0.989202 0.187949 0.000000
1.000000 0.187445 0.000000
1.000000 0.186912 0.000000
0.000000 0.238254 0.000000
0.019129 0.237669 0.000000
0.054042 0.237110 0.000000
0.087911 0.236568 0.000000
0.121578 0.236030 0.000000
0.155092 0.235494 0.000000
0.188482 0.234959 0.000000
0.221769 0.234427 0.000000
0.254966 0.233896 0.000000
0.288085 0.233366 0.000000
0.321134 0.232837 0.000000
0.355498 0.232287 0.000000
0.390160 0.231732 0.000000
0.424768 0.231179 0.000000
0.459325 0.230626 0.000000
0.493834 0.230074 0.000000
0.528299 0.229522 0.000000
0.562723 0.228971 0.000000
0.597108 0.228421 0.000000
0.631456 0.227872 0.000000
0.665770 0.227323 0.000000
0.700050 0.226774 0.000000
0.734299 0.226226 0.000000
0.766409 0.225712 0.000000
0.798035 0.225206 0.000000
0.829635 0.224701 0.000000
0.861211 0.224196 0.000000
0.892763 0.223691 0.000000
0.924293 0.223186 0.000000
0.955800 0.222682 0.000000
0.987287 0.222178 0.000000
1.000000 0.221675 0.000000
1.000000 0.221141 0.000000
0.000000 0.272680 0.000000
0.017203 0.272095 0.000000
0.052116 0.271536 0.000000
0.085985 0.270994 0.000000
0.119653 0.270456 0.000000
0.153166 0.269919 0.000000
0.186556 0.269385 0.000000
0.219843 0.268853 0.000000
0.253040 0.268321 0.000000
0.286159 0.267792 0.000000
0.319209 0.267263 0.000000
0.353572 0.266713 0.000000
0.388235 0.266158 0.000000
0.422842 0.265605 0.000000
0.457399 0.265052 0.000000
0.491908 0.264499 0.000000
0.526373 0.263948 0.000000
0.560797 0.263397 0.000000
0.595182 0.262847 0.000000
0.629530 0.262298 0.000000
0.663844 0.261749 0.000000
0.698124 0.261200 0.000000
0.732373 0.260652 0.000000
0.764483 0.260138 0.000000
0.796109 0.259632 0.000000
0.827709 0.259127 0.000000
0.859285 0.258621 0.000000
0.890837 0.258117 0.000000
0.922367 0.257612 0.000000
0.953875 0.257108 0.000000
0.985361 0.256604 0.000000
1.000000 0.256101 0.000000
1.000000 0.255567 0.000000
0.000000 0.307279 0.000000
0.015268 0.306694 0.000000
0.050181 0.306136 0.000000
0.084050 0.305594 0.000000
0.117717 0.305055 0.000000
0.151231 0.304519 0.000000
0.184621 0.303985 0.000000
0.217907 0.303452 0.000000
0.251105 0.302921 0.000000
0.284224 0.302391 0.000000
0.317273 0.301862 0.000000
0.351636 0.301312 0.000000
0.386299 0.300758 0.000000
0.420907 0.300204 0.000000
0.455463 0.299651 0.000000
0.489973 0.299099 0.000000
0.524438 0.298548 0.000000
0.558862 0.297997 0.000000
0.593247 0.297447 0.000000
0.627595 0.296897 0.000000
0.661908 0.296348 0.000000
0.696189 0.295800 0.000000
0.730437 0.295252 0.000000
0.762548 0.294738 0.000000
0.794173 0.294232 0.000000
0.825774 0.293726 0.000000
0.857349 0.293221 0.000000
0.888902 0.292716 0.000000
0.920431 0.292212 0.000000
0.951939 0.291707 0.000000
0.983426 0.291204 0.000000
1.000000 0.290700 0.000000
1.000000 0.290166 0.000000
0.000000 0.342750 0.000000
0.013284 0.342165 0.000000
0.048197 0.341606 0.000000
0.082066 0.341064 0.000000
0.115733 0.340525 0.000000
0.149247 0.339989 0.000000
0.182637 0.339455 0.000000
0.215923 0.338922 0.000000
0.249120 0.338391 0.000000
0.282239 0.337861 0.000000
0.315289 0.337332 0.000000
0.349652 0.336783 0.000000
0.384315 0.336228 0.000000
0.418922 0.335674 0.000000
0.453479 0.335121 0.000000
0.487988 0.334569 0.000000
0.522454 0.334018 0.000000
0.556878 0.333467 0.000000
0.591263 0.332917 0.000000
0.625611 0.332367 0.000000
0.659924 0.331818 0.000000
0.694204 0.331270 0.000000
0.728453 0.330722 0.000000
0.760563 0.330208 0.000000
0.792189 0.329702 0.000000
0.823789 0.329196 0.000000
0.855365 0.328691 0.000000
0.886917 0.328186 0.000000
0.918447 0.327682 0.000000
0.949955 0.327178 0.000000
0.981441 0.326674 0.000000
1.000000 0.326170 0.000000
1.000000 0.325637 0.000000
0.000000 0.379482 0.000000
0.011229 0.378897 0.000000
0.046142 0.378339 0.000000
0.080011 0.377797 0.000000
0.113678 0.377258 0.000000
0.147192 0.376722 0.000000
0.180582 0.376188 0.000000
0.213868 0.375655 0.000000
0.247065 0.375124 0.000000
0.280185 0.374594 0.000000
0.313234 0.374065 0.000000
0.347597 0.373515 0.000000
0.382260 0.372961 0.000000
0.416867 0.372407 0.000000
0.451424 0.371854 0.000000
0.485934 0.371302 0.000000
0.520399 0.370751 0.000000
0.554823 0.370200 0.000000
0.589208 0.369650 0.000000
0.623556 0.369100 0.000000
0.657869 0.368551 0.000000
0.692149 0.368003 0.000000
0.726398 0.367455 0.000000
0.758509 0.366941 0.000000
0.790134 0.366435 0.000000
0.821734 0.365929 0.000000
0.853310 0.365424 0.000000
0.884862 0.364919 0.000000
0.916392 0.364415 0.000000
0.947900 0.363911 0.000000
0.979387 0.363407 0.000000
1.000000 0.362903 0.000000
1.000000 0.362369 0.000000
0.000000 0.416351 0.000000
0.009166 0.415766 0.000000
0.044079 0.415207 0.000000
0.077948 0.414666 0.000000
0.111615 0.414127 0.000000
0.145129 0.413591 0.000000
0.178519 0.413056 0.000000
0.211806 0.412524 0.000000
0.245003 0.411993 0.000000
0.278122 0.411463 0.000000
0.311171 0.410934 0.000000
0.345535 0.410384 0.000000
0.380197 0.409830 0.000000
0.414805 0.409276 0.000000
0.449362 0.408723 0.000000
0.483871 0.408171 0.000000
0.518336 0.407619 0.000000
0.552760 0.407069 0.000000
0.587145 0.406518 0.000000
0.621493 0.405969 0.000000
0.655807 0.405420 0.000000
0.690087 0.404871 0.000000
0.724336 0.404323 0.000000
0.756446 0.403810 0.000000
0.788072 0.403303 0.000000
0.819672 0.402798 0.000000
0.851248 0.402293 0.000000
0.882800 0.401788 0.000000
0.914330 0.401283 0.000000
0.945837 0.400779 0.000000
0.977324 0.400275 0.000000
1.000000 0.399772 0.000000
1.000000 0.399238 0.000000
0.000000 0.453345 0.000000
0.007097 0.452760 0.000000
0.042010 0.452201 0.000000
0.075879 0.451659 0.000000
0.109546 0.451121 0.000000
0.143060 0.450585 0.000000
0.176450 0.450050 0.000000
0.209736 0.449518 0.000000
0.242933 0.448987 0.000000
0.276053 0.448457 0.000000
0.309102 0.447928 0.000000
0.343465 0.447378 0.000000
0.378128 0.446823 0.000000
0.412735 0.446270 0.000000
0.447292 0.445717 0.000000
0.481802 0.445165 0.000000
0.516267 0.444613 0.000000
0.550691 0.444062 0.000000
0.585076 0.443512 0.000000
0.619424 0.442963 0.000000
0.653737 0.442414 0.000000
0.688017 0.441865 0.000000
0.722266 0.441317 0.000000
0.754377 0.440803 0.000000
0.786002 0.440297 0.000000
0.817602 0.439792 0.000000
0.849178 0.439287 0.000000
0.880730 0.438782 0.000000
0.912260 0.438277 0.000000
0.943768 0.437773 0.000000
0.975255 0.437269 0.000000
1.000000 0.436766 0.000000
1.000000 0.436232 0.000000
0.000000 0.490455 0.000000
0.005021 0.489870 0.000000
0.039934 0.489311 0.000000
0.073803 0.488770 0.000000
0.107470 0.488231 0.000000
0.140984 0.487695 0.000000
0.174374 0.487160 0.000000
0.207660 0.486628 0.000000
0.240857 0.486097 0.000000
0.273977 0.485567 0.000000
0.307026 0.485038 0.000000
0.341389 0.484488 0.000000
0.376052 0.483934 0.000000
0.410659 0.483380 0.000000
0.445216 0.482827 0.000000
0.479726 0.482275 0.000000
0.514191 0.481723 0.000000
0.548615 0.481172 0.000000
0.583000 0.480622 0.000000
0.617348 0.480073 0.000000
0.651661 0.479524 0.000000
0.685941 0.478975 0.000000
0.720190 0.478427 0.000000
0.752301 0.477913 0.000000
0.783926 0.477407 0.000000
0.815526 0.476902 0.000000
0.847102 0.476397 0.000000
0.878654 0.475892 0.000000
0.910184 0.475387 0.000000
0.941692 0.474883 0.000000
0.973179 0.474379 0.000000
1.000000 0.473876 0.000000
1.000000 0.473342 0.000000
0.000000 0.527674 0.000000
0.002939 0.527088 0.000000
0.037852 0.526530 0.000000
0.071721 0.525988 0.000000
0.105388 0.525449 0.000000
0.138902 0.524913 0.000000
0.172292 0.524379 0.000000
0.205578 0.523846 0.000000
0.238775 0.523315 0.000000
0.271894 0.522785 0.000000
0.304944 0.522256 0.000000
0.339307 0.521707 0.000000
0.373970 0.521152 0.000000
0.408577 0.520598 0.000000
0.443134 0.520045 0.000000
0.477644 0.519493 0.000000
0.512109 0.518942 0.000000
0.546533 0.518391 0.000000
0.580918 0.517841 0.000000
0.615266 0.517291 0.000000
0.649579 0.516742 0.000000
0.683859 0.516194 0.000000
0.718108 0.515646 0.000000
0.750219 0.515132 0.000000
0.781844 0.514626 0.000000
0.813444 0.514120 0.000000
0.845020 0.513615 0.000000
0.876572 0.513110 0.000000
0.908102 0.512606 0.000000
0.939610 0.512102 0.000000
0.971097 0.511598 0.000000
1.000000 0.511094 0.000000
1.000000 0.510561 0.000000
0.000000 0.564993 0.000000
0.000851 0.564408 0.000000
0.035764 0.563850 0.000000
0.069633 0.563308 0.000000
0.103300 0.562769 0.000000
0.136814 0.562233 0.000000
0.170204 0.561699 0.000000
0.203490 0.561166 0.000000
0.236688 0.560635 0.000000
0.269807 0.560105 0.000000
0.302856 0.559576 0.000000
0.337219 0.559027 0.000000
0.371882 0.558472 0.000000
0.406490 0.557918 0.000000
0.441046 0.557365 0.000000
0.475556 0.556813 0.000000
0.510021 0.556262 0.000000
0.544445 0.555711 0.000000
0.578830 0.555161 0.000000
0.613178 0.554611 0.000000
0.647491 0.554062 0.000000
0.681772 0.553514 0.000000
0.716020 0.552966 0.000000
0.748131 0.552452 0.000000
0.779757 0.551946 0.000000
0.811357 0.551440 0.000000
0.842932 0.550935 0.000000
0.874485 0.550430 0.000000
0.906014 0.549926 0.000000
0.937522 0.549422 0.000000
0.969009 0.548918 0.000000
1.000000 0.548414 0.000000
1.000000 0.547881 0.000000
0.000000 0.602409 0.000000
0.000000 0.601824 0.000000
0.033671 0.601265 0.000000
0.067540 0.600724 0.000000
0.101207 0.600185 0.000000
0.134721 0.599649 0.000000
0.168111 0.599114 0.000000
0.201397 0.598582 0.000000
0.234595 0.598051 0.000000
0.267714 0.597521 0.000000
0.300763 0.596992 0.000000
0.335126 0.596442 0.000000
0.369789 0.595887 0.000000
0.404397 0.595334 0.000000
0.438953 0.594781 0.000000
0.473463 0.594229 0.000000
0.507928 0.593677 0.000000
0.542352 0.593126 0.000000
0.576737 0.592576 0.000000
0.611085 0.592027 0.000000
0.645398 0.591478 0.000000
0.679679 0.590929 0.000000
0.713927 0.590381 0.000000
0.746038 0.589867 0.000000
0.777663 0.589361 0.000000
0.809264 0.588856 0.000000
0.840839 0.588351 0.000000
0.872392 0.587846 0.000000
0.903921 0.587341 0.000000
0.935429 0.586837 0.000000
0.966916 0.586333 0.000000
0.998382 0.585830 0.000000
1.000000 0.585296 0.000000
0.000000 0.639915 0.000000
0.000000 0.639330 0.000000
0.031573 0.638771 0.000000
0.065442 0.638229 0.000000
0.099109 0.637691 0.000000
0.132623 0.637154 0.000000
0.166013 0.636620 0.000000
0.199299 0.636088 0.000000
0.232496 0.635556 0.000000
0.265616 0.635027 0.000000
0.298665 0.634498 0.000000
0.333028 0.633948 0.000000
0.367691 0.633393 0.000000
0.402298 0.632840 0.000000
0.436855 0.632287 0.000000
0.471365 0.631735 0.000000
0.505830 0.631183 0.000000
0.540254 0.630632 0.000000
0.574639 0.630082 0.000000
0.608987 0.629533 0.000000
0.643300 0.628984 0.000000
0.677580 0.628435 0.000000
0.711829 0.627887 0.000000
0.743940 0.627373 0.000000
0.775565 0.626867 0.000000
0.807165 0.626362 0.000000
0.838741 0.625856 0.000000
0.870293 0.625352 0.000000
0.901823 0.624847 0.000000
0.933331 0.624343 0.000000
0.964818 0.623839 0.000000
0.996284 0.623336 0.000000
1.000000 0.622802 0.000000
0.000000 0.677506 0.000000
0.000000 0.676921 0.000000
0.029470 0.676363 0.000000
0.063339 0.675821 0.000000
0.097006 0.675282 0.000000
0.130520 0.674746 0.000000
0.163910 0.674212 0.000000
0.197196 0.673679 0.000000
0.230394 0.673148 0.000000
0.263513 0.672618 0.000000
0.296562 0.672089 0.000000
0.330925 0.671539 0.000000
0.365588 0.670985 0.000000
0.400196 0.670431 0.000000
0.434752 0.669878 0.000000
0.469262 0.669326 0.000000
0.503727 0.668774 0.000000
0.538151 0.668224 0.000000
0.572536 0.667673 0.000000
0.606884 0.667124 0.000000
0.641197 0.666575 0.000000
0.675478 0.666026 0.000000
0.709726 0.665478 0.000000
0.741837 0.664965 0.000000
0.773462 0.664459 0.000000
0.805063 0.663953 0.000000
0.836638 0.663448 0.000000
0.868191 0.662943 0.000000
0.899720 0.662438 0.000000
0.931228 0.661934 0.000000
0.962715 0.661431 0.000000
0.994181 0.660927 0.000000
1.000000 0.660393 0.000000
0.000000 0.715179 0.000000
0.000000 0.714594 0.000000
0.027362 0.714035 0.000000
0.061231 0.713493 0.000000
0.094899 0.712955 0.000000
0.128412 0.712418 0.000000
0.161802 0.711884 0.000000
0.195089 0.711352 0.000000
0.228286 0.710820 0.000000
0.261405 0.710290 0.000000
0.294455 0.709762 0.000000
0.328818 0.709212 0.000000
0.363481 0.708657 0.000000
0.398088 0.708104 0.000000
0.432645 0.707551 0.000000
0.467154 0.706998 0.000000
0.501619 0.706447 0.000000
0.536043 0.705896 0.000000
0.570428 0.705346 0.000000
0.604776 0.704797 0.000000
0.639090 0.704247 0.000000
0.673370 0.703699 0.000000
0.707619 0.703151 0.000000
0.739729 0.702637 0.000000
0.771355 0.702131 0.000000
0.802955 0.701626 0.000000
0.834531 0.701120 0.000000
0.866083 0.700616 0.000000
0.897613 0.700111 0.000000
0.929121 0.699607 0.000000
0.960607 0.699103 0.000000
0.992074 0.698600 0.000000
1.000000 0.698066 0.000000
0.000000 0.750856 0.000000
0.000000 0.750271 0.000000
0.025367 0.749712 0.000000
0.059236 0.749170 0.000000
0.092903 0.748632 0.000000
0.126417 0.748095 0.000000
0.159807 0.747561 0.000000
0.193093 0.747028 0.000000
0.226290 0.746497 0.000000
0.259409 0.745967 0.000000
0.292459 0.745439 0.000000
0.326822 0.744889 0.000000
0.361485 0.744334 0.000000
0.396092 0.743780 0.000000
0.430649 0.743228 0.000000
0.465158 0.742675 0.000000
0.499624 0.742124 0.000000
0.534048 0.741573 0.000000
0.568432 0.741023 0.000000
0.602781 0.740473 0.000000
0.637094 0.739924 0.000000
0.671374 0.739376 0.000000
0.705623 0.738828 0.000000
0.737733 0.738314 0.000000
0.769359 0.737808 0.000000
0.800959 0.737303 0.000000
0.832535 0.736797 0.000000
0.864087 0.736292 0.000000
0.895617 0.735788 0.000000
0.927125 0.735284 0.000000
0.958611 0.734780 0.000000
0.990078 0.734277 0.000000
1.000000 0.733743 0.000000
0.000000 0.785843 0.000000
0.000000 0.785258 0.000000
0.023409 0.784699 0.000000
0.057278 0.784157 0.000000
0.090945 0.783619 0.000000
0.124459 0.783083 0.000000
0.157849 0.782548 0.000000
0.191136 0.782016 0.000000
0.224333 0.781485 0.000000
0.257452 0.780955 0.000000
0.290502 0.780426 0.000000
0.324865 0.779876 0.000000
0.359527 0.779321 0.000000
0.394135 0.778768 0.000000
0.428692 0.778215 0.000000
0.463201 0.777663 0.000000
0.497666 0.777111 0.000000
0.532090 0.776560 0.000000
0.566475 0.776010 0.000000
0.600823 0.775461 0.000000
0.635137 0.774912 0.000000
0.669417 0.774363 0.000000
0.703666 0.773815 0.000000
0.735776 0.773301 0.000000
0.767402 0.772795 0.000000
0.799002 0.772290 0.000000
0.830578 0.771785 0.000000
0.862130 0.771280 0.000000
0.893660 0.770775 0.000000
0.925167 0.770271 0.000000
0.956654 0.769767 0.000000
0.988121 0.769264 0.000000
1.000000 0.768730 0.000000
0.000000 0.820896 0.000000
0.000000 0.820311 0.000000
0.021448 0.819752 0.000000
0.055317 0.819210 0.000000
0.088985 0.818671 0.000000
0.122498 0.818135 0.000000
0.155888 0.817601 0.000000
0.189175 0.817068 0.000000
0.222372 0.816537 0.000000
0.255491 0.816007 0.000000
0.288541 0.815478 0.000000
0.322904 0.814929 0.000000
0.357567 0.814374 0.000000
0.392174 0.813820 0.000000
0.426731 0.813267 0.000000
0.461240 0.812715 0.000000
0.495706 0.812164 0.000000
0.530129 0.811613 0.000000
0.564514 0.811063 0.000000
0.598863 0.810513 0.000000
0.633176 0.809964 0.000000
0.667456 0.809416 0.000000
0.701705 0.808868 0.000000
0.733815 0.808354 0.000000
0.765441 0.807848 0.000000
0.797041 0.807342 0.000000
0.828617 0.806837 0.000000
0.860169 0.806332 0.000000
0.891699 0.805828 0.000000
0.923207 0.805324 0.000000
0.954693 0.804820 0.000000
0.986160 0.804316 0.000000
1.000000 0.803783 0.000000
0.000000 0.856011 0.000000
0.000000 0.855426 0.000000
0.019484 0.854867 0.000000
0.053353 0.854325 0.000000
0.087020 0.853787 0.000000
0.120534 0.853251 0.000000
0.153924 0.852716 0.000000
0.187210 0.852184 0.000000
0.220408 0.851653 0.000000
0.253527 0.851123 0.000000
0.286576 0.850594 0.000000
0.320939 0.850044 0.000000
0.355602 0.849489 0.000000
0.390210 0.848936 0.000000
0.424766 0.848383 0.000000
0.459276 0.847831 0.000000
0.493741 0.847279 0.000000
0.528165 0.846728 0.000000
0.562550 0.846178 0.000000
0.596898 0.845629 0.000000
0.631211 0.845080 0.000000
0.665492 0.844531 0.000000
0.699740 0.843983 0.000000
0.731851 0.843469 0.000000
0.763477 0.842963 0.000000
0.795077 0.842458 0.000000
0.826653 0.841953 0.000000
0.858205 0.841448 0.000000
0.889734 0.840943 0.000000
0.921242 0.840439 0.000000
0.952729 0.839935 0.000000
0.984195 0.839432 0.000000
1.000000 0.838898 0.000000
0.000000 0.891187 0.000000
0.000000 0.890602 0.000000
0.017516 0.890043 0.000000
0.051385 0.889501 0.000000
0.085052 0.888962 0.000000
0.118566 0.888426 0.000000
0.151956 0.887892 0.000000
0.185243 0.887359 0.000000
0.218440 0.886828 0.000000
0.251559 0.886298 0.000000
0.284608 0.885769 0.000000
0.318972 0.885220 0.000000
0.353634 0.884665 0.000000
0.388242 0.884111 0.000000
0.422799 0.883558 0.000000
0.457308 0.883006 0.000000
0.491773 0.882455 0.000000
0.526197 0.881904 0.000000
0.560582 0.881354 0.000000
0.594930 0.880804 0.000000
0.629244 0.880255 0.000000
0.663524 0.879707 0.000000
0.697773 0.879159 0.000000
0.729883 0.878645 0.000000
0.761509 0.878139 0.000000
0.793109 0.877633 0.000000
0.824685 0.877128 0.000000
0.856237 0.876623 0.000000
0.887767 0.876119 0.000000
0.919274 0.875615 0.000000
0.950761 0.875111 0.000000
0.982228 0.874607 0.000000
1.000000 0.874074 0.000000
0.000000 0.926420 0.000000
0.000000 0.925835 0.000000
0.015545 0.925277 0.000000
0.049414 0.924735 0.000000
0.083081 0.924196 0.000000
0.116595 0.923660 0.000000
0.149985 0.923126 0.000000
0.183272 0.922593 0.000000
0.216469 0.922062 0.000000
0.249588 0.921532 0.000000
0.282637 0.921003 0.000000
0.317001 0.920453 0.000000
0.351663 0.919899 0.000000
0.386271 0.919345 0.000000
0.420828 0.918792 0.000000
0.455337 0.918240 0.000000
0.489802 0.917688 0.000000
0.524226 0.917138 0.000000
0.558611 0.916588 0.000000
0.592959 0.916038 0.000000
0.627273 0.915489 0.000000
0.661553 0.914940 0.000000
0.695802 0.914392 0.000000
0.727912 0.913879 0.000000
0.759538 0.913373 0.000000
