flutter_app/assets/lut/cameras/fxnr_33.cube
TITLE "FXN-R Fuji Cool Cyan"
LUT_3D_SIZE 9
DOMAIN_MIN 0.0 0.0 0.0
DOMAIN_MAX 1.0 1.0 1.0
0.000288 0.000020 0.000000
0.068461 0.000000 0.000000
0.205423 0.000000 0.000000
0.309835 0.000000 0.000000
0.362051 0.000000 0.000000
0.532556 0.000000 0.000000
0.708131 0.000000 0.000000
0.764141 0.000000 0.000000
0.844960 0.000000 0.000000
0.000000 0.109259 0.000000
0.101658 0.108940 0.000000
0.178567 0.092676 0.000000
0.315219 0.106361 0.000000
0.469072 0.115885 0.000000
0.545456 0.105252 0.000000
0.630908 0.099032 0.000000
0.772644 0.101440 0.000000
0.947865 0.106205 0.000000
0.000000 0.192898 0.000000
0.100565 0.223053 0.000000
0.230355 0.247224 0.000000
0.325164 0.228474 0.000000
0.417211 0.216705 0.000000
0.547344 0.224488 0.000000
0.705782 0.238241 0.000000
0.873377 0.249641 0.000000
1.000000 0.253774 0.000000
0.000000 0.378175 0.000000
0.103108 0.352768 0.000000
0.203795 0.334275 0.000000
0.323158 0.346940 0.000000
0.464896 0.369607 0.000000
0.618313 0.389271 0.000118
0.764370 0.397662 0.000560
0.879218 0.388801 0.000776
0.951784 0.365166 0.000758
0.000000 0.451786 0.000000
0.100063 0.468809 0.000000
0.225191 0.500351 0.000068
0.363915 0.528735 0.000663
0.503299 0.541798 0.001128
0.623302 0.531654 0.001346
0.709700 0.500195 0.001296
0.829394 0.497508 0.001577
0.992736 0.517848 0.002165
0.000000 0.630774 0.000610
0.110373 0.667698 0.001205
0.242380 0.685793 0.001695
0.366594 0.674871 0.001917
0.467055 0.635628 0.001837
0.585620 0.631356 0.002101
0.736935 0.657151 0.002705
0.912591 0.693150 0.003458
0.998282 0.726167 0.003957
0.000000 0.829663 0.002306
0.109152 0.818431 0.002489
0.223763 0.771524 0.002379
0.342362 0.764980 0.002624
0.482177 0.795900 0.003243
0.642617 0.840020 0.004027
0.813024 0.878744 0.004790
0.975345 0.897639 0.005363
0.994322 0.887671 0.005326
0.000000 0.907968 0.002973
0.099573 0.898406 0.003147
0.228445 0.934104 0.003779
0.373734 0.986276 0.004593
0.531025 1.000000 0.005142
0.686980 1.000000 0.005540
0.821768 1.000000 0.005885
0.924201 0.999693 0.006104
0.992201 0.974196 0.006059
0.000000 1.000000 0.003782
0.107271 1.000000 0.004060
0.252357 1.000000 0.004430
0.401962 1.000000 0.004812
0.539857 1.000000 0.005165
0.652887 1.000000 0.005453
0.768641 1.000000 0.005749
0.891743 1.000000 0.006063
0.990037 1.000000 0.006314
0.000000 0.000000 0.031470
0.083547 0.000000 0.088243
0.211340 0.000000 0.108187
0.281722 0.000000 0.093622
0.379030 0.000000 0.092161
0.560859 0.000000 0.106518
0.699890 0.000000 0.108066
0.741068 0.000000 0.095596
0.853679 0.000000 0.093910
0.000000 0.111768 0.110140
0.091404 0.098085 0.096559
0.185193 0.095041 0.093498
0.331423 0.110074 0.108280
0.464066 0.112557 0.110663
0.527166 0.099690 0.097906
0.636170 0.097727 0.095905
0.790879 0.101497 0.099548
0.968575 0.105968 0.103871
0.000000 0.199527 0.094831
0.104095 0.234122 0.110003
0.227156 0.243987 0.113236
0.312579 0.218872 0.100243
0.419419 0.216638 0.097901
0.559387 0.227845 0.101571
0.720663 0.241360 0.106086
0.883098 0.250266 0.108391
1.000000 0.250483 0.107016
0.000000 0.375783 0.115782
0.097187 0.338573 0.102607
0.203376 0.335196 0.099898
0.329112 0.353529 0.103583
0.473844 0.376133 0.108288
0.624571 0.392226 0.111083
0.761121 0.394562 0.109939
0.858847 0.378111 0.103407
0.942434 0.359854 0.096499
0.000000 0.453430 0.101897
0.100043 0.478556 0.105585
0.228038 0.510470 0.110732
0.366517 0.534053 0.114066
0.500430 0.539011 0.113146
0.608510 0.518559 0.106724
0.701262 0.493424 0.099452
0.837947 0.501597 0.099237
0.999122 0.526525 0.102519
0.000000 0.644402 0.113472
0.109087 0.675497 0.117037
0.239559 0.683495 0.116346
0.356976 0.659590 0.110047
0.460036 0.627098 0.102416
0.590488 0.636959 0.102066
0.749951 0.668598 0.105213
0.927903 0.704162 0.108772
0.994706 0.732223 0.112794
0.000000 0.828039 0.119593
0.104306 0.801183 0.113373
0.218689 0.760923 0.105392
0.343808 0.771933 0.104890
0.489578 0.810299 0.108123
0.652560 0.854186 0.111886
0.820085 0.886775 0.113882
0.972661 0.894955 0.112485
0.991373 0.870345 0.108486
0.000000 0.894981 0.108437
0.097875 0.906540 0.107711
0.230306 0.951400 0.111020
0.378226 1.000000 0.114984
0.534698 1.000000 0.116878
0.684432 1.000000 0.115580
0.806301 1.000000 0.110018
0.910599 0.985220 0.103270
0.989195 0.966304 0.099502
0.000000 1.000000 0.113281
0.106810 1.000000 0.118338
0.252763 1.000000 0.121567
0.399307 1.000000 0.120859
0.528580 1.000000 0.114758
0.641831 1.000000 0.106966
0.761542 1.000000 0.102042
0.887051 1.000000 0.098608
0.986935 1.000000 0.096119
0.000000 0.000000 0.116510
0.093146 0.000000 0.204362
0.207469 0.000000 0.220108
0.264988 0.000000 0.183902
0.403753 0.000000 0.207141
0.578808 0.000000 0.234461
0.668675 0.000000 0.222830
0.732532 0.000000 0.206610
0.869250 0.000000 0.211904
0.000000 0.109022 0.222836
0.083725 0.089977 0.185906
0.195935 0.099393 0.207787
0.341665 0.111635 0.236233
0.443867 0.105632 0.226289
0.519519 0.096221 0.208751
0.646733 0.097166 0.213620
0.810012 0.101542 0.226352
0.986445 0.105302 0.238125
0.000000 0.211153 0.208409
0.105658 0.241084 0.237939
0.216675 0.232911 0.229797
0.306511 0.213870 0.210921
0.425241 0.218401 0.215336
0.572135 0.231403 0.228111
0.733480 0.243698 0.240179
0.888157 0.249519 0.245850
0.999975 0.245362 0.241693
0.000000 0.361430 0.233254
0.093422 0.331619 0.213123
0.204742 0.339111 0.217054
0.335488 0.360583 0.229857
0.481443 0.381560 0.242216
0.627555 0.393095 0.248672
0.752636 0.388748 0.244983
0.834629 0.365801 0.229486
0.942368 0.358161 0.223773
0.000000 0.459316 0.218773
0.100073 0.489082 0.231590
0.230191 0.519212 0.244687
0.367194 0.536595 0.251657
0.494155 0.532536 0.248386
0.590347 0.502602 0.232951
0.699885 0.491701 0.226562
0.850348 0.508002 0.232875
0.996555 0.535718 0.244740
0.000000 0.656402 0.247275
0.107183 0.679855 0.254622
0.235131 0.676557 0.251778
0.345112 0.640026 0.236460
0.457752 0.625106 0.229364
0.598138 0.645629 0.235468
0.763461 0.680508 0.246748
0.941229 0.713665 0.257215
0.991137 0.735168 0.264813
0.000000 0.820837 0.255218
0.098828 0.778140 0.240013
0.215916 0.758413 0.232181
0.346892 0.782753 0.238056
0.497312 0.825383 0.249432
0.661124 0.866615 0.260183
0.823797 0.891209 0.265702
0.964492 0.887237 0.262515
0.988540 0.852305 0.251167
0.000000 0.891701 0.235076
0.096587 0.919387 0.240641
0.232278 0.969639 0.252102
0.381947 1.000000 0.263002
0.536181 1.000000 0.268631
0.678048 1.000000 0.265841
0.789319 1.000000 0.253358
0.899775 0.973810 0.243388
0.986155 0.960058 0.238432
0.000000 1.000000 0.254528
0.105987 1.000000 0.266682
0.252011 1.000000 0.273552
0.394301 1.000000 0.271169
0.515770 1.000000 0.257766
0.632866 1.000000 0.247004
0.755756 1.000000 0.241021
0.882753 1.000000 0.237225
0.983829 1.000000 0.234016
0.000000 0.000000 0.239130
0.097607 0.000000 0.330828
0.194157 0.000000 0.315144
0.269373 0.000000 0.285980
0.428417 0.000000 0.336814
0.582214 0.000000 0.362297
0.639051 0.000000 0.328149
0.734705 0.000000 0.320443
0.889050 0.000000 0.336372
0.000000 0.101372 0.319554
0.083153 0.089524 0.286520
0.206794 0.103644 0.337063
0.343458 0.110338 0.364757
0.422360 0.098562 0.331306
0.519702 0.094214 0.322216
0.660592 0.097000 0.337760
0.828574 0.101386 0.359657
1.000000 0.104115 0.376498
0.000000 0.223284 0.337249
0.104567 0.242169 0.367116
0.204416 0.219906 0.334548
0.305212 0.212204 0.324017
0.433311 0.221262 0.339144
0.584528 0.234729 0.361198
0.743413 0.245002 0.378504
0.887915 0.247255 0.383520
0.991876 0.238458 0.371355
0.000000 0.342095 0.337879
0.091172 0.329985 0.325847
0.207192 0.344896 0.340526
0.341650 0.367418 0.362721
0.487125 0.385526 0.380566
0.626832 0.391600 0.386601
0.738565 0.380044 0.375159
0.820113 0.357856 0.353176
0.949495 0.359213 0.354534
0.000000 0.467912 0.341906
0.099931 0.499489 0.364283
0.231406 0.525964 0.383076
0.365711 0.535964 0.389738
0.484265 0.522116 0.378946
0.578562 0.492145 0.356420
0.703983 0.493854 0.357037
0.865211 0.515849 0.372391
0.992931 0.544520 0.392825
0.000000 0.665986 0.385618
0.104629 0.680253 0.392851
0.229033 0.664633 0.382715
0.336639 0.626714 0.359708
0.459129 0.628176 0.359551
0.607579 0.656262 0.374713
0.776564 0.692045 0.394195
0.951766 0.721016 0.409652
0.987649 0.734493 0.417218
0.000000 0.807624 0.386532
0.094268 0.761621 0.363041
0.214893 0.762206 0.362079
0.351019 0.796098 0.377028
0.504790 0.840132 0.396688
0.667750 0.876522 0.412565
0.823642 0.891437 0.418154
0.950371 0.874012 0.408440
0.985695 0.837774 0.390591
0.000000 0.896020 0.364692
0.095520 0.935363 0.379337
0.234084 0.987616 0.399164
0.384523 1.000000 0.415220
0.535151 1.000000 0.421193
0.667513 1.000000 0.412226
0.775598 0.988394 0.393100
0.891198 0.964839 0.382062
0.983098 0.954933 0.376910
0.000000 1.000000 0.401787
0.104710 1.000000 0.419246
0.249959 1.000000 0.426357
0.386776 1.000000 0.417609
0.505152 1.000000 0.397319
0.625594 1.000000 0.385595
0.750898 1.000000 0.379529
0.878483 1.000000 0.375493
0.980745 1.000000 0.370952
0.000000 0.000000 0.383692
0.097278 0.000000 0.452004
0.174800 0.000000 0.384375
0.284175 0.000000 0.407901
0.447504 0.000000 0.475528
0.567980 0.000000 0.477974
0.624180 0.000000 0.433929
0.744464 0.000000 0.440213
0.910894 0.000000 0.467952
0.000000 0.090128 0.388815
0.085946 0.092719 0.407149
0.215016 0.106422 0.475976
0.335013 0.105757 0.481955
0.410893 0.093965 0.436521
0.525434 0.093169 0.441527
0.676082 0.096955 0.469030
0.845330 0.100887 0.498535
1.000000 0.102539 0.517155
0.000000 0.232819 0.476316
0.100407 0.236138 0.485794
0.197187 0.212306 0.439190
0.307271 0.212859 0.442862
0.442504 0.224629 0.470099
0.595682 0.237473 0.499950
0.749765 0.245065 0.519060
0.881827 0.243364 0.518620
0.965256 0.229820 0.492759
0.000000 0.330993 0.441940
0.089929 0.332122 0.444220
0.210155 0.351628 0.471159
0.347074 0.373469 0.501340
0.490442 0.387672 0.521358
0.622029 0.387522 0.522105
0.718605 0.368324 0.497138
0.814890 0.354043 0.478741
0.961941 0.362256 0.490778
0.000000 0.477954 0.472211
0.099431 0.509055 0.502962
0.231487 0.530223 0.523957
0.361871 0.531838 0.525572
0.470583 0.507551 0.501510
0.573475 0.487453 0.481602
0.712134 0.498859 0.492931
0.881289 0.524380 0.518257
0.989215 0.552340 0.545993
0.000000 0.672495 0.526591
0.101408 0.676263 0.529006
0.221218 0.647447 0.505857
0.332159 0.620867 0.484503
0.463207 0.635008 0.495093
0.617915 0.667887 0.520321
0.788446 0.702474 0.546830
0.958781 0.725662 0.564375
0.984311 0.729765 0.567498
0.000000 0.788045 0.510251
0.090881 0.754332 0.487448
0.215133 0.770721 0.497264
0.355656 0.810780 0.522373
0.511477 0.853646 0.549206
0.671925 0.883221 0.567355
0.819144 0.886936 0.568765
0.930809 0.855758 0.547708
0.982822 0.826166 0.528092
0.000000 0.906074 0.499524
0.094511 0.953062 0.524415
0.235479 1.000000 0.551552
0.385668 1.000000 0.569996
0.531311 1.000000 0.572121
0.652931 1.000000 0.551971
0.764556 0.975223 0.530785
0.884361 0.957760 0.520044
0.980030 0.950470 0.515157
0.000000 1.000000 0.554428
0.102901 1.000000 0.574396
0.246474 1.000000 0.577547
0.376693 1.000000 0.557261
0.496424 1.000000 0.534819
0.619637 1.000000 0.523499
0.746601 1.000000 0.517803
0.873892 1.000000 0.513214
0.977696 1.000000 0.506350
0.000000 0.000000 0.534560
0.092507 0.000000 0.552253
0.169408 0.000000 0.472557
0.302169 0.000000 0.548528
0.457043 0.000000 0.613535
0.538439 0.000000 0.572291
0.620336 0.000000 0.544887
0.759240 0.000000 0.567569
0.932953 0.000000 0.606343
0.000000 0.085591 0.473636
0.089678 0.096954 0.547060
0.218686 0.106835 0.614982
0.316819 0.098216 0.577034
0.406908 0.091129 0.546781
0.534845 0.092695 0.568415
0.691815 0.096819 0.607186
0.859235 0.099936 0.641426
0.997611 0.100291 0.657383
0.000000 0.237594 0.616269
0.093267 0.222858 0.581941
0.193684 0.208717 0.548742
0.311540 0.215018 0.569272
0.451886 0.228021 0.608010
0.604851 0.239349 0.642843
0.751948 0.243725 0.659404
0.869419 0.237776 0.648073
0.942539 0.222224 0.610226
0.000000 0.326277 0.550771
0.089299 0.336770 0.570143
0.213172 0.358547 0.608816
0.351325 0.378266 0.644226
0.491053 0.387639 0.662080
0.612833 0.380686 0.652102
0.700078 0.357409 0.614076
0.816998 0.353450 0.609080
0.978028 0.366621 0.633630
0.000000 0.488395 0.609606
0.098518 0.517007 0.646021
0.230277 0.531568 0.664935
0.355514 0.523950 0.656091
0.456968 0.493040 0.618009
0.573666 0.487294 0.611463
0.723069 0.505807 0.635424
0.897460 0.532916 0.670268
0.985449 0.558654 0.702925
0.000000 0.675375 0.667824
0.097519 0.667524 0.660041
0.213123 0.629160 0.622026
0.330802 0.620925 0.613881
0.469136 0.644446 0.637220
0.628348 0.679633 0.672127
0.798374 0.711142 0.703391
0.961612 0.727108 0.719244
0.981198 0.720597 0.712792
0.000000 0.765884 0.626209
0.088358 0.754378 0.616337
0.216213 0.782548 0.639019
0.360335 0.825735 0.673968
0.516899 0.865115 0.705752
0.673194 0.886094 0.722440
0.809875 0.877232 0.714709
0.913445 0.839542 0.683438
0.979910 0.816941 0.664672
0.000000 0.920191 0.640911
0.093425 0.971221 0.675792
0.236292 1.000000 0.707957
0.385131 1.000000 0.725251
0.524399 1.000000 0.718616
0.639535 0.992811 0.687690
0.755700 0.964840 0.667453
0.878798 0.952067 0.657802
0.976962 0.946248 0.653158
0.000000 1.000000 0.711270
0.100500 1.000000 0.730058
0.241451 1.000000 0.724327
0.367047 1.000000 0.692587
0.489237 1.000000 0.671313
0.614648 1.000000 0.661195
0.742528 1.000000 0.655846
0.868655 1.000000 0.649988
0.974698 1.000000 0.639464
0.000000 0.000000 0.676094
0.083640 0.000000 0.615936
0.174586 0.000000 0.592788
0.318351 0.000000 0.700847
0.454145 0.000000 0.738239
0.518632 0.000000 0.667150
0.624498 0.000000 0.663866
0.776908 0.000000 0.702995
0.953685 0.000000 0.750481
0.000000 0.086755 0.591299
0.092766 0.100516 0.699489
0.216473 0.104325 0.741618
0.303461 0.092325 0.670777
0.408342 0.089496 0.665031
0.546392 0.092487 0.703428
0.706628 0.096428 0.751203
0.869401 0.098460 0.786238
0.994567 0.097255 0.794241
0.000000 0.236092 0.744782
0.087356 0.212219 0.674546
0.192839 0.207998 0.666247
0.317083 0.218019 0.703860
0.460683 0.231044 0.751897
0.611411 0.240128 0.787816
0.749459 0.240855 0.796716
0.850310 0.230396 0.768461
0.931697 0.217542 0.731635
0.000000 0.326200 0.667517
0.088969 0.342897 0.704293
0.215867 0.365026 0.752563
0.354023 0.381469 0.789411
0.488645 0.385186 0.799930
0.598979 0.370950 0.773232
0.690539 0.351183 0.734823
0.824686 0.355274 0.746096
0.988235 0.371886 0.783612
0.000000 0.498462 0.753331
0.097112 0.522789 0.791458
0.227655 0.529643 0.803226
0.346515 0.512075 0.777954
0.449257 0.484964 0.738086
0.577871 0.490577 0.747966
0.735654 0.513887 0.784920
0.912716 0.540854 0.827610
0.981687 0.562991 0.861826
0.000000 0.674158 0.806555
0.092976 0.653729 0.782629
0.207781 0.618916 0.741425
0.331801 0.625502 0.749863
0.476161 0.655453 0.786383
0.638166 0.690723 0.829355
0.805693 0.717460 0.862128
0.959663 0.724908 0.871730
0.978391 0.706641 0.849927
0.000000 0.753150 0.744927
0.086441 0.760075 0.751789
0.217764 0.796422 0.787842
0.364640 0.840008 0.831073
0.520635 0.873812 0.864610
0.671149 0.884585 0.875313
0.795453 0.861902 0.852845
0.899515 0.826507 0.817773
0.976957 0.809602 0.801026
0.000000 0.936875 0.789395
0.092153 0.988702 0.832766
0.236288 1.000000 0.866832
0.382693 1.000000 0.878509
0.514186 1.000000 0.857559
0.628630 0.977658 0.821902
0.748579 0.956673 0.803831
0.874079 0.947292 0.795547
0.973908 0.941874 0.790685
0.000000 1.000000 0.870637
0.097467 1.000000 0.883763
0.234802 1.000000 0.863584
0.358977 1.000000 0.826486
0.483274 1.000000 0.807537
0.610307 1.000000 0.798903
0.738365 1.000000 0.793444
0.862474 1.000000 0.785234
0.971772 1.000000 0.769392
0.000000 0.000000 0.792656
0.075437 0.000000 0.666560
0.184361 0.000000 0.740611
0.329192 0.000000 0.853948
0.436688 0.000000 0.835006
0.509720 0.000000 0.770730
0.634201 0.000000 0.792250
0.795697 0.000000 0.846038
0.971789 0.000000 0.898673
0.000000 0.090337 0.737596
0.094185 0.102289 0.853680
0.207462 0.098574 0.841341
0.296690 0.088527 0.773200
0.413520 0.088627 0.792728
0.558798 0.092306 0.846161
0.719541 0.095661 0.899426
0.875073 0.096407 0.930441
0.991690 0.093414 0.924559
0.000000 0.227259 0.847406
0.083482 0.206351 0.775789
0.193797 0.209231 0.793241
0.323131 0.221322 0.846271
0.468249 0.233381 0.900138
0.614831 0.239625 0.932363
0.741875 0.236358 0.927856
0.825990 0.221695 0.878158
0.930365 0.215136 0.859685
0.000000 0.329345 0.793790
0.088699 0.349658 0.846369
0.217939 0.370543 0.900812
0.354867 0.382767 0.934429
0.482959 0.380115 0.931781
0.581028 0.358686 0.883093
0.688205 0.348682 0.862154
0.836395 0.358804 0.890818
0.984482 0.377671 0.940541
0.000000 0.507384 0.901779
0.095160 0.525936 0.936808
0.223529 0.524152 0.935722
0.335002 0.496371 0.888190
0.446339 0.482121 0.864687
0.584968 0.496330 0.892190
0.748874 0.522381 0.941139
0.926151 0.547657 0.988932
0.977996 0.564924 1.000000
0.000000 0.668443 0.939695
0.087826 0.634776 0.893420
0.204714 0.615474 0.867285
0.334481 0.633363 0.893579
0.483611 0.667106 0.942344
0.646730 0.700460 0.990684
0.809816 0.720891 1.000000
0.952403 0.718657 1.000000
0.975786 0.690944 0.980161
0.000000 0.748854 0.870043
0.084911 0.769916 0.894987
0.219465 0.811213 0.943534
0.368210 0.852739 0.992400
0.522318 0.879070 1.000000
0.665433 0.878183 1.000000
0.778429 0.843720 0.983424
0.888425 0.816101 0.951696
0.973964 0.803690 0.937572
0.000000 0.954783 0.944819
0.090613 1.000000 0.994074
0.235320 1.000000 1.000000
0.378174 1.000000 1.000000
0.501934 0.998606 0.988321
0.619763 0.965658 0.955676
0.742776 0.950193 0.940364
0.869808 0.943004 0.933257
0.970888 0.936986 0.927307
0.000000 1.000000 1.000000
0.093783 1.000000 1.000000
0.226992 1.000000 0.994076
0.352204 1.000000 0.959973
0.478242 1.000000 0.943944
0.606320 1.000000 0.936604
0.733826 1.000000 0.930181
0.855071 1.000000 0.918198
0.962040 1.000000 0.895405
0.000000 0.000000 0.868611
0.073999 0.000000 0.769295
0.194711 0.000000 0.906424
0.332172 0.000000 0.994251
0.414162 0.000000 0.912072
0.508859 0.000000 0.885414
0.647414 0.000000 0.930269
0.814121 0.000000 0.995483
0.986158 0.000000 1.000000
0.000000 0.094202 0.903057
0.093292 0.101557 0.996153
0.195155 0.091365 0.917476
0.294757 0.086195 0.886775
0.421069 0.088180 0.930161
0.570996 0.091966 0.995441
0.729727 0.094430 1.000000
0.875986 0.094131 1.000000
0.982764 0.088908 1.000000
0.000000 0.213838 0.923107
0.081035 0.203964 0.888229
0.195865 0.211674 0.930070
0.329053 0.224492 0.995373
0.474045 0.234776 1.000000
0.615045 0.238075 1.000000
0.728832 0.230162 1.000000
0.810093 0.215353 0.991320
0.936433 0.214449 0.996087
0.000000 0.334558 0.929998
0.088302 0.356354 0.995278
0.219144 0.374670 1.000000
0.354050 0.382147 1.000000
0.473796 0.372231 1.000000
0.568311 0.349740 0.995243
0.691477 0.349047 0.997837
0.850740 0.363381 1.000000
0.981889 0.384411 1.000000
0.000000 0.514453 1.000000
0.093023 0.526375 1.000000
0.217852 0.514808 1.000000
0.326067 0.484470 0.999308
0.447139 0.483342 0.999637
0.593970 0.503666 1.000000
0.763055 0.531800 1.000000
0.939377 0.555167 1.000000
0.977413 0.566974 1.000000
0.000000 0.657860 1.000000
0.083293 0.619560 1.000000
0.203375 0.617355 1.000000
0.338260 0.643379 1.000000
0.492075 0.679681 1.000000
0.655865 0.710504 1.000000
0.813179 0.723851 1.000000
0.941932 0.710518 1.000000
0.974652 0.679593 1.000000
0.000000 0.751192 1.000000
0.083598 0.782528 1.000000
0.222173 0.826956 1.000000
0.373082 0.865402 1.000000
0.524573 0.883183 1.000000
0.658340 0.868992 1.000000
0.766008 0.830326 1.000000
0.880619 0.808746 1.000000
0.971712 0.799501 1.000000
0.000000 0.973705 1.000000
0.091108 1.000000 1.000000
0.236213 1.000000 1.000000
0.374068 1.000000 1.000000
0.493203 0.982750 1.000000
0.613549 0.957151 1.000000
0.738687 0.945633 1.000000
0.866304 0.939437 1.000000
0.968469 0.931749 1.000000
0.000000 1.000000 1.000000
0.092121 1.000000 1.000000
0.221726 1.000000 1.000000
0.347501 1.000000 1.000000
0.474662 1.000000 1.000000
0.603114 1.000000 1.000000
0.729201 1.000000 1.000000
0.846405 1.000000 1.000000
0.946801 1.000000 1.000000
