flutter_app/assets/lut/cameras/fxnr_33.cube
TITLE "FXN-R Fuji Cool Cyan"
LUT_3D_SIZE 33
DOMAIN_MIN 0.0 0.0 0.0
DOMAIN_MAX 1.0 1.0 1.0
0.000288 0.000020 0.000000
0.005341 0.000000 0.000000
0.019443 0.000000 0.000000
0.041011 0.000000 0.000000
0.068461 0.000000 0.000000
0.100212 0.000000 0.000000
0.134677 0.000000 0.000000
0.170276 0.000000 0.000000
0.205423 0.000000 0.000000
0.238536 0.000000 0.000000
0.268031 0.000000 0.000000
0.292325 0.000000 0.000000
0.309835 0.000000 0.000000
0.318976 0.000000 0.000000
0.322245 0.000000 0.000000
0.336547 0.000000 0.000000
0.362051 0.000000 0.000000
0.396582 0.000000 0.000000
0.437961 0.000000 0.000000
0.484011 0.000000 0.000000
0.532556 0.000000 0.000000
0.581417 0.000000 0.000000
0.628418 0.000000 0.000000
0.671382 0.000000 0.000000
0.708131 0.000000 0.000000
0.736488 0.000000 0.000000
0.754277 0.000000 0.000000
0.759533 0.000000 0.000000
0.764141 0.000000 0.000000
0.775540 0.000000 0.000000
0.793178 0.000000 0.000000
0.816502 0.000000 0.000000
0.844960 0.000000 0.000000
0.000071 0.010119 0.000000
0.013415 0.014125 0.000000
0.033749 0.017410 0.000000
0.059488 0.020010 0.000000
0.089049 0.021958 0.000000
0.120850 0.023292 0.000000
0.153306 0.024045 0.000000
0.184835 0.024253 0.000000
0.213852 0.023952 0.000000
0.238775 0.023176 0.000000
0.258020 0.021961 0.000000
0.270003 0.020343 0.000000
0.276203 0.018561 0.000000
0.291271 0.017568 0.000000
0.316066 0.017197 0.000000
0.348939 0.017201 0.000000
0.388127 0.017396 0.000000
0.431777 0.017647 0.000000
0.477972 0.017857 0.000000
0.524746 0.017956 0.000000
0.570094 0.017896 0.000000
0.611979 0.017646 0.000000
0.648344 0.017188 0.000000
0.677111 0.016514 0.000000
0.696187 0.015625 0.000000
0.703574 0.014532 0.000000
0.709612 0.013486 0.000000
0.721878 0.012615 0.000000
0.739915 0.011880 0.000000
0.763252 0.011246 0.000000
0.791410 0.010684 0.000000
0.823900 0.010172 0.000000
0.860225 0.009689 0.000000
0.000000 0.036053 0.000000
0.019163 0.042002 0.000000
0.043741 0.046710 0.000000
0.071665 0.050213 0.000000
0.101351 0.052545 0.000000
0.131216 0.053742 0.000000
0.159676 0.053840 0.000000
0.185148 0.052873 0.000000
0.206049 0.050876 0.000000
0.220795 0.047886 0.000000
0.230014 0.044363 0.000000
0.245984 0.042617 0.000000
0.270159 0.042392 0.000000
0.301432 0.043134 0.000000
0.338459 0.044426 0.000000
0.379717 0.045947 0.000000
0.423555 0.047451 0.000000
0.468218 0.048749 0.000000
0.511877 0.049694 0.000000
0.552641 0.050173 0.000000
0.588570 0.050102 0.000000
0.617688 0.049417 0.000000
0.637987 0.048070 0.000000
0.647474 0.046033 0.000000
0.654990 0.044015 0.000000
0.668162 0.042506 0.000000
0.686630 0.041410 0.000000
0.710007 0.040645 0.000000
0.737886 0.040143 0.000000
0.769842 0.039844 0.000000
0.805437 0.039697 0.000000
0.844217 0.039657 0.000000
0.885718 0.039688 0.000000
0.000000 0.071280 0.000000
0.022725 0.076996 0.000000
0.049562 0.080951 0.000000
0.077683 0.083180 0.000000
0.105507 0.083720 0.000000
0.131449 0.082605 0.000000
0.153927 0.079870 0.000000
0.171356 0.075551 0.000000
0.183669 0.070264 0.000000
0.200679 0.067685 0.000000
0.224327 0.067550 0.000000
0.254059 0.068997 0.000000
0.288955 0.071367 0.000000
0.327832 0.074152 0.000000
0.369303 0.076953 0.000000
0.411834 0.079460 0.000000
0.453772 0.081426 0.000000
0.493370 0.082658 0.000000
0.528812 0.083002 0.000000
0.558223 0.082336 0.000000
0.579680 0.080566 0.000000
0.591233 0.077618 0.000000
0.600272 0.074604 0.000000
0.614389 0.072433 0.000000
0.633320 0.070957 0.000000
0.656763 0.070047 0.000000
0.684385 0.069592 0.000000
0.715827 0.069496 0.000000
0.750704 0.069676 0.000000
0.788617 0.070059 0.000000
0.829145 0.070583 0.000000
0.871856 0.071193 0.000000
0.916304 0.071841 0.000000
0.000000 0.109259 0.000000
0.024242 0.112564 0.000000
0.051350 0.113590 0.000000
0.077683 0.112370 0.000000
0.101658 0.108940 0.000000
0.121691 0.103336 0.000000
0.137157 0.096267 0.000000
0.155349 0.092775 0.000000
0.178567 0.092676 0.000000
0.206817 0.094792 0.000000
0.239615 0.098221 0.000000
0.276120 0.102260 0.000000
0.315219 0.106361 0.000000
0.355596 0.110088 0.000000
0.395778 0.113093 0.000000
0.434168 0.115100 0.000000
0.469072 0.115885 0.000000
0.498717 0.115270 0.000000
0.521271 0.113110 0.000000
0.534845 0.109291 0.000000
0.545456 0.105252 0.000000
0.560558 0.102398 0.000000
0.579985 0.100524 0.000000
0.603521 0.099453 0.000000
0.630908 0.099032 0.000000
0.661851 0.099129 0.000000
0.696026 0.099627 0.000000
0.733082 0.100427 0.000000
0.772644 0.101440 0.000000
0.814320 0.102588 0.000000
0.857701 0.103803 0.000000
0.902362 0.105027 0.000000
0.947865 0.106205 0.000000
0.000000 0.143447 0.000000
0.023853 0.142166 0.000000
0.049246 0.138085 0.000000
0.071804 0.131239 0.000000
0.090470 0.122379 0.000000
0.109988 0.117891 0.000000
0.132873 0.117771 0.000000
0.159703 0.120520 0.000000
0.190438 0.124986 0.000000
0.224582 0.130274 0.000000
0.261302 0.135676 0.000000
0.299505 0.140632 0.000000
0.337899 0.144693 0.000000
0.375038 0.147497 0.000000
0.409353 0.148751 0.000000
0.439176 0.148217 0.000000
0.462761 0.145702 0.000000
0.478297 0.141048 0.000000
0.490540 0.135962 0.000000
0.506666 0.132402 0.000000
0.526622 0.130110 0.000000
0.550279 0.128862 0.000000
0.577453 0.128462 0.000000
0.607916 0.128741 0.000000
0.641402 0.129551 0.000000
0.677610 0.130762 0.000000
0.716213 0.132258 0.000000
0.756859 0.133942 0.000000
0.799175 0.135723 0.000000
0.842769 0.137524 0.000000
0.887233 0.139277 0.000000
0.932144 0.140919 0.000000
0.977068 0.142398 0.000000
0.000000 0.167301 0.000000
0.021699 0.159257 0.000000
0.043598 0.148604 0.000000
0.064589 0.143036 0.000000
0.087241 0.142838 0.000000
0.112715 0.146183 0.000000
0.141421 0.151665 0.000000
0.173218 0.158191 0.000000
0.207554 0.164896 0.000000
0.243562 0.171091 0.000000
0.280137 0.176224 0.000000
0.315983 0.179847 0.000000
0.349659 0.181597 0.000000
0.379602 0.181175 0.000000
0.404156 0.178338 0.000000
0.421585 0.172887 0.000000
0.435520 0.166735 0.000000
0.452711 0.162445 0.000000
0.473231 0.159716 0.000000
0.497036 0.158275 0.000000
0.524019 0.157884 0.000000
0.554020 0.158335 0.000000
0.586830 0.159448 0.000000
0.622202 0.161062 0.000000
0.659853 0.163039 0.000000
0.699474 0.165255 0.000000
0.740727 0.167600 0.000000
0.783253 0.169979 0.000000
0.826675 0.172306 0.000000
0.870596 0.174505 0.000000
0.914606 0.176508 0.000000
0.958281 0.178256 0.000000
1.000000 0.179694 0.000000
0.000000 0.174949 0.000000
0.019146 0.168215 0.000000
0.041667 0.167879 0.000000
0.065850 0.171781 0.000000
0.092564 0.178258 0.000000
0.122028 0.186014 0.000000
0.153974 0.194022 0.000000
0.187769 0.201466 0.000000
0.222493 0.207687 0.000000
0.257005 0.212151 0.000000
0.289992 0.214422 0.000000
0.319998 0.214142 0.000000
0.345458 0.211018 0.000000
0.364713 0.204805 0.000000
0.380396 0.197572 0.000000
0.398692 0.192529 0.000000
0.419808 0.189344 0.000000
0.443789 0.187694 0.000000
0.470606 0.187298 0.000000
0.500162 0.187911 0.000000
0.532311 0.189318 0.000000
0.566856 0.191330 0.000000
0.603564 0.193782 0.000000
0.642163 0.196527 0.000000
0.682355 0.199436 0.000000
0.723814 0.202392 0.000000
0.766191 0.205294 0.000000
0.809118 0.208051 0.000000
0.852208 0.210582 0.000000
0.895059 0.212814 0.000000
0.937257 0.214682 0.000000
0.978373 0.216130 0.000000
1.000000 0.217268 0.000000
0.000000 0.192898 0.000000
0.019105 0.197318 0.000000
0.043865 0.204766 0.000000
0.071011 0.213741 0.000000
0.100565 0.223053 0.000000
0.132127 0.231754 0.000000
0.164969 0.239079 0.000000
0.198107 0.244405 0.000000
0.230355 0.247224 0.000000
0.260368 0.247117 0.000000
0.286671 0.243738 0.000000
0.307684 0.236800 0.000000
0.325164 0.228474 0.000000
0.344606 0.222655 0.000000
0.366353 0.218995 0.000000
0.390539 0.217119 0.000000
0.417211 0.216705 0.000000
0.446341 0.217469 0.000000
0.477843 0.219161 0.000000
0.511573 0.221565 0.000000
0.547344 0.224488 0.000000
0.584927 0.227759 0.000000
0.624060 0.231229 0.000000
0.664451 0.234762 0.000000
0.705782 0.238241 0.000000
0.747710 0.241558 0.000000
0.789874 0.244619 0.000000
0.831895 0.247338 0.000000
0.873377 0.249641 0.000000
0.913910 0.251459 0.000000
0.953073 0.252731 0.000000
0.990432 0.253403 0.000000
1.000000 0.253774 0.000000
0.000000 0.231190 0.000000
0.020166 0.241373 0.000000
0.047326 0.251990 0.000000
0.076638 0.261956 0.000000
0.107568 0.270400 0.000000
0.139290 0.276609 0.000000
0.170751 0.280002 0.000000
0.200715 0.280097 0.000000
0.227799 0.276497 0.000000
0.250502 0.268871 0.000000
0.269822 0.259444 0.000000
0.290451 0.252825 0.000000
0.312864 0.248668 0.000000
0.337283 0.246552 0.000000
0.363833 0.246106 0.000000
0.392557 0.247009 0.000000
0.423426 0.248979 0.000000
0.456352 0.251768 0.000000
0.491194 0.255156 0.000000
0.527766 0.258951 0.000000
0.565842 0.262980 0.000000
0.605166 0.267090 0.000000
0.645448 0.271145 0.000000
0.686374 0.275024 0.000000
0.727607 0.278618 0.000000
0.768789 0.281829 0.000000
0.809547 0.284571 0.000000
0.849487 0.286765 0.000000
0.888206 0.288340 0.000000
0.925269 0.289265 0.000043
0.960246 0.289487 0.000134
0.992719 0.288909 0.000211
0.999918 0.287737 0.000219
0.000000 0.280831 0.000000
0.021303 0.292071 0.000000
0.050292 0.301649 0.000000
0.080559 0.308762 0.000000
0.111184 0.312754 0.000000
0.141042 0.313081 0.000000
0.168845 0.309294 0.000000
0.193171 0.301016 0.000000
0.214367 0.290482 0.000000
0.236226 0.283039 0.000000
0.259339 0.278367 0.000000
0.284020 0.275992 0.000000
0.310472 0.275501 0.000000
0.338808 0.276532 0.000000
0.369060 0.278771 0.000000
0.401193 0.281938 0.000000
0.435113 0.285788 0.000000
0.470678 0.290102 0.000000
0.507701 0.294688 0.000000
0.545957 0.299375 0.000000
0.585189 0.304008 0.000000
0.625108 0.308450 0.000000
0.665404 0.312580 0.000000
0.705742 0.316287 0.000000
0.745766 0.319471 0.000000
0.785104 0.322046 0.000000
0.823338 0.323990 0.000081
0.860087 0.325189 0.000184
0.894948 0.325551 0.000276
0.927497 0.325018 0.000354
0.957296 0.323533 0.000417
0.983902 0.321050 0.000463
0.999823 0.317510 0.000473
0.000000 0.332824 0.000000
0.021914 0.340862 0.000000
0.051655 0.345479 0.000000
0.081353 0.346068 0.000000
0.109814 0.342125 0.000000
0.135696 0.333231 0.000000
0.158796 0.321589 0.000000
0.181928 0.313298 0.000000
0.205776 0.308091 0.000000
0.230748 0.305441 0.000000
0.257127 0.304890 0.000000
0.285094 0.306040 0.000000
0.314743 0.308538 0.000000
0.346094 0.312076 0.000000
0.379101 0.316382 0.000000
0.413665 0.321213 0.000000
0.449637 0.326355 0.000000
0.486826 0.331617 0.000000
0.525005 0.336828 0.000000
0.563915 0.341836 0.000000
0.603268 0.346504 0.000000
0.642754 0.350710 0.000000
0.682036 0.354342 0.000000
0.720723 0.357381 0.000105
0.758478 0.359666 0.000221
0.794922 0.361100 0.000325
0.829656 0.361610 0.000418
0.862266 0.361127 0.000496
0.892328 0.359593 0.000560
0.919410 0.356950 0.000606
0.943066 0.353149 0.000633
0.962847 0.348146 0.000641
0.978292 0.341898 0.000627
0.000000 0.378175 0.000000
0.021650 0.379055 0.000000
0.050707 0.374991 0.000000
0.078079 0.365516 0.000000
0.103108 0.352768 0.000000
0.127554 0.343605 0.000000
0.152174 0.337841 0.000000
0.177466 0.334899 0.000000
0.203795 0.334275 0.000000
0.231412 0.335531 0.000000
0.260475 0.338280 0.000000
0.291055 0.342183 0.000000
0.323158 0.346940 0.000000
0.356726 0.352284 0.000000
0.391649 0.357980 0.000000
0.427771 0.363817 0.000000
0.464896 0.369607 0.000000
0.502792 0.375182 0.000000
0.541198 0.380391 0.000000
0.579825 0.385098 0.000000
0.618313 0.389271 0.000118
0.656371 0.392716 0.000244
0.693649 0.395322 0.000360
0.729777 0.396998 0.000466
0.764370 0.397662 0.000560
0.797027 0.397238 0.000639
0.827338 0.395660 0.000703
0.854879 0.392867 0.000749
0.879218 0.388801 0.000776
0.899911 0.383413 0.000782
0.916510 0.376657 0.000767
0.931883 0.369827 0.000747
0.951784 0.365166 0.000758
0.000000 0.407887 0.000000
0.020324 0.397867 0.000000
0.047300 0.384020 0.000000
0.073104 0.373960 0.000000
0.098531 0.367619 0.000000
0.124173 0.364368 0.000000
0.150477 0.363657 0.000000
0.177764 0.365008 0.000000
0.206254 0.367998 0.000000
0.236076 0.372259 0.000000
0.267283 0.377461 0.000000
0.299861 0.383315 0.000000
0.333738 0.389563 0.000000
0.368793 0.395974 0.000000
0.404863 0.402343 0.000000
0.441742 0.408487 0.000000
0.479195 0.414239 0.000000
0.516911 0.419541 0.000119
0.554635 0.424183 0.000254
0.592060 0.428025 0.000382
0.628851 0.430958 0.000500
0.664651 0.432882 0.000607
0.699090 0.433707 0.000702
0.731782 0.433350 0.000782
0.762326 0.431737 0.000846
0.790312 0.428800 0.000891
0.815316 0.424478 0.000918
0.836906 0.418715 0.000924
0.854641 0.411460 0.000907
0.870913 0.404000 0.000884
0.891311 0.398887 0.000892
0.915873 0.395902 0.000929
0.944421 0.394758 0.000992
0.000000 0.415346 0.000000
0.018574 0.404364 0.000000
0.044844 0.397425 0.000000
0.070867 0.393847 0.000000
0.097170 0.393035 0.000000
0.124147 0.394469 0.000000
0.152081 0.397693 0.000000
0.181157 0.402303 0.000000
0.211476 0.407946 0.000000
0.243069 0.414307 0.000000
0.275903 0.421104 0.000000
0.309893 0.428089 0.000000
0.344905 0.435038 0.000000
0.380764 0.441751 0.000000
0.417218 0.448132 0.000110
0.454052 0.453962 0.000253
0.491009 0.459065 0.000390
0.527793 0.463309 0.000520
0.564084 0.466575 0.000640
0.599545 0.468753 0.000748
0.633818 0.469745 0.000844
0.666530 0.469461 0.000924
0.697293 0.467821 0.000989
0.725708 0.464750 0.001034
0.751362 0.460180 0.001061
0.773832 0.454051 0.001065
0.792686 0.446306 0.001047
0.809887 0.438210 0.001021
0.830807 0.432632 0.001027
0.855582 0.429369 0.001062
0.884075 0.428113 0.001124
0.916114 0.428576 0.001209
0.951488 0.430492 0.001315
0.000000 0.427261 0.000000
0.017547 0.423339 0.000000
0.043874 0.422411 0.000000
0.070561 0.423917 0.000000
0.097955 0.427363 0.000000
0.126296 0.432317 0.000000
0.155736 0.438396 0.000000
0.186350 0.445259 0.000000
0.218145 0.452603 0.000000
0.251070 0.460161 0.000000
0.285023 0.467690 0.000000
0.319824 0.475044 0.000092
0.355299 0.482003 0.000242
0.391253 0.488347 0.000387
0.427435 0.493916 0.000527
0.463568 0.498567 0.000658
0.499351 0.502171 0.000780
0.534460 0.504609 0.000889
0.568554 0.505776 0.000986
0.601272 0.505573 0.001067
0.632241 0.503913 0.001132
0.661069 0.500715 0.001177
0.687357 0.495906 0.001203
0.710690 0.489420 0.001207
0.730645 0.481194 0.001187
0.748804 0.472459 0.001159
0.770271 0.466402 0.001162
0.795279 0.462849 0.001195
0.823737 0.461468 0.001255
0.855509 0.461950 0.001340
0.890423 0.464008 0.001446
0.928270 0.467376 0.001571
0.968809 0.471805 0.001711
0.000000 0.451786 0.000000
0.017004 0.453351 0.000000
0.043874 0.457011 0.000000
0.071493 0.462301 0.000000
0.100063 0.468809 0.000000
0.129704 0.476171 0.000000
0.160463 0.484061 0.000000
0.192323 0.492190 0.000000
0.225191 0.500351 0.000068
0.258942 0.508324 0.000222
0.293449 0.515836 0.000374
0.328516 0.522697 0.000521
0.363915 0.528735 0.000663
0.399388 0.533798 0.000796
0.434650 0.537746 0.000919
0.469397 0.540451 0.001030
0.503299 0.541798 0.001128
0.536010 0.541684 0.001210
0.567169 0.540011 0.001275
0.596396 0.536694 0.001320
0.623302 0.531654 0.001346
0.647481 0.524819 0.001349
0.668520 0.516123 0.001328
0.687662 0.506747 0.001296
0.709700 0.500195 0.001296
0.734964 0.496339 0.001328
0.763405 0.494822 0.001387
0.794926 0.495315 0.001471
0.829394 0.497508 0.001577
0.866633 0.501116 0.001702
0.906435 0.505872 0.001844
0.948560 0.511526 0.001999
0.992736 0.517848 0.002165
0.000000 0.486637 0.000000
0.016747 0.492255 0.000000
0.044457 0.499188 0.000000
0.073131 0.507044 0.000000
0.102856 0.515477 0.000000
0.133639 0.524207 0.000040
0.165413 0.533014 0.000195
0.198133 0.541563 0.000351
0.231666 0.549630 0.000505
0.265840 0.557011 0.000655
0.300448 0.563524 0.000799
0.335251 0.569003 0.000934
0.369984 0.573300 0.001058
0.404355 0.576277 0.001171
0.438053 0.577812 0.001270
0.470744 0.577791 0.001352
0.502078 0.576113 0.001418
0.531689 0.572686 0.001463
0.559197 0.567424 0.001488
0.584206 0.560250 0.001491
0.606312 0.551092 0.001468
0.626460 0.541074 0.001434
0.649095 0.534012 0.001431
0.674636 0.529841 0.001460
0.703078 0.528179 0.001518
0.734365 0.528672 0.001602
0.768400 0.530993 0.001708
0.805042 0.534834 0.001834
0.844116 0.539911 0.001976
0.885412 0.545958 0.002133
0.928688 0.552726 0.002300
0.973672 0.559984 0.002476
0.999022 0.567877 0.002608
0.000000 0.529531 0.000000
0.016630 0.537878 0.000000
0.045323 0.546858 0.000009
0.075001 0.556245 0.000164
0.105711 0.565635 0.000322
0.137397 0.574761 0.000481
0.169952 0.583385 0.000637
0.203226 0.591290 0.000789
0.237035 0.598281 0.000934
0.271159 0.604181 0.001071
0.305352 0.608833 0.001198
0.339337 0.612087 0.001312
0.372818 0.613815 0.001411
0.405475 0.613896 0.001495
0.436970 0.612222 0.001561
0.466950 0.608693 0.001607
0.495043 0.603218 0.001631
0.520866 0.595713 0.001633
0.544022 0.586103 0.001609
0.565197 0.575442 0.001572
0.588453 0.567857 0.001566
0.614294 0.563357 0.001593
0.642756 0.561538 0.001650
0.673825 0.562023 0.001733
0.707440 0.564462 0.001839
0.743497 0.568530 0.001965
0.781852 0.573923 0.002109
0.822325 0.580357 0.002266
0.864705 0.587569 0.002435
0.908745 0.595312 0.002613
0.954175 0.603354 0.002797
0.998883 0.611476 0.002980
0.998854 0.620451 0.003056
0.000000 0.578307 0.000162
0.016439 0.588240 0.000289
0.046086 0.598213 0.000449
0.076735 0.607918 0.000610
0.108306 0.617101 0.000768
0.140674 0.625532 0.000922
0.173676 0.633005 0.001070
0.207113 0.639332 0.001209
0.240754 0.644341 0.001337
0.274342 0.647880 0.001452
0.307593 0.649809 0.001553
0.340203 0.650000 0.001638
0.371846 0.648337 0.001704
0.402179 0.644714 0.001750
0.430842 0.639033 0.001774
0.457462 0.631207 0.001775
0.481650 0.621154 0.001750
0.503870 0.609852 0.001710
0.527773 0.601728 0.001701
0.553936 0.596887 0.001726
0.582437 0.594900 0.001782
0.613304 0.595366 0.001864
0.646513 0.597916 0.001970
0.681996 0.602204 0.002097
0.719641 0.607907 0.002241
0.759299 0.614725 0.002400
0.800787 0.622378 0.002570
0.843887 0.630603 0.002750
0.888353 0.639155 0.002936
0.933908 0.647805 0.003125
0.980254 0.656337 0.003316
0.998711 0.665110 0.003437
0.998683 0.673784 0.003511
0.000000 0.630774 0.000610
0.016146 0.641033 0.000739
0.046729 0.650777 0.000900
0.078185 0.659739 0.001056
0.110373 0.667698 0.001205
0.143113 0.674453 0.001346
0.176193 0.679827 0.001476
0.209371 0.683657 0.001593
0.242380 0.685793 0.001695
0.274929 0.686101 0.001780
0.306705 0.684457 0.001847
0.337376 0.680748 0.001893
0.366594 0.674871 0.001917
0.393994 0.666732 0.001917
0.419198 0.656244 0.001891
0.442479 0.644305 0.001848
0.467055 0.635628 0.001837
0.493561 0.630433 0.001860
0.522121 0.628265 0.001914
0.552803 0.628704 0.001995
0.585620 0.631356 0.002101
0.620539 0.635856 0.002228
0.657483 0.641864 0.002373
0.696334 0.649061 0.002533
0.736935 0.657151 0.002705
0.779098 0.665856 0.002886
0.822600 0.674917 0.003074
0.867190 0.684091 0.003266
0.912591 0.693150 0.003458
0.958498 0.701881 0.003649
0.998567 0.710204 0.003822
0.998467 0.718638 0.003894
0.998282 0.726167 0.003957
0.000000 0.684442 0.001067
0.015759 0.693909 0.001189
0.047125 0.702356 0.001341
0.079159 0.709546 0.001483
0.111667 0.715291 0.001615
0.144425 0.719417 0.001733
0.177180 0.721768 0.001836
0.209655 0.722200 0.001923
0.241549 0.720582 0.001990
0.272544 0.716795 0.002036
0.302300 0.710730 0.002060
0.330464 0.702287 0.002059
0.356667 0.691375 0.002032
0.381022 0.678802 0.001987
0.406296 0.669557 0.001972
0.433168 0.663994 0.001993
0.461807 0.661635 0.002045
0.492320 0.662036 0.002126
0.524759 0.664782 0.002232
0.559127 0.669488 0.002359
0.595379 0.675795 0.002505
0.633428 0.683366 0.002666
0.673148 0.691890 0.002840
0.714377 0.701073 0.003023
0.756917 0.710641 0.003212
0.800542 0.720339 0.003406
0.844996 0.729925 0.003601
0.889996 0.739174 0.003794
0.935237 0.747875 0.003983
0.980388 0.755829 0.004165
0.997369 0.763419 0.004273
0.997202 0.770236 0.004331
0.997066 0.775753 0.004378
0.000000 0.737010 0.001516
0.015251 0.744611 0.001621
0.047178 0.750732 0.001754
0.079504 0.755161 0.001874
0.111993 0.757732 0.001978
0.144380 0.758295 0.002065
0.176379 0.756711 0.002133
0.207682 0.752854 0.002179
0.237961 0.746610 0.002203
0.266873 0.737872 0.002201
0.294057 0.726544 0.002174
0.319497 0.713344 0.002126
0.345495 0.703515 0.002108
0.372756 0.697571 0.002126
0.401493 0.695010 0.002177
0.431854 0.695363 0.002257
0.463929 0.698195 0.002363
0.497757 0.703099 0.002491
0.533327 0.709698 0.002637
0.570583 0.717640 0.002799
0.609427 0.726594 0.002974
0.649724 0.736253 0.003159
0.691303 0.746327 0.003351
0.733963 0.756548 0.003546
0.777468 0.766661 0.003743
0.821560 0.776430 0.003938
0.865949 0.785632 0.004129
0.910327 0.794058 0.004314
0.954359 0.801510 0.004489
0.996280 0.807832 0.004649
0.996137 0.813665 0.004699
0.996031 0.817971 0.004735
0.995967 0.820587 0.004757
0.000000 0.786182 0.001935
0.014610 0.790888 0.002014
0.046819 0.793686 0.002120
0.079106 0.794387 0.002207
0.111195 0.792844 0.002276
0.142791 0.788926 0.002322
0.173578 0.782510 0.002346
0.203221 0.773486 0.002344
0.231369 0.761752 0.002315
0.257903 0.747932 0.002265
0.284651 0.737504 0.002243
0.312325 0.731166 0.002260
0.341179 0.728390 0.002309
0.371404 0.728685 0.002388
0.403130 0.731594 0.002494
0.436431 0.736690 0.002622
0.471327 0.743576 0.002769
0.507796 0.751883 0.002932
0.545769 0.761264 0.003109
0.585139 0.771396 0.003295
0.625759 0.781975 0.003489
0.667453 0.792718 0.003686
0.710009 0.803360 0.003885
0.753187 0.813650 0.004082
0.796722 0.823355 0.004276
0.840320 0.832254 0.004462
0.883667 0.840141 0.004639
0.926426 0.846822 0.004805
0.968238 0.852113 0.004956
0.995096 0.856122 0.005059
0.995027 0.858925 0.005082
0.995005 0.859805 0.005090
0.995035 0.858609 0.005080
0.000000 0.829663 0.002306
0.013833 0.830475 0.002350
0.045999 0.828981 0.002419
0.077873 0.825009 0.002466
0.109152 0.818431 0.002489
0.139509 0.809129 0.002487
0.168605 0.796997 0.002457
0.196238 0.782566 0.002404
0.223763 0.771524 0.002379
0.251871 0.764778 0.002393
0.280863 0.761777 0.002441
0.310971 0.762003 0.002519
0.342362 0.764980 0.002624
0.375146 0.770260 0.002753
0.409379 0.777428 0.002901
0.445069 0.786095 0.003065
0.482177 0.795900 0.003243
0.520622 0.806502 0.003431
0.560285 0.817584 0.003626
0.601013 0.828850 0.003826
0.642617 0.840020 0.004027
0.684880 0.850832 0.004226
0.727555 0.861042 0.004422
0.770368 0.870418 0.004610
0.813024 0.878744 0.004790
0.855200 0.885816 0.004957
0.896556 0.891441 0.005110
0.936731 0.895439 0.005246
0.975345 0.897639 0.005363
0.994063 0.898249 0.005416
0.994091 0.897083 0.005406
0.994177 0.893606 0.005376
0.994322 0.887671 0.005326
0.000000 0.865156 0.002608
0.012929 0.861103 0.002609
0.044683 0.854371 0.002632
0.075739 0.844800 0.002629
0.105765 0.832280 0.002599
0.134501 0.817247 0.002543
0.162830 0.805575 0.002515
0.191396 0.798409 0.002527
0.220545 0.795169 0.002573
0.250552 0.795318 0.002650
0.281622 0.798354 0.002755
0.313903 0.803811 0.002884
0.347482 0.811254 0.003032
0.382401 0.820277 0.003198
0.418648 0.830502 0.003377
0.456172 0.841572 0.003567
0.494881 0.853156 0.003764
0.534643 0.864943 0.003966
0.575294 0.876641 0.004169
0.616638 0.887977 0.004370
0.658448 0.898694 0.004568
0.700471 0.908550 0.004759
0.742428 0.917318 0.004940
0.784014 0.924785 0.005109
0.824905 0.930749 0.005264
0.864754 0.935021 0.005401
0.903197 0.937423 0.005519
0.939849 0.937785 0.005615
0.974311 0.935949 0.005687
0.993235 0.932030 0.005702
0.993384 0.925945 0.005650
0.993599 0.917163 0.005576
0.993870 0.906132 0.005482
0.000000 0.890366 0.002823
0.011911 0.880499 0.002772
0.042851 0.867600 0.002740
0.072691 0.851977 0.002683
0.101849 0.839660 0.002652
0.130896 0.832059 0.002660
0.160224 0.828569 0.002705
0.190147 0.828629 0.002781
0.220912 0.831716 0.002886
0.252700 0.837343 0.003015
0.285636 0.845055 0.003164
0.319790 0.854429 0.003331
0.355183 0.865069 0.003511
0.391791 0.876605 0.003703
0.429546 0.888689 0.003902
0.468342 0.900997 0.004105
0.508039 0.913225 0.004310
0.548461 0.925085 0.004514
0.589403 0.936311 0.004714
0.630630 0.946649 0.004906
0.671880 0.955863 0.005090
0.712868 0.963729 0.005261
0.753284 0.970037 0.005417
0.792798 0.974589 0.005556
0.831058 0.977197 0.005676
0.867696 0.977687 0.005773
0.902322 0.975891 0.005845
