flutter_app/assets/lut/cameras/fxnr_33.cube
TITLE "FXN-R Fuji Cool Cyan"
LUT_3D_SIZE 5
DOMAIN_MIN 0.0 0.0 0.0
DOMAIN_MAX 1.0 1.0 1.0
0.000288 0.000020 0.000000
0.205423 0.000000 0.000000
0.362051 0.000000 0.000000
0.708131 0.000000 0.000000
0.844960 0.000000 0.000000
0.000000 0.192898 0.000000
0.230355 0.247224 0.000000
0.417211 0.216705 0.000000
0.705782 0.238241 0.000000
1.000000 0.253774 0.000000
0.000000 0.451786 0.000000
0.225191 0.500351 0.000068
0.503299 0.541798 0.001128
0.709700 0.500195 0.001296
0.992736 0.517848 0.002165
0.000000 0.829663 0.002306
0.223763 0.771524 0.002379
0.482177 0.795900 0.003243
0.813024 0.878744 0.004790
0.994322 0.887671 0.005326
0.000000 1.000000 0.003782
0.252357 1.000000 0.004430
0.539857 1.000000 0.005165
0.768641 1.000000 0.005749
0.990037 1.000000 0.006314
0.000000 0.000000 0.116510
0.207469 0.000000 0.220108
0.403753 0.000000 0.207141
0.668675 0.000000 0.222830
0.869250 0.000000 0.211904
0.000000 0.211153 0.208409
0.216675 0.232911 0.229797
0.425241 0.218401 0.215336
0.733480 0.243698 0.240179
0.999975 0.245362 0.241693
0.000000 0.459316 0.218773
0.230191 0.519212 0.244687
0.494155 0.532536 0.248386
0.699885 0.491701 0.226562
0.996555 0.535718 0.244740
0.000000 0.820837 0.255218
0.215916 0.758413 0.232181
0.497312 0.825383 0.249432
0.823797 0.891209 0.265702
0.988540 0.852305 0.251167
0.000000 1.000000 0.254528
0.252011 1.000000 0.273552
0.515770 1.000000 0.257766
0.755756 1.000000 0.241021
0.983829 1.000000 0.234016
0.000000 0.000000 0.383692
0.174800 0.000000 0.384375
0.447504 0.000000 0.475528
0.624180 0.000000 0.433929
0.910894 0.000000 0.467952
0.000000 0.232819 0.476316
0.197187 0.212306 0.439190
0.442504 0.224629 0.470099
0.749765 0.245065 0.519060
0.965256 0.229820 0.492759
0.000000 0.477954 0.472211
0.231487 0.530223 0.523957
0.470583 0.507551 0.501510
0.712134 0.498859 0.492931
0.989215 0.552340 0.545993
0.000000 0.788045 0.510251
0.215133 0.770721 0.497264
0.511477 0.853646 0.549206
0.819144 0.886936 0.568765
0.982822 0.826166 0.528092
0.000000 1.000000 0.554428
0.246474 1.000000 0.577547
0.496424 1.000000 0.534819
0.746601 1.000000 0.517803
0.977696 1.000000 0.506350
0.000000 0.000000 0.676094
0.174586 0.000000 0.592788
0.454145 0.000000 0.738239
0.624498 0.000000 0.663866
0.953685 0.000000 0.750481
0.000000 0.236092 0.744782
0.192839 0.207998 0.666247
0.460683 0.231044 0.751897
0.749459 0.240855 0.796716
0.931697 0.217542 0.731635
0.000000 0.498462 0.753331
0.227655 0.529643 0.803226
0.449257 0.484964 0.738086
0.735654 0.513887 0.784920
0.981687 0.562991 0.861826
0.000000 0.753150 0.744927
0.217764 0.796422 0.787842
0.520635 0.873812 0.864610
0.795453 0.861902 0.852845
0.976957 0.809602 0.801026
0.000000 1.000000 0.870637
0.234802 1.000000 0.863584
0.483274 1.000000 0.807537
0.738365 1.000000 0.793444
0.971772 1.000000 0.769392
0.000000 0.000000 0.868611
0.194711 0.000000 0.906424
0.414162 0.000000 0.912072
0.647414 0.000000 0.930269
0.986158 0.000000 1.000000
0.000000 0.213838 0.923107
0.195865 0.211674 0.930070
0.474045 0.234776 1.000000
0.728832 0.230162 1.000000
0.936433 0.214449 0.996087
0.000000 0.514453 1.000000
0.217852 0.514808 1.000000
0.447139 0.483342 0.999637
0.763055 0.531800 1.000000
0.977413 0.566974 1.000000
0.000000 0.751192 1.000000
0.222173 0.826956 1.000000
0.524573 0.883183 1.000000
0.766008 0.830326 1.000000
0.971712 0.799501 1.000000
0.000000 1.000000 1.000000
0.221726 1.000000 1.000000
0.474662 1.000000 1.000000
0.729201 1.000000 1.000000
0.946801 1.000000 1.000000
