flutter_app/assets/lut/cameras/grd_r.cube
TITLE "GRD-R"
# DAZZ Camera LUT - GRD-R
# Fixed v2 - Professional color science
LUT_3D_SIZE 9
0.000000 0.000000 0.000000
0.000000 0.000000 0.000000
0.099329 0.000000 0.000000
0.237175 0.000000 0.000000
0.365627 0.000000 0.000000
0.492836 0.000000 0.000000
0.614024 0.000000 0.000000
0.723764 0.000000 0.000000
0.837022 0.000000 0.000000
0.000000 0.000000 0.000000
0.000000 0.000487 0.000000
0.120081 0.006753 0.000000
0.257927 0.012899 0.000000
0.386379 0.018627 0.000000
0.513588 0.024299 0.000000
0.634776 0.029702 0.000000
0.744516 0.034595 0.000000
0.857775 0.039645 0.000000
0.000000 0.155143 0.000000
0.001380 0.161393 0.000000
0.141914 0.167659 0.000000
0.279761 0.173805 0.000000
0.408212 0.179532 0.000000
0.535421 0.185204 0.000000
0.656610 0.190608 0.000000
0.766350 0.195501 0.000000
0.879608 0.200551 0.000000
0.000000 0.313772 0.000000
0.022905 0.320021 0.000000
0.163439 0.326287 0.000000
0.301286 0.332434 0.000000
0.429737 0.338161 0.000000
0.556946 0.343833 0.000000
0.678135 0.349236 0.000000
0.787875 0.354129 0.000000
0.901133 0.359179 0.000000
0.000000 0.465570 0.000000
0.043503 0.471819 0.000000
0.184037 0.478085 0.000000
0.321883 0.484231 0.000000
0.450335 0.489959 0.000000
0.577544 0.495631 0.000000
0.698732 0.501034 0.000000
0.808472 0.505927 0.000000
0.921731 0.510977 0.000000
0.000000 0.617367 0.000000
0.064101 0.623617 0.000000
0.204635 0.629883 0.000000
0.342481 0.636029 0.000000
0.470933 0.641757 0.000000
0.598142 0.647428 0.000000
0.719330 0.652832 0.004744
0.829070 0.657725 0.009637
0.942328 0.662775 0.014687
0.000000 0.754934 0.000000
0.082767 0.761184 0.000000
0.223301 0.767450 0.000462
0.361148 0.773596 0.006608
0.489599 0.779323 0.012335
0.616808 0.784995 0.018007
0.737997 0.790399 0.023411
0.847737 0.795292 0.028304
0.960995 0.800342 0.033354
0.000000 0.887757 0.005969
0.100790 0.894007 0.012219
0.241324 0.900273 0.018485
0.379171 0.906419 0.024631
0.507622 0.912146 0.030358
0.634831 0.917818 0.036030
0.756020 0.923222 0.041434
0.865760 0.928115 0.046327
0.979018 0.933165 0.051377
0.000000 1.000000 0.026245
0.121066 1.000000 0.032495
0.261600 1.000000 0.038761
0.399447 1.000000 0.044907
0.527898 1.000000 0.050634
0.655107 1.000000 0.056306
0.776296 1.000000 0.061710
0.886036 1.000000 0.066603
0.999294 1.000000 0.071653
0.000000 0.000000 0.000676
0.000000 0.000000 0.006925
0.101462 0.000000 0.013191
0.239308 0.000000 0.019337
0.367760 0.000000 0.025065
0.494968 0.000000 0.030737
0.616157 0.000000 0.036140
0.725897 0.000000 0.041033
0.839155 0.000000 0.046083
0.000000 0.000000 0.021428
0.000000 0.002620 0.027677
0.122214 0.008886 0.033943
0.260060 0.015032 0.040090
0.388512 0.020759 0.045817
0.515721 0.026431 0.051489
0.636909 0.031835 0.056892
0.746649 0.036728 0.061785
0.859907 0.041778 0.066835
0.000000 0.157276 0.043261
0.003513 0.163526 0.049511
0.144047 0.169792 0.055777
0.281894 0.175938 0.061923
0.410345 0.181665 0.067650
0.537554 0.187337 0.073322
0.658743 0.192741 0.078726
0.768483 0.197634 0.083619
0.881741 0.202683 0.088669
0.000000 0.315905 0.064786
0.025038 0.322154 0.071036
0.165572 0.328420 0.077302
0.303418 0.334566 0.083448
0.431870 0.340294 0.089175
0.559079 0.345966 0.094847
0.680267 0.351369 0.100251
0.790007 0.356262 0.105144
0.903266 0.361312 0.110193
0.000000 0.467702 0.085384
0.045636 0.473952 0.091633
0.186170 0.480218 0.097899
0.324016 0.486364 0.104046
0.452468 0.492092 0.109773
0.579677 0.497763 0.115445
0.700865 0.503167 0.120848
0.810605 0.508060 0.125741
0.923863 0.513110 0.130791
0.000000 0.619500 0.105982
0.066233 0.625750 0.112231
0.206767 0.632016 0.118497
0.344614 0.638162 0.124643
0.473065 0.643889 0.130371
0.600274 0.649561 0.136043
0.721463 0.654965 0.141446
0.831203 0.659858 0.146339
0.944461 0.664908 0.151389
0.000000 0.757067 0.124648
0.084900 0.763316 0.130898
0.225434 0.769582 0.137164
0.363281 0.775729 0.143310
0.491732 0.781456 0.149037
0.618941 0.787128 0.154709
0.740130 0.792531 0.160113
0.849870 0.797424 0.165006
0.963128 0.802474 0.170056
0.000000 0.889890 0.142671
0.102923 0.896139 0.148921
0.243457 0.902406 0.155187
0.381304 0.908552 0.161333
0.509755 0.914279 0.167060
0.636964 0.919951 0.172732
0.758153 0.925354 0.178136
0.867893 0.930248 0.183029
0.981151 0.935297 0.188079
0.000000 1.000000 0.162947
0.123199 1.000000 0.169197
0.263733 1.000000 0.175463
0.401580 1.000000 0.181609
0.530031 1.000000 0.187336
0.657240 1.000000 0.193008
0.778429 1.000000 0.198412
0.888169 1.000000 0.203305
1.000000 1.000000 0.208355
0.000000 0.000000 0.147049
0.000000 0.000000 0.153298
0.103745 0.000000 0.159564
0.241592 0.000000 0.165711
0.370043 0.000000 0.171438
0.497252 0.000000 0.177110
0.618441 0.000000 0.182513
0.728181 0.000000 0.187406
0.841439 0.000000 0.192456
0.000000 0.000000 0.167801
0.000000 0.004904 0.174050
0.124497 0.011170 0.180316
0.262344 0.017316 0.186463
0.390795 0.023043 0.192190
0.518004 0.028715 0.197862
0.639193 0.034119 0.203265
0.748933 0.039012 0.208158
0.862191 0.044061 0.213208
0.000000 0.159560 0.189634
0.005797 0.165809 0.195884
0.146331 0.172075 0.202150
0.284177 0.178221 0.208296
0.412629 0.183949 0.214024
0.539838 0.189621 0.219696
0.661026 0.195024 0.225099
0.770766 0.199917 0.229992
0.884025 0.204967 0.235042
0.000000 0.318188 0.211159
0.027322 0.324438 0.217409
0.167856 0.330704 0.223675
0.305702 0.336850 0.229821
0.434154 0.342577 0.235548
0.561362 0.348249 0.241220
0.682551 0.353653 0.246624
0.792291 0.358546 0.251517
0.905549 0.363596 0.256567
0.000000 0.469986 0.231757
0.047919 0.476236 0.238006
0.188453 0.482502 0.244272
0.326300 0.488648 0.250419
0.454751 0.494375 0.256146
0.581960 0.500047 0.261818
0.703149 0.505451 0.267221
0.812889 0.510344 0.272114
0.926147 0.515394 0.277164
0.000000 0.621784 0.252355
0.068517 0.628033 0.258604
0.209051 0.634299 0.264870
0.346898 0.640446 0.271016
0.475349 0.646173 0.276744
0.602558 0.651845 0.282416
0.723747 0.657248 0.287819
0.833487 0.662141 0.292712
0.946745 0.667191 0.297762
0.000000 0.759351 0.271021
0.087184 0.765600 0.277271
0.227718 0.771866 0.283537
0.365564 0.778012 0.289683
0.494016 0.783740 0.295410
0.621225 0.789412 0.301082
0.742413 0.794815 0.306486
0.852153 0.799708 0.311379
0.965411 0.804758 0.316429
0.000000 0.892174 0.289044
0.105207 0.898423 0.295294
0.245741 0.904689 0.301560
0.383587 0.910835 0.307706
0.512039 0.916563 0.313434
0.639248 0.922235 0.319105
0.760436 0.927638 0.324509
0.870176 0.932531 0.329402
0.983434 0.937581 0.334452
0.000000 1.000000 0.309320
0.125483 1.000000 0.315570
0.266017 1.000000 0.321836
0.403863 1.000000 0.327982
0.532315 1.000000 0.333709
0.659524 1.000000 0.339381
0.780712 1.000000 0.344785
0.890452 1.000000 0.349678
1.000000 1.000000 0.354728
0.000000 0.000000 0.290887
0.000000 0.000000 0.297136
0.105989 0.000000 0.303402
0.243836 0.000000 0.309548
0.372287 0.000000 0.315276
0.499496 0.000000 0.320948
0.620685 0.000000 0.326351
0.730425 0.000000 0.331244
0.843683 0.000000 0.336294
0.000000 0.000898 0.311639
0.000000 0.007148 0.317888
0.126741 0.013414 0.324154
0.264588 0.019560 0.330300
0.393039 0.025287 0.336028
0.520248 0.030959 0.341700
0.641437 0.036363 0.347103
0.751177 0.041256 0.351996
0.864435 0.046306 0.357046
0.000000 0.161804 0.333472
0.008041 0.168053 0.339722
0.148575 0.174319 0.345988
0.286422 0.180466 0.352134
0.414873 0.186193 0.357861
0.542082 0.191865 0.363533
0.663271 0.197268 0.368937
0.773010 0.202161 0.373830
0.886269 0.207211 0.378880
0.000000 0.320432 0.354997
0.029566 0.326682 0.361246
0.170100 0.332948 0.367513
0.307946 0.339094 0.373659
0.436398 0.344822 0.379386
0.563607 0.350493 0.385058
0.684795 0.355897 0.390461
0.794535 0.360790 0.395355
0.907793 0.365840 0.400404
0.000000 0.472230 0.375595
0.050163 0.478480 0.381844
0.190697 0.484746 0.388110
0.328544 0.490892 0.394257
0.456995 0.496619 0.399984
0.584204 0.502291 0.405656
0.705393 0.507695 0.411059
0.815133 0.512588 0.415952
0.928391 0.517638 0.421002
0.000000 0.624028 0.396192
0.070761 0.630277 0.402442
0.211295 0.636543 0.408708
0.349142 0.642690 0.414854
0.477593 0.648417 0.420582
0.604802 0.654089 0.426254
0.725991 0.659492 0.431657
0.835731 0.664385 0.436550
0.948989 0.669435 0.441600
0.000000 0.761595 0.414859
0.089428 0.767844 0.421109
0.229962 0.774110 0.427375
0.367808 0.780256 0.433521
0.496260 0.785984 0.439248
0.623469 0.791656 0.444920
0.744657 0.797059 0.450324
0.854397 0.801952 0.455217
0.967656 0.807002 0.460267
0.000000 0.894418 0.432882
0.107451 0.900667 0.439132
0.247985 0.906933 0.445398
0.385831 0.913079 0.451544
0.514283 0.918807 0.457271
0.641492 0.924479 0.462943
0.762680 0.929882 0.468347
0.872420 0.934775 0.473240
0.985679 0.939825 0.478290
0.000000 1.000000 0.453158
0.127727 1.000000 0.459408
0.268261 1.000000 0.465674
0.406107 1.000000 0.471820
0.534559 1.000000 0.477547
0.661768 1.000000 0.483219
0.782956 1.000000 0.488623
0.892696 1.000000 0.493516
1.000000 1.000000 0.498566
0.000000 0.000000 0.431427
0.000000 0.000000 0.437677
0.108182 0.000000 0.443943
0.246029 0.000000 0.450089
0.374480 0.000000 0.455816
0.501689 0.000000 0.461488
0.622878 0.000000 0.466892
0.732617 0.000000 0.471785
0.845876 0.000000 0.476835
0.000000 0.003091 0.452179
0.000000 0.009340 0.458429
0.128934 0.015606 0.464695
0.266781 0.021753 0.470841
0.395232 0.027480 0.476568
0.522441 0.033152 0.482240
0.643630 0.038555 0.487644
0.753369 0.043448 0.492537
0.866628 0.048498 0.497587
0.000000 0.163996 0.474013
0.010234 0.170246 0.480262
0.150768 0.176512 0.486528
0.288614 0.182658 0.492675
0.417066 0.188385 0.498402
0.544275 0.194057 0.504074
0.665463 0.199461 0.509477
0.775203 0.204354 0.514370
0.888461 0.209404 0.519420
0.000000 0.322625 0.495538
0.031758 0.328875 0.501787
0.172292 0.335141 0.508053
0.310139 0.341287 0.514199
0.438590 0.347014 0.519927
0.565799 0.352686 0.525599
0.686988 0.358090 0.531002
0.796728 0.362983 0.535895
0.909986 0.368032 0.540945
0.000000 0.474423 0.516135
0.052356 0.480672 0.522385
0.192890 0.486938 0.528651
0.330737 0.493085 0.534797
0.459188 0.498812 0.540524
0.586397 0.504484 0.546196
0.707586 0.509887 0.551600
0.817326 0.514780 0.556493
0.930584 0.519830 0.561543
0.000000 0.626221 0.536733
0.072954 0.632470 0.542983
0.213488 0.638736 0.549249
0.351334 0.644882 0.555395
0.479786 0.650610 0.561122
0.606995 0.656282 0.566794
0.728183 0.661685 0.572198
0.837923 0.666578 0.577091
0.951181 0.671628 0.582141
0.000000 0.763787 0.555400
0.091620 0.770037 0.561649
0.232155 0.776303 0.567915
0.370001 0.782449 0.574062
0.498453 0.788176 0.579789
0.625661 0.793848 0.585461
0.746850 0.799252 0.590864
0.856590 0.804145 0.595757
0.969848 0.809195 0.600807
0.000000 0.896610 0.573423
0.109644 0.902860 0.579672
0.250178 0.909126 0.585938
0.388024 0.915272 0.592085
0.516476 0.920999 0.597812
0.643684 0.926671 0.603484
0.764873 0.932075 0.608887
0.874613 0.936968 0.613780
0.987871 0.942018 0.618830
0.000000 1.000000 0.593699
0.129919 1.000000 0.599948
0.270453 1.000000 0.606214
0.408300 1.000000 0.612361
0.536751 1.000000 0.618088
0.663960 1.000000 0.623760
0.785149 1.000000 0.629163
0.894889 1.000000 0.634056
1.000000 1.000000 0.639106
0.000000 0.000000 0.570564
0.000000 0.000000 0.576814
0.110353 0.000000 0.583080
0.248199 0.000000 0.589226
0.376651 0.000000 0.594953
0.503860 0.000000 0.600625
0.625048 0.000000 0.606029
0.734788 0.000000 0.610922
0.848046 0.000000 0.615972
0.000000 0.005262 0.591316
0.000000 0.011511 0.597566
0.131105 0.017777 0.603832
0.268951 0.023923 0.609978
0.397403 0.029651 0.615705
0.524612 0.035323 0.621377
0.645800 0.040726 0.626781
0.755540 0.045619 0.631674
0.868798 0.050669 0.636724
0.000000 0.166167 0.613150
0.012404 0.172417 0.619399
0.152938 0.178683 0.625665
0.290785 0.184829 0.631812
0.419236 0.190556 0.637539
0.546445 0.196228 0.643211
0.667634 0.201632 0.648614
0.777374 0.206525 0.653507
0.890632 0.211575 0.658557
0.000000 0.324796 0.634675
0.033929 0.331045 0.640924
0.174463 0.337311 0.647190
0.312310 0.343458 0.653336
0.440761 0.349185 0.659064
0.567970 0.354857 0.664736
0.689159 0.360260 0.670139
0.798898 0.365153 0.675032
0.912157 0.370203 0.680082
0.000000 0.476594 0.655272
0.054527 0.482843 0.661522
0.195061 0.489109 0.667788
0.332907 0.495255 0.673934
0.461359 0.500983 0.679661
0.588568 0.506655 0.685333
0.709756 0.512058 0.690737
0.819496 0.516951 0.695630
0.932754 0.522001 0.700680
0.000000 0.628391 0.675870
0.075125 0.634641 0.682120
0.215659 0.640907 0.688386
0.353505 0.647053 0.694532
0.481957 0.652780 0.700259
0.609165 0.658452 0.705931
0.730354 0.663856 0.711335
0.840094 0.668749 0.716228
0.953352 0.673799 0.721277
0.000000 0.765958 0.694537
0.093791 0.772208 0.700786
0.234325 0.778474 0.707052
0.372172 0.784620 0.713199
0.500623 0.790347 0.718926
0.627832 0.796019 0.724598
0.749021 0.801423 0.730001
0.858761 0.806316 0.734894
0.972019 0.811365 0.739944
0.000000 0.898781 0.712560
0.111814 0.905031 0.718809
0.252348 0.911297 0.725075
0.390195 0.917443 0.731222
0.518646 0.923170 0.736949
0.645855 0.928842 0.742621
0.767044 0.934246 0.748024
0.876784 0.939139 0.752917
0.990042 0.944189 0.757967
0.000000 1.000000 0.732836
0.132090 1.000000 0.739085
0.272624 1.000000 0.745351
0.410471 1.000000 0.751497
0.538922 1.000000 0.757225
0.666131 1.000000 0.762897
0.787320 1.000000 0.768300
0.897060 1.000000 0.773193
1.000000 1.000000 0.778243
0.000000 0.000000 0.694682
0.000000 0.000000 0.700931
0.112289 0.000000 0.707197
0.250136 0.000000 0.713344
0.378587 0.000000 0.719071
0.505796 0.000000 0.724743
0.626985 0.000000 0.730146
0.736725 0.000000 0.735039
0.849983 0.000000 0.740089
0.000000 0.007198 0.715434
0.000000 0.013447 0.721683
0.133041 0.019713 0.727949
0.270888 0.025860 0.734096
0.399339 0.031587 0.739823
0.526548 0.037259 0.745495
0.647737 0.042662 0.750898
0.757477 0.047555 0.755791
0.870735 0.052605 0.760841
0.000000 0.168104 0.737268
0.014341 0.174353 0.743517
0.154875 0.180619 0.749783
0.292721 0.186765 0.755929
0.421173 0.192493 0.761657
0.548382 0.198165 0.767329
0.669570 0.203568 0.772732
0.779310 0.208461 0.777625
0.892568 0.213511 0.782675
0.000000 0.326732 0.758792
0.035865 0.332982 0.765042
0.176399 0.339248 0.771308
0.314246 0.345394 0.777454
0.442697 0.351121 0.783181
0.569906 0.356793 0.788853
0.691095 0.362197 0.794257
0.800835 0.367090 0.799150
0.914093 0.372140 0.804200
0.000000 0.478530 0.779390
0.056463 0.484779 0.785639
0.196997 0.491046 0.791906
0.334844 0.497192 0.798052
0.463295 0.502919 0.803779
0.590504 0.508591 0.809451
0.711693 0.513995 0.814854
0.821433 0.518888 0.819748
0.934691 0.523937 0.824797
0.000000 0.630328 0.799988
0.077061 0.636577 0.806237
0.217595 0.642843 0.812503
0.355442 0.648990 0.818649
0.483893 0.654717 0.824377
0.611102 0.660389 0.830049
0.732291 0.665792 0.835452
0.842030 0.670685 0.840345
0.955289 0.675735 0.845395
0.000000 0.767894 0.818654
0.095728 0.774144 0.824904
0.236262 0.780410 0.831170
0.374108 0.786556 0.837316
0.502560 0.792284 0.843044
0.629769 0.797955 0.848715
0.750957 0.803359 0.854119
0.860697 0.808252 0.859012
0.973955 0.813302 0.864062
0.000000 0.900717 0.836677
0.113751 0.906967 0.842927
0.254285 0.913233 0.849193
0.392131 0.919379 0.855339
0.520583 0.925107 0.861067
0.647792 0.930779 0.866739
0.768980 0.936182 0.872142
0.878720 0.941075 0.877035
0.991978 0.946125 0.882085
0.000000 1.000000 0.856953
0.134027 1.000000 0.863203
0.274561 1.000000 0.869469
0.412407 1.000000 0.875615
0.540859 1.000000 0.881343
0.668068 1.000000 0.887014
0.789256 1.000000 0.892418
0.898996 1.000000 0.897311
1.000000 1.000000 0.902361
0.000000 0.000000 0.825640
0.000000 0.000000 0.831890
0.114332 0.000000 0.838156
0.252179 0.000000 0.844302
0.380630 0.000000 0.850029
0.507839 0.000000 0.855701
0.629028 0.000000 0.861105
0.738768 0.000000 0.865998
0.852026 0.000000 0.871048
0.000000 0.009241 0.846392
0.000000 0.015491 0.852642
0.135084 0.021757 0.858908
0.272931 0.027903 0.865054
0.401382 0.033630 0.870781
0.528591 0.039302 0.876453
0.649780 0.044706 0.881857
0.759520 0.049599 0.886750
0.872778 0.054649 0.891800
0.000000 0.170147 0.868226
0.016384 0.176396 0.874475
0.156918 0.182662 0.880741
0.294765 0.188808 0.886888
0.423216 0.194536 0.892615
0.550425 0.200208 0.898287
0.671614 0.205611 0.903690
0.781353 0.210504 0.908583
0.894612 0.215554 0.913633
0.000000 0.328775 0.889750
0.037909 0.335025 0.896000
0.178443 0.341291 0.902266
0.316289 0.347437 0.908412
0.444741 0.353164 0.914140
0.571949 0.358836 0.919811
0.693138 0.364240 0.925215
0.802878 0.369133 0.930108
0.916136 0.374183 0.935158
0.000000 0.480573 0.910348
0.058506 0.486823 0.916598
0.199040 0.493089 0.922864
0.336887 0.499235 0.929010
0.465338 0.504962 0.934737
0.592547 0.510634 0.940409
0.713736 0.516038 0.945813
0.823476 0.520931 0.950706
0.936734 0.525981 0.955756
0.000000 0.632371 0.930946
0.079104 0.638620 0.937195
0.219638 0.644886 0.943462
0.357485 0.651033 0.949608
0.485936 0.656760 0.955335
0.613145 0.662432 0.961007
0.734334 0.667835 0.966411
0.844074 0.672728 0.971304
0.957332 0.677778 0.976353
0.000000 0.769938 0.949613
0.097771 0.776187 0.955862
0.238305 0.782453 0.962128
0.376151 0.788599 0.968274
0.504603 0.794327 0.974002
0.631812 0.799999 0.979674
0.753000 0.805402 0.985077
0.862740 0.810295 0.989970
0.975998 0.815345 0.995020
0.000000 0.902761 0.967636
0.115794 0.909010 0.973885
0.256328 0.915276 0.980151
0.394174 0.921422 0.986298
0.522626 0.927150 0.992025
0.649835 0.932822 0.997697
0.771023 0.938225 1.000000
0.880763 0.943118 1.000000
0.994022 0.948168 1.000000
0.000000 1.000000 0.987912
0.136070 1.000000 0.994161
0.276604 1.000000 1.000000
0.414450 1.000000 1.000000
0.542902 1.000000 1.000000
0.670111 1.000000 1.000000
0.791299 1.000000 1.000000
0.901039 1.000000 1.000000
1.000000 1.000000 1.000000
0.000000 0.000000 0.913964
0.000000 0.000000 0.920214
0.115710 0.000000 0.926480
0.253557 0.000000 0.932626
0.382008 0.000000 0.938353
0.509217 0.000000 0.944025
0.630406 0.000000 0.949429
0.740146 0.000000 0.954322
0.853404 0.000000 0.959372
0.000000 0.010619 0.934716
0.000000 0.016869 0.940966
0.136462 0.023135 0.947232
0.274309 0.029281 0.953378
0.402760 0.035008 0.959106
0.529969 0.040680 0.964777
0.651158 0.046084 0.970181
0.760898 0.050977 0.975074
0.874156 0.056027 0.980124
0.000000 0.171525 0.956550
0.017762 0.177774 0.962800
0.158296 0.184040 0.969066
0.296143 0.190186 0.975212
0.424594 0.195914 0.980939
0.551803 0.201586 0.986611
0.672992 0.206989 0.992015
0.782731 0.211882 0.996908
0.895990 0.216932 1.000000
0.000000 0.330153 0.978075
0.039287 0.336403 0.984324
0.179821 0.342669 0.990590
0.317667 0.348815 0.996737
0.446119 0.354542 1.000000
0.573327 0.360214 1.000000
0.694516 0.365618 1.000000
0.804256 0.370511 1.000000
0.917514 0.375561 1.000000
0.000000 0.481951 0.998672
0.059884 0.488201 1.000000
0.200418 0.494467 1.000000
0.338265 0.500613 1.000000
0.466716 0.506340 1.000000
0.593925 0.512012 1.000000
0.715114 0.517416 1.000000
0.824854 0.522309 1.000000
0.938112 0.527359 1.000000
0.000000 0.633749 1.000000
0.080482 0.639998 1.000000
0.221016 0.646264 1.000000
0.358863 0.652411 1.000000
0.487314 0.658138 1.000000
0.614523 0.663810 1.000000
0.735712 0.669213 1.000000
0.845452 0.674106 1.000000
0.958710 0.679156 1.000000
0.000000 0.771316 1.000000
0.099149 0.777565 1.000000
0.239683 0.783831 1.000000
0.377529 0.789977 1.000000
0.505981 0.795705 1.000000
0.633190 0.801377 1.000000
0.754378 0.806780 1.000000
0.864118 0.811673 1.000000
0.977376 0.816723 1.000000
0.000000 0.904139 1.000000
0.117172 0.910388 1.000000
0.257706 0.916654 1.000000
0.395552 0.922800 1.000000
0.524004 0.928528 1.000000
0.651213 0.934200 1.000000
0.772401 0.939603 1.000000
0.882141 0.944496 1.000000
0.995400 0.949546 1.000000
0.000000 1.000000 1.000000
0.137448 1.000000 1.000000
0.277982 1.000000 1.000000
0.415828 1.000000 1.000000
0.544280 1.000000 1.000000
0.671489 1.000000 1.000000
0.792677 1.000000 1.000000
0.902417 1.000000 1.000000
1.000000 1.000000 1.000000
