flutter_app/assets/lut/cameras/grd_r.cube
TITLE "GRD-R"
# DAZZ Camera LUT - GRD-R
# Fixed v2 - Professional color science
LUT_3D_SIZE 5
0.000000 0.000000 0.000000
0.099329 0.000000 0.000000
0.365627 0.000000 0.000000
0.614024 0.000000 0.000000
0.837022 0.000000 0.000000
0.000000 0.155143 0.000000
0.141914 0.167659 0.000000
0.408212 0.179532 0.000000
0.656610 0.190608 0.000000
0.879608 0.200551 0.000000
0.000000 0.465570 0.000000
0.184037 0.478085 0.000000
0.450335 0.489959 0.000000
0.698732 0.501034 0.000000
0.921731 0.510977 0.000000
0.000000 0.754934 0.000000
0.223301 0.767450 0.000462
0.489599 0.779323 0.012335
0.737997 0.790399 0.023411
0.960995 0.800342 0.033354
0.000000 1.000000 0.026245
0.261600 1.000000 0.038761
0.527898 1.000000 0.050634
0.776296 1.000000 0.061710
0.999294 1.000000 0.071653
0.000000 0.000000 0.147049
0.103745 0.000000 0.159564
0.370043 0.000000 0.171438
0.618441 0.000000 0.182513
0.841439 0.000000 0.192456
0.000000 0.159560 0.189634
0.146331 0.172075 0.202150
0.412629 0.183949 0.214024
0.661026 0.195024 0.225099
0.884025 0.204967 0.235042
0.000000 0.469986 0.231757
0.188453 0.482502 0.244272
0.454751 0.494375 0.256146
0.703149 0.505451 0.267221
0.926147 0.515394 0.277164
0.000000 0.759351 0.271021
0.227718 0.771866 0.283537
0.494016 0.783740 0.295410
0.742413 0.794815 0.306486
0.965411 0.804758 0.316429
0.000000 1.000000 0.309320
0.266017 1.000000 0.321836
0.532315 1.000000 0.333709
0.780712 1.000000 0.344785
1.000000 1.000000 0.354728
0.000000 0.000000 0.431427
0.108182 0.000000 0.443943
0.374480 0.000000 0.455816
0.622878 0.000000 0.466892
0.845876 0.000000 0.476835
0.000000 0.163996 0.474013
0.150768 0.176512 0.486528
0.417066 0.188385 0.498402
0.665463 0.199461 0.509477
0.888461 0.209404 0.519420
0.000000 0.474423 0.516135
0.192890 0.486938 0.528651
0.459188 0.498812 0.540524
0.707586 0.509887 0.551600
0.930584 0.519830 0.561543
0.000000 0.763787 0.555400
0.232155 0.776303 0.567915
0.498453 0.788176 0.579789
0.746850 0.799252 0.590864
0.969848 0.809195 0.600807
0.000000 1.000000 0.593699
0.270453 1.000000 0.606214
0.536751 1.000000 0.618088
0.785149 1.000000 0.629163
1.000000 1.000000 0.639106
0.000000 0.000000 0.694682
0.112289 0.000000 0.707197
0.378587 0.000000 0.719071
0.626985 0.000000 0.730146
0.849983 0.000000 0.740089
0.000000 0.168104 0.737268
0.154875 0.180619 0.749783
0.421173 0.192493 0.761657
0.669570 0.203568 0.772732
0.892568 0.213511 0.782675
0.000000 0.478530 0.779390
0.196997 0.491046 0.791906
0.463295 0.502919 0.803779
0.711693 0.513995 0.814854
0.934691 0.523937 0.824797
0.000000 0.767894 0.818654
0.236262 0.780410 0.831170
0.502560 0.792284 0.843044
0.750957 0.803359 0.854119
0.973955 0.813302 0.864062
0.000000 1.000000 0.856953
0.274561 1.000000 0.869469
0.540859 1.000000 0.881343
0.789256 1.000000 0.892418
1.000000 1.000000 0.902361
0.000000 0.000000 0.913964
0.115710 0.000000 0.926480
0.382008 0.000000 0.938353
0.630406 0.000000 0.949429
0.853404 0.000000 0.959372
0.000000 0.171525 0.956550
0.158296 0.184040 0.969066
0.424594 0.195914 0.980939
0.672992 0.206989 0.992015
0.895990 0.216932 1.000000
0.000000 0.481951 0.998672
0.200418 0.494467 1.000000
0.466716 0.506340 1.000000
0.715114 0.517416 1.000000
0.938112 0.527359 1.000000
0.000000 0.771316 1.000000
0.239683 0.783831 1.000000
0.505981 0.795705 1.000000
0.754378 0.806780 1.000000
0.977376 0.816723 1.000000
0.000000 1.000000 1.000000
0.277982 1.000000 1.000000
0.544280 1.000000 1.000000
0.792677 1.000000 1.000000
1.000000 1.000000 1.000000
