flutter_app/assets/lut/cameras/grd_r.cube
TITLE "GRD-R"
# DAZZ Camera LUT - GRD-R
# Fixed v2 - Professional color science
LUT_3D_SIZE 33
0.000000 0.000000 0.000000
0.000000 0.000000 0.000000
0.000000 0.000000 0.000000
0.000000 0.000000 0.000000
0.000000 0.000000 0.000000
0.000000 0.000000 0.000000
0.029410 0.000000 0.000000
0.064466 0.000000 0.000000
0.099329 0.000000 0.000000
0.134024 0.000000 0.000000
0.168571 0.000000 0.000000
0.202985 0.000000 0.000000
0.237175 0.000000 0.000000
0.269424 0.000000 0.000000
0.301578 0.000000 0.000000
0.333644 0.000000 0.000000
0.365627 0.000000 0.000000
0.397533 0.000000 0.000000
0.429367 0.000000 0.000000
0.461134 0.000000 0.000000
0.492836 0.000000 0.000000
0.524477 0.000000 0.000000
0.556060 0.000000 0.000000
0.586484 0.000000 0.000000
0.614024 0.000000 0.000000
0.641521 0.000000 0.000000
0.668976 0.000000 0.000000
0.696389 0.000000 0.000000
0.723764 0.000000 0.000000
0.751101 0.000000 0.000000
0.778402 0.000000 0.000000
0.805900 0.000000 0.000000
0.837022 0.000000 0.000000
0.000000 0.000000 0.000000
0.000000 0.000000 0.000000
0.000000 0.000000 0.000000
0.000000 0.000000 0.000000
0.000000 0.000000 0.000000
0.000000 0.000000 0.000000
0.034559 0.000000 0.000000
0.069615 0.000000 0.000000
0.104478 0.000000 0.000000
0.139173 0.000000 0.000000
0.173720 0.000000 0.000000
0.208135 0.000000 0.000000
0.242325 0.000000 0.000000
0.274574 0.000000 0.000000
0.306727 0.000000 0.000000
0.338793 0.000000 0.000000
0.370776 0.000000 0.000000
0.402682 0.000000 0.000000
0.434517 0.000000 0.000000
0.466283 0.000000 0.000000
0.497985 0.000000 0.000000
0.529626 0.000000 0.000000
0.561209 0.000000 0.000000
0.591633 0.000000 0.000000
0.619174 0.000000 0.000000
0.646670 0.000000 0.000000
0.674125 0.000000 0.000000
0.701539 0.000000 0.000000
0.728914 0.000000 0.000000
0.756251 0.000000 0.000000
0.783552 0.000000 0.000000
0.811049 0.000000 0.000000
0.842172 0.000000 0.000000
0.000000 0.000000 0.000000
0.000000 0.000000 0.000000
0.000000 0.000000 0.000000
0.000000 0.000000 0.000000
0.000000 0.000000 0.000000
0.004427 0.000000 0.000000
0.039709 0.000000 0.000000
0.074765 0.000000 0.000000
0.109627 0.000000 0.000000
0.144323 0.000000 0.000000
0.178870 0.000000 0.000000
0.213284 0.000000 0.000000
0.247474 0.000000 0.000000
0.279723 0.000000 0.000000
0.311877 0.000000 0.000000
0.343942 0.000000 0.000000
0.375925 0.000000 0.000000
0.407832 0.000000 0.000000
0.439666 0.000000 0.000000
0.471432 0.000000 0.000000
0.503134 0.000000 0.000000
0.534775 0.000000 0.000000
0.566359 0.000000 0.000000
0.596782 0.000000 0.000000
0.624323 0.000000 0.000000
0.651820 0.000000 0.000000
0.679274 0.000000 0.000000
0.706688 0.000000 0.000000
0.734063 0.000000 0.000000
0.761400 0.000000 0.000000
0.788701 0.000000 0.000000
0.816199 0.000000 0.000000
0.847321 0.000000 0.000000
0.000000 0.000000 0.000000
0.000000 0.000000 0.000000
0.000000 0.000000 0.000000
0.000000 0.000000 0.000000
0.000000 0.000000 0.000000
0.009576 0.000000 0.000000
0.044858 0.000000 0.000000
0.079914 0.000000 0.000000
0.114777 0.000000 0.000000
0.149472 0.000000 0.000000
0.184019 0.000000 0.000000
0.218433 0.000000 0.000000
0.252624 0.000000 0.000000
0.284873 0.000000 0.000000
0.317026 0.000000 0.000000
0.349092 0.000000 0.000000
0.381075 0.000000 0.000000
0.412981 0.000000 0.000000
0.444816 0.000000 0.000000
0.476582 0.000000 0.000000
0.508284 0.000000 0.000000
0.539925 0.000000 0.000000
0.571508 0.000000 0.000000
0.601932 0.000000 0.000000
0.629473 0.000000 0.000000
0.656969 0.000000 0.000000
0.684424 0.000000 0.000000
0.711838 0.000000 0.000000
0.739212 0.000000 0.000000
0.766550 0.000000 0.000000
0.793851 0.000000 0.000000
0.821348 0.000000 0.000000
0.852471 0.000557 0.000000
0.000000 0.000000 0.000000
0.000000 0.000000 0.000000
0.000000 0.000000 0.000000
0.000000 0.000000 0.000000
0.000000 0.000487 0.000000
0.014880 0.002063 0.000000
0.050162 0.003636 0.000000
0.085218 0.005199 0.000000
0.120081 0.006753 0.000000
0.154776 0.008300 0.000000
0.189323 0.009841 0.000000
0.223737 0.011375 0.000000
0.257927 0.012899 0.000000
0.290177 0.014337 0.000000
0.322330 0.015771 0.000000
0.354396 0.017201 0.000000
0.386379 0.018627 0.000000
0.418285 0.020049 0.000000
0.450119 0.021469 0.000000
0.481886 0.022885 0.000000
0.513588 0.024299 0.000000
0.545229 0.025709 0.000000
0.576812 0.027118 0.000000
0.607236 0.028474 0.000000
0.634776 0.029702 0.000000
0.662273 0.030928 0.000000
0.689728 0.032152 0.000000
0.717141 0.033375 0.000000
0.744516 0.034595 0.000000
0.771854 0.035814 0.000000
0.799155 0.037031 0.000000
0.826652 0.038257 0.000000
0.857775 0.039645 0.000000
0.000000 0.034464 0.000000
0.000000 0.036112 0.000000
0.000000 0.037673 0.000000
0.000000 0.039203 0.000000
0.000000 0.040714 0.000000
0.020338 0.042289 0.000000
0.055621 0.043862 0.000000
0.090676 0.045425 0.000000
0.125539 0.046980 0.000000
0.160235 0.048527 0.000000
0.194782 0.050067 0.000000
0.229196 0.051601 0.000000
0.263386 0.053126 0.000000
0.295635 0.054564 0.000000
0.327789 0.055997 0.000000
0.359854 0.057427 0.000000
0.391837 0.058853 0.000000
0.423744 0.060276 0.000000
0.455578 0.061695 0.000000
0.487344 0.063112 0.000000
0.519046 0.064525 0.000000
0.550687 0.065936 0.000000
0.582270 0.067344 0.000000
0.612694 0.068701 0.000000
0.640235 0.069929 0.000000
0.667732 0.071155 0.000000
0.695186 0.072379 0.000000
0.722600 0.073601 0.000000
0.749975 0.074822 0.000000
0.777312 0.076040 0.000000
0.804613 0.077258 0.000000
0.832110 0.078484 0.000000
0.863233 0.079871 0.000000
0.000000 0.074690 0.000000
0.000000 0.076338 0.000000
0.000000 0.077900 0.000000
0.000000 0.079430 0.000000
0.000000 0.080940 0.000000
0.025797 0.082515 0.000000
0.061079 0.084088 0.000000
0.096135 0.085652 0.000000
0.130998 0.087206 0.000000
0.165693 0.088753 0.000000
0.200240 0.090293 0.000000
0.234654 0.091828 0.000000
0.268844 0.093352 0.000000
0.301093 0.094790 0.000000
0.333247 0.096224 0.000000
0.365312 0.097653 0.000000
0.397296 0.099080 0.000000
0.429202 0.100502 0.000000
0.461036 0.101922 0.000000
0.492803 0.103338 0.000000
0.524505 0.104751 0.000000
0.556146 0.106162 0.000000
0.587729 0.107570 0.000000
0.618152 0.108927 0.000000
0.645693 0.110155 0.000000
0.673190 0.111381 0.000000
0.700644 0.112605 0.000000
0.728058 0.113827 0.000000
0.755433 0.115048 0.000000
0.782770 0.116267 0.000000
0.810071 0.117484 0.000000
0.837569 0.118710 0.000000
0.868691 0.120098 0.000000
0.000000 0.114917 0.000000
0.000000 0.116565 0.000000
0.000000 0.118126 0.000000
0.000000 0.119656 0.000000
0.000000 0.121166 0.000000
0.031255 0.122742 0.000000
0.066537 0.124315 0.000000
0.101593 0.125878 0.000000
0.136456 0.127432 0.000000
0.171151 0.128979 0.000000
0.205698 0.130520 0.000000
0.240113 0.132054 0.000000
0.274303 0.133579 0.000000
0.306552 0.135017 0.000000
0.338705 0.136450 0.000000
0.370771 0.137880 0.000000
0.402754 0.139306 0.000000
0.434660 0.140729 0.000000
0.466495 0.142148 0.000000
0.498261 0.143564 0.000000
0.529963 0.144978 0.000000
0.561604 0.146389 0.000000
0.593187 0.147797 0.000000
0.623611 0.149153 0.000000
0.651152 0.150381 0.000000
0.678648 0.151607 0.000000
0.706103 0.152832 0.000000
0.733517 0.154054 0.000000
0.760892 0.155274 0.000000
0.788229 0.156493 0.000000
0.815530 0.157711 0.000000
0.843027 0.158937 0.000000
0.874150 0.160324 0.000000
0.000000 0.155143 0.000000
0.000000 0.156791 0.000000
0.000000 0.158352 0.000000
0.000000 0.159883 0.000000
0.001380 0.161393 0.000000
0.036714 0.162968 0.000000
0.071996 0.164541 0.000000
0.107052 0.166104 0.000000
0.141914 0.167659 0.000000
0.176610 0.169206 0.000000
0.211157 0.170746 0.000000
0.245571 0.172281 0.000000
0.279761 0.173805 0.000000
0.312010 0.175243 0.000000
0.344164 0.176677 0.000000
0.376229 0.178106 0.000000
0.408212 0.179532 0.000000
0.440119 0.180955 0.000000
0.471953 0.182374 0.000000
0.503719 0.183791 0.000000
0.535421 0.185204 0.000000
0.567062 0.186615 0.000000
0.598646 0.188023 0.000000
0.629069 0.189380 0.000000
0.656610 0.190608 0.000000
0.684107 0.191834 0.000000
0.711561 0.193058 0.000000
0.738975 0.194280 0.000000
0.766350 0.195501 0.000000
0.793687 0.196720 0.000000
0.820988 0.197937 0.000000
0.848486 0.199163 0.000000
0.879608 0.200551 0.000000
0.000000 0.195370 0.000000
0.000000 0.197018 0.000000
0.000000 0.198579 0.000000
0.000000 0.200109 0.000000
0.006839 0.201619 0.000000
0.042172 0.203195 0.000000
0.077454 0.204768 0.000000
0.112510 0.206331 0.000000
0.147373 0.207885 0.000000
0.182068 0.209432 0.000000
0.216615 0.210973 0.000000
0.251029 0.212507 0.000000
0.285219 0.214031 0.000000
0.317469 0.215469 0.000000
0.349622 0.216903 0.000000
0.381688 0.218333 0.000000
0.413671 0.219759 0.000000
0.445577 0.221181 0.000000
0.477412 0.222601 0.000000
0.509178 0.224017 0.000000
0.540880 0.225431 0.000000
0.572521 0.226841 0.000000
0.604104 0.228250 0.000000
0.634528 0.229606 0.000000
0.662068 0.230834 0.000000
0.689565 0.232060 0.000000
0.717020 0.233284 0.000000
0.744434 0.234507 0.000000
0.771808 0.235727 0.000000
0.799146 0.236946 0.000000
0.826447 0.238163 0.000000
0.853944 0.239389 0.000000
0.885067 0.240777 0.000000
0.000000 0.235596 0.000000
0.000000 0.237244 0.000000
0.000000 0.238805 0.000000
0.000000 0.240335 0.000000
0.012297 0.241846 0.000000
0.047630 0.243421 0.000000
0.082913 0.244994 0.000000
0.117968 0.246557 0.000000
0.152831 0.248112 0.000000
0.187527 0.249659 0.000000
0.222074 0.251199 0.000000
0.256488 0.252733 0.000000
0.290678 0.254258 0.000000
0.322927 0.255696 0.000000
0.355081 0.257129 0.000000
0.387146 0.258559 0.000000
0.419129 0.259985 0.000000
0.451036 0.261408 0.000000
0.482870 0.262827 0.000000
0.514636 0.264244 0.000000
0.546338 0.265657 0.000000
0.577979 0.267068 0.000000
0.609562 0.268476 0.000000
0.639986 0.269833 0.000000
0.667527 0.271061 0.000000
0.695024 0.272287 0.000000
0.722478 0.273511 0.000000
0.749892 0.274733 0.000000
0.777267 0.275954 0.000000
0.804604 0.277173 0.000000
0.831905 0.278390 0.000000
0.859402 0.279616 0.000000
0.890525 0.281004 0.000000
0.000000 0.275822 0.000000
0.000000 0.277470 0.000000
0.000000 0.279032 0.000000
0.000000 0.280562 0.000000
0.017756 0.282072 0.000000
0.053089 0.283647 0.000000
0.088371 0.285221 0.000000
0.123427 0.286784 0.000000
0.158290 0.288338 0.000000
0.192985 0.289885 0.000000
0.227532 0.291425 0.000000
0.261946 0.292960 0.000000
0.296136 0.294484 0.000000
0.328385 0.295922 0.000000
0.360539 0.297356 0.000000
0.392604 0.298786 0.000000
0.424588 0.300212 0.000000
0.456494 0.301634 0.000000
0.488328 0.303054 0.000000
0.520095 0.304470 0.000000
0.551797 0.305884 0.000000
0.583438 0.307294 0.000000
0.615021 0.308703 0.000000
0.645444 0.310059 0.000000
0.672985 0.311287 0.000000
0.700482 0.312513 0.000000
0.727936 0.313737 0.000000
0.755350 0.314959 0.000000
0.782725 0.316180 0.000000
0.810062 0.317399 0.000000
0.837363 0.318616 0.000000
0.864861 0.319842 0.000000
0.895983 0.321230 0.000000
0.000000 0.313772 0.000000
0.000000 0.315420 0.000000
0.000000 0.316981 0.000000
0.000000 0.318511 0.000000
0.022905 0.320021 0.000000
0.058238 0.321597 0.000000
0.093521 0.323170 0.000000
0.128576 0.324733 0.000000
0.163439 0.326287 0.000000
0.198134 0.327834 0.000000
0.232681 0.329375 0.000000
0.267096 0.330909 0.000000
0.301286 0.332434 0.000000
0.333535 0.333872 0.000000
0.365688 0.335305 0.000000
0.397754 0.336735 0.000000
0.429737 0.338161 0.000000
0.461644 0.339584 0.000000
0.493478 0.341003 0.000000
0.525244 0.342419 0.000000
0.556946 0.343833 0.000000
0.588587 0.345244 0.000000
0.620170 0.346652 0.000000
0.650594 0.348008 0.000000
0.678135 0.349236 0.000000
0.705631 0.350462 0.000000
0.733086 0.351687 0.000000
0.760500 0.352909 0.000000
0.787875 0.354129 0.000000
0.815212 0.355348 0.000000
0.842513 0.356566 0.000000
0.870010 0.357792 0.000000
0.901133 0.359179 0.000000
0.000000 0.351721 0.000000
0.000000 0.353369 0.000000
0.000000 0.354930 0.000000
0.000000 0.356461 0.000000
0.028055 0.357971 0.000000
0.063388 0.359546 0.000000
0.098670 0.361119 0.000000
0.133726 0.362682 0.000000
0.168589 0.364237 0.000000
0.203284 0.365784 0.000000
0.237831 0.367324 0.000000
0.272245 0.368859 0.000000
0.306435 0.370383 0.000000
0.338684 0.371821 0.000000
0.370838 0.373255 0.000000
0.402903 0.374684 0.000000
0.434887 0.376110 0.000000
0.466793 0.377533 0.000000
0.498627 0.378952 0.000000
0.530393 0.380369 0.000000
0.562095 0.381782 0.000000
0.593737 0.383193 0.000000
0.625320 0.384601 0.000000
0.655743 0.385958 0.000000
0.683284 0.387186 0.000000
0.710781 0.388412 0.000000
0.738235 0.389636 0.000000
0.765649 0.390858 0.000000
0.793024 0.392079 0.000000
0.820361 0.393298 0.000000
0.847662 0.394515 0.000000
0.875160 0.395741 0.000000
0.906282 0.397129 0.000000
0.000000 0.389671 0.000000
0.000000 0.391319 0.000000
0.000000 0.392880 0.000000
0.000000 0.394410 0.000000
0.033204 0.395920 0.000000
0.068537 0.397496 0.000000
0.103819 0.399069 0.000000
0.138875 0.400632 0.000000
0.173738 0.402186 0.000000
0.208433 0.403733 0.000000
0.242980 0.405274 0.000000
0.277394 0.406808 0.000000
0.311585 0.408333 0.000000
0.343834 0.409770 0.000000
0.375987 0.411204 0.000000
0.408053 0.412634 0.000000
0.440036 0.414060 0.000000
0.471942 0.415483 0.000000
0.503777 0.416902 0.000000
0.535543 0.418318 0.000000
0.567245 0.419732 0.000000
0.598886 0.421143 0.000000
0.630469 0.422551 0.000000
0.660893 0.423907 0.000000
0.688434 0.425135 0.000000
0.715930 0.426361 0.000000
0.743385 0.427585 0.000000
0.770799 0.428808 0.000000
0.798173 0.430028 0.000000
0.825511 0.431247 0.000000
0.852812 0.432465 0.000000
0.880309 0.433691 0.000000
0.911432 0.435078 0.000000
0.000000 0.427620 0.000000
0.000000 0.429268 0.000000
0.000000 0.430829 0.000000
0.004482 0.432359 0.000000
0.038353 0.433870 0.000000
0.073687 0.435445 0.000000
0.108969 0.437018 0.000000
0.144025 0.438581 0.000000
0.178887 0.440136 0.000000
0.213583 0.441683 0.000000
0.248130 0.443223 0.000000
0.282544 0.444758 0.000000
0.316734 0.446282 0.000000
0.348983 0.447720 0.000000
0.381137 0.449154 0.000000
0.413202 0.450583 0.000000
0.445185 0.452009 0.000000
0.477092 0.453432 0.000000
0.508926 0.454851 0.000000
0.540692 0.456268 0.000000
0.572394 0.457681 0.000000
0.604035 0.459092 0.000000
0.635619 0.460500 0.000000
0.666042 0.461857 0.000000
0.693583 0.463085 0.000000
0.721080 0.464311 0.000000
0.748534 0.465535 0.000000
0.775948 0.466757 0.000000
0.803323 0.467978 0.000000
0.830660 0.469197 0.000000
0.857961 0.470414 0.000000
0.885459 0.471640 0.000000
0.916581 0.473028 0.000000
0.000000 0.465570 0.000000
0.000000 0.467218 0.000000
0.000000 0.468779 0.000000
0.009631 0.470309 0.000000
0.043503 0.471819 0.000000
0.078836 0.473395 0.000000
0.114118 0.474968 0.000000
0.149174 0.476531 0.000000
0.184037 0.478085 0.000000
0.218732 0.479632 0.000000
0.253279 0.481173 0.000000
0.287693 0.482707 0.000000
0.321883 0.484231 0.000000
0.354133 0.485669 0.000000
0.386286 0.487103 0.000000
0.418352 0.488533 0.000000
0.450335 0.489959 0.000000
0.482241 0.491381 0.000000
0.514076 0.492801 0.000000
0.545842 0.494217 0.000000
0.577544 0.495631 0.000000
0.609185 0.497041 0.000000
0.640768 0.498450 0.000000
0.671192 0.499806 0.000000
0.698732 0.501034 0.000000
0.726229 0.502260 0.000000
0.753684 0.503484 0.000000
0.781098 0.504707 0.000000
0.808472 0.505927 0.000000
0.835810 0.507146 0.000000
0.863111 0.508363 0.000000
0.890608 0.509589 0.000000
0.921731 0.510977 0.000000
0.000000 0.503519 0.000000
0.000000 0.505167 0.000000
0.000000 0.506728 0.000000
0.014781 0.508258 0.000000
0.048652 0.509769 0.000000
0.083986 0.511344 0.000000
0.119268 0.512917 0.000000
0.154323 0.514480 0.000000
0.189186 0.516035 0.000000
0.223882 0.517582 0.000000
0.258429 0.519122 0.000000
0.292843 0.520656 0.000000
0.327033 0.522181 0.000000
0.359282 0.523619 0.000000
0.391436 0.525052 0.000000
0.423501 0.526482 0.000000
0.455484 0.527908 0.000000
0.487391 0.529331 0.000000
0.519225 0.530750 0.000000
0.550991 0.532167 0.000000
0.582693 0.533580 0.000000
0.614334 0.534991 0.000000
0.645917 0.536399 0.000000
0.676341 0.537756 0.000000
0.703882 0.538984 0.000000
0.731379 0.540210 0.000000
0.758833 0.541434 0.000000
0.786247 0.542656 0.000000
0.813622 0.543877 0.000000
0.840959 0.545096 0.000000
0.868260 0.546313 0.000000
0.895757 0.547539 0.000000
0.926880 0.548927 0.000000
0.000000 0.541469 0.000000
0.000000 0.543116 0.000000
0.000000 0.544678 0.000000
0.019930 0.546208 0.000000
0.053802 0.547718 0.000000
0.089135 0.549293 0.000000
0.124417 0.550867 0.000000
0.159473 0.552430 0.000000
0.194336 0.553984 0.000000
0.229031 0.555531 0.000000
0.263578 0.557071 0.000000
0.297992 0.558606 0.000000
0.332182 0.560130 0.000000
0.364431 0.561568 0.000000
0.396585 0.563002 0.000000
0.428651 0.564432 0.000000
0.460634 0.565858 0.000000
0.492540 0.567280 0.000000
0.524374 0.568700 0.000000
0.556141 0.570116 0.000000
0.587843 0.571530 0.000000
0.619484 0.572940 0.000000
0.651067 0.574349 0.000000
0.681491 0.575705 0.000000
0.709031 0.576933 0.000000
0.736528 0.578159 0.000000
0.763983 0.579383 0.000000
0.791396 0.580606 0.000000
0.818771 0.581826 0.000000
0.846108 0.583045 0.000557
0.873409 0.584262 0.001774
0.900907 0.585488 0.003000
0.932029 0.586876 0.004388
0.000000 0.579418 0.000000
0.000000 0.581066 0.000000
0.000000 0.582627 0.000000
0.025080 0.584157 0.000000
0.058951 0.585667 0.000000
0.094284 0.587243 0.000000
0.129567 0.588816 0.000000
0.164622 0.590379 0.000000
0.199485 0.591934 0.000000
0.234180 0.593481 0.000000
0.268728 0.595021 0.000000
0.303142 0.596555 0.000000
0.337332 0.598080 0.000000
0.369581 0.599518 0.000000
0.401735 0.600951 0.000000
0.433800 0.602381 0.000000
0.465783 0.603807 0.000000
0.497690 0.605230 0.000000
0.529524 0.606649 0.000000
0.561290 0.608066 0.000000
0.592992 0.609479 0.000000
0.624633 0.610890 0.000000
0.656216 0.612298 0.000000
0.686640 0.613655 0.000000
0.714181 0.614883 0.000000
0.741678 0.616109 0.000821
0.769132 0.617333 0.002045
0.796546 0.618555 0.003267
0.823921 0.619776 0.004488
0.851258 0.620994 0.005707
0.878559 0.622212 0.006924
0.906056 0.623438 0.008150
0.937179 0.624825 0.009538
0.000000 0.617367 0.000000
0.000000 0.619015 0.000000
0.000000 0.620577 0.000000
0.030229 0.622107 0.000000
0.064101 0.623617 0.000000
0.099434 0.625192 0.000000
0.134716 0.626765 0.000000
0.169772 0.628329 0.000000
0.204635 0.629883 0.000000
0.239330 0.631430 0.000000
0.273877 0.632970 0.000000
0.308291 0.634505 0.000000
0.342481 0.636029 0.000000
0.374730 0.637467 0.000000
0.406884 0.638901 0.000000
0.438949 0.640330 0.000000
0.470933 0.641757 0.000000
0.502839 0.643179 0.000000
0.534673 0.644599 0.000000
0.566440 0.646015 0.000000
0.598142 0.647428 0.000000
0.629783 0.648839 0.000751
0.661366 0.650247 0.002160
0.691789 0.651604 0.003516
0.719330 0.652832 0.004744
0.746827 0.654058 0.005970
0.774281 0.655282 0.007194
0.801695 0.656504 0.008417
0.829070 0.657725 0.009637
0.856407 0.658944 0.010856
0.883708 0.660161 0.012073
0.911206 0.661387 0.013299
0.942328 0.662775 0.014687
0.000000 0.655317 0.000000
0.000000 0.656965 0.000000
0.001061 0.658526 0.000000
0.035379 0.660056 0.000000
0.069250 0.661566 0.000000
0.104583 0.663142 0.000000
0.139865 0.664715 0.000000
0.174921 0.666278 0.000000
0.209784 0.667832 0.000000
0.244479 0.669379 0.000000
0.279026 0.670920 0.000000
0.313441 0.672454 0.000000
0.347631 0.673979 0.000000
0.379880 0.675417 0.000000
0.412033 0.676850 0.000000
0.444099 0.678280 0.000000
0.476082 0.679706 0.000000
0.507988 0.681129 0.000241
0.539823 0.682548 0.001660
0.571589 0.683964 0.003077
0.603291 0.685378 0.004490
0.634932 0.686789 0.005901
0.666515 0.688197 0.007309
0.696939 0.689553 0.008666
0.724480 0.690781 0.009894
0.751976 0.692007 0.011120
0.779431 0.693232 0.012344
0.806845 0.694454 0.013566
0.834220 0.695674 0.014787
0.861557 0.696893 0.016005
0.888858 0.698111 0.017223
0.916355 0.699337 0.018449
0.947478 0.700724 0.019836
0.000000 0.688523 0.000000
0.000000 0.690171 0.000000
0.005567 0.691732 0.000000
0.039884 0.693262 0.000000
0.073756 0.694772 0.000000
0.109089 0.696348 0.000000
0.144371 0.697921 0.000000
0.179427 0.699484 0.000000
0.214290 0.701038 0.000000
0.248985 0.702585 0.000000
0.283532 0.704126 0.000000
0.317946 0.705660 0.000000
0.352136 0.707184 0.000000
0.384386 0.708622 0.000000
0.416539 0.710056 0.000468
0.448605 0.711486 0.001898
0.480588 0.712912 0.003324
0.512494 0.714334 0.004747
0.544328 0.715754 0.006166
0.576095 0.717170 0.007582
0.607797 0.718584 0.008996
0.639438 0.719994 0.010407
0.671021 0.721403 0.011815
0.701445 0.722759 0.013171
0.728985 0.723987 0.014399
0.756482 0.725213 0.015625
0.783937 0.726437 0.016849
0.811351 0.727660 0.018072
0.838725 0.728880 0.019292
0.866063 0.730099 0.020511
0.893364 0.731316 0.021729
0.920861 0.732542 0.022955
0.951984 0.733930 0.024342
0.000000 0.721728 0.000000
0.000000 0.723376 0.000000
0.010073 0.724938 0.000000
0.044390 0.726468 0.000000
0.078262 0.727978 0.000000
0.113595 0.729553 0.000000
0.148877 0.731126 0.000000
0.183933 0.732689 0.000000
0.218796 0.734244 0.000000
0.253491 0.735791 0.000000
0.288038 0.737331 0.000000
0.322452 0.738866 0.000578
0.356642 0.740390 0.002102
0.388891 0.741828 0.003540
0.421045 0.743262 0.004974
0.453110 0.744691 0.006404
0.485094 0.746117 0.007830
0.517000 0.747540 0.009252
0.548834 0.748960 0.010672
0.580601 0.750376 0.012088
0.612303 0.751789 0.013502
0.643944 0.753200 0.014912
0.675527 0.754608 0.016321
0.705950 0.755965 0.017677
0.733491 0.757193 0.018905
0.760988 0.758419 0.020131
0.788442 0.759643 0.021355
0.815856 0.760865 0.022578
0.843231 0.762086 0.023798
0.870568 0.763305 0.025017
0.897869 0.764522 0.026234
0.925367 0.765748 0.027460
0.956489 0.767136 0.028848
0.000000 0.754934 0.000000
0.000000 0.756582 0.000000
0.014579 0.758143 0.000000
0.048896 0.759673 0.000000
0.082767 0.761184 0.000000
0.118101 0.762759 0.000000
0.153383 0.764332 0.000000
0.188438 0.765895 0.000000
0.223301 0.767450 0.000462
0.257997 0.768997 0.002009
0.292544 0.770537 0.003549
0.326958 0.772071 0.005084
0.361148 0.773596 0.006608
0.393397 0.775034 0.008046
0.425551 0.776467 0.009480
0.457616 0.777897 0.010909
0.489599 0.779323 0.012335
0.521506 0.780746 0.013758
0.553340 0.782165 0.015177
0.585106 0.783582 0.016594
0.616808 0.784995 0.018007
0.648449 0.786406 0.019418
0.680032 0.787814 0.020826
0.710456 0.789171 0.022183
0.737997 0.790399 0.023411
0.765494 0.791625 0.024637
0.792948 0.792849 0.025861
0.820362 0.794071 0.027083
0.847737 0.795292 0.028304
0.875074 0.796511 0.029523
0.902375 0.797728 0.030740
0.929873 0.798954 0.031966
0.960995 0.800342 0.033354
0.000000 0.788140 0.000000
0.000000 0.789788 0.000000
0.019084 0.791349 0.000000
0.053402 0.792879 0.000000
0.087273 0.794389 0.000000
0.122606 0.795965 0.000277
0.157889 0.797538 0.001850
0.192944 0.799101 0.003413
0.227807 0.800655 0.004968
0.262502 0.802202 0.006515
0.297049 0.803743 0.008055
0.331464 0.805277 0.009589
0.365654 0.806802 0.011114
0.397903 0.808240 0.012552
0.430056 0.809673 0.013985
0.462122 0.811103 0.015415
0.494105 0.812529 0.016841
0.526012 0.813952 0.018264
0.557846 0.815371 0.019683
0.589612 0.816787 0.021100
0.621314 0.818201 0.022513
0.652955 0.819612 0.023924
0.684538 0.821020 0.025332
0.714962 0.822376 0.026689
0.742503 0.823604 0.027917
0.769999 0.824830 0.029143
0.797454 0.826055 0.030367
0.824868 0.827277 0.031589
0.852243 0.828497 0.032810
0.879580 0.829716 0.034029
0.906881 0.830934 0.035246
0.934378 0.832160 0.036472
0.965501 0.833547 0.037860
0.000000 0.821346 0.000000
0.000000 0.822994 0.000000
0.023590 0.824555 0.000167
0.057907 0.826085 0.001697
0.091779 0.827595 0.003207
0.127112 0.829171 0.004783
0.162394 0.830744 0.006356
0.197450 0.832307 0.007919
0.232313 0.833861 0.009473
0.267008 0.835408 0.011020
0.301555 0.836949 0.012561
0.335969 0.838483 0.014095
0.370159 0.840007 0.015620
0.402409 0.841445 0.017058
0.434562 0.842879 0.018491
0.466628 0.844309 0.019921
0.498611 0.845735 0.021347
0.530517 0.847157 0.022770
0.562352 0.848577 0.024189
0.594118 0.849993 0.025605
0.625820 0.851407 0.027019
0.657461 0.852817 0.028430
0.689044 0.854226 0.029838
0.719468 0.855582 0.031194
0.747008 0.856810 0.032422
0.774505 0.858036 0.033648
0.801960 0.859260 0.034872
