flutter_app/assets/lut/cameras/inst_s.cube
TITLE "INST S - Portrait Soft"
LUT_3D_SIZE 9
0.076631 0.073563 0.073563
0.195050 0.068004 0.068004
0.312638 0.063150 0.063150
0.429159 0.059091 0.059091
0.540852 0.056012 0.056012
0.655069 0.053859 0.053859
0.723290 0.053065 0.053065
0.786370 0.052655 0.052655
0.873439 0.052597 0.052597
0.065917 0.183974 0.062875
0.184637 0.178493 0.057336
0.303274 0.173158 0.053320
0.420833 0.168579 0.050128
0.533399 0.164962 0.047918
0.648278 0.162236 0.046660
0.716914 0.161090 0.046399
0.780391 0.160348 0.046482
0.868027 0.159823 0.047104
0.056283 0.297239 0.053271
0.174216 0.292309 0.048102
0.293334 0.287192 0.042886
0.411998 0.282092 0.040618
0.525516 0.277932 0.039331
0.641095 0.274625 0.039023
0.710169 0.273123 0.039329
0.774064 0.272045 0.039935
0.862300 0.271047 0.041279
0.048193 0.410376 0.045214
0.165256 0.405986 0.040495
0.284455 0.401958 0.035542
0.404871 0.397858 0.030651
0.520493 0.393804 0.030298
0.637793 0.390583 0.030986
0.705023 0.388916 0.031870
0.770452 0.387488 0.033063
0.856248 0.386071 0.035110
0.042014 0.519578 0.039068
0.158163 0.515676 0.034802
0.277407 0.512650 0.030273
0.398124 0.509709 0.025574
0.515611 0.506779 0.021316
0.634666 0.503676 0.023016
0.700013 0.501886 0.024440
0.767013 0.500113 0.026242
0.850205 0.498336 0.028935
0.037649 0.631469 0.034739
0.152813 0.627913 0.030940
0.272030 0.625792 0.026878
0.392885 0.623887 0.022666
0.510688 0.622000 0.018471
0.631404 0.619969 0.014899
0.694899 0.617967 0.016839
0.763497 0.615738 0.019287
0.844008 0.613538 0.022589
0.035951 0.701806 0.033065
0.150480 0.698476 0.029558
0.270059 0.695864 0.025801
0.391466 0.693333 0.021897
0.509961 0.690825 0.017997
0.631176 0.688276 0.014033
0.692906 0.686567 0.012481
0.762911 0.684048 0.015338
0.840418 0.681659 0.018905
0.035117 0.762916 0.032250
0.149083 0.759789 0.028996
0.268105 0.757945 0.025518
0.388955 0.756312 0.021912
0.506902 0.754707 0.018317
0.627388 0.753070 0.014670
0.688733 0.751650 0.012845
0.759302 0.749577 0.011488
0.837029 0.746910 0.015423
0.034936 0.850084 0.032098
0.148083 0.847254 0.029203
0.266282 0.846241 0.026135
0.386337 0.844355 0.022944
0.503576 0.841223 0.019732
0.623207 0.838035 0.016457
0.684088 0.836444 0.014821
0.754192 0.834636 0.012962
0.832644 0.832644 0.010912
0.074543 0.071506 0.191802
0.193040 0.065944 0.186292
0.310830 0.061252 0.180305
0.427551 0.057360 0.175051
0.539411 0.054449 0.170757
0.653756 0.052469 0.167334
0.722058 0.051778 0.165772
0.785214 0.051462 0.164645
0.872393 0.051536 0.163590
0.063825 0.181961 0.181347
0.182671 0.176456 0.175835
0.302468 0.170860 0.170245
0.421171 0.166011 0.165403
0.534842 0.162124 0.161523
0.650926 0.159120 0.158527
0.720306 0.157809 0.157220
0.784485 0.156916 0.156331
0.873117 0.156182 0.155603
0.054330 0.295441 0.170695
0.171575 0.291031 0.164800
0.291724 0.285511 0.159215
0.411553 0.280147 0.155272
0.526185 0.275723 0.152292
0.642946 0.272145 0.150224
0.712752 0.270482 0.149470
0.777340 0.269255 0.149092
0.866556 0.268052 0.149070
0.046384 0.408792 0.161507
0.161925 0.405467 0.155219
0.281252 0.400523 0.150020
0.402544 0.395926 0.144708
0.519307 0.391611 0.142601
0.637800 0.388120 0.141467
0.706707 0.386823 0.141266
0.772895 0.385343 0.141438
0.859624 0.383733 0.142149
0.040351 0.518186 0.154189
0.154142 0.515880 0.147509
0.272590 0.511457 0.142765
0.394031 0.507932 0.137715
0.512537 0.504572 0.132940
0.632795 0.501193 0.132759
0.700795 0.500310 0.133085
0.768628 0.498584 0.133829
0.852702 0.496626 0.135221
0.036136 0.630222 0.148607
0.148081 0.628875 0.141525
0.265577 0.624798 0.137254
0.387073 0.622199 0.132661
0.505851 0.619896 0.128058
0.627615 0.617453 0.123851
0.694755 0.616859 0.124707
0.764262 0.614766 0.126063
0.845607 0.612388 0.128099
0.034533 0.700652 0.146130
0.145306 0.699927 0.138799
0.262185 0.696078 0.134823
0.384130 0.692952 0.130545
0.503568 0.690000 0.126247
0.625808 0.686986 0.121864
0.692183 0.685918 0.119868
0.763198 0.683409 0.121619
0.841497 0.680846 0.123965
0.033779 0.761846 0.144610
0.143527 0.761673 0.137064
0.259860 0.758027 0.133343
0.381259 0.755697 0.129338
0.500168 0.753644 0.125322
0.621673 0.751538 0.121233
0.687622 0.751317 0.119058
0.759107 0.749267 0.117349
0.837616 0.746426 0.120055
0.033714 0.849137 0.143436
0.141988 0.849770 0.135588
0.257523 0.846423 0.132229
0.378116 0.844951 0.128633
0.496297 0.842557 0.125032
0.616927 0.838902 0.121351
0.682466 0.836956 0.119390
0.753481 0.834878 0.117293
0.832598 0.832598 0.114991
0.072655 0.069653 0.312265
0.190231 0.064497 0.307348
0.308905 0.059231 0.302170
0.425839 0.055517 0.295707
0.537877 0.052784 0.290182
0.652359 0.050989 0.285468
0.720746 0.050407 0.283126
0.783984 0.050193 0.281272
0.871279 0.050406 0.279201
0.062768 0.179564 0.302895
0.180478 0.174329 0.299120
0.300388 0.168717 0.293565
0.419314 0.164040 0.287502
0.533174 0.160325 0.282377
0.649395 0.157500 0.278077
0.718861 0.156294 0.275982
0.783123 0.155499 0.274357
0.871873 0.154900 0.272603
0.052293 0.293498 0.292884
0.169374 0.288956 0.288334
0.289687 0.283398 0.282769
0.410764 0.277752 0.277130
0.526587 0.273047 0.272432
0.644601 0.269180 0.268573
0.715181 0.267345 0.266741
0.780502 0.265960 0.265360
0.870758 0.264538 0.263944
0.044525 0.407061 0.282580
0.159848 0.403640 0.277600
0.278488 0.399228 0.271634
0.399939 0.393664 0.266001
0.517759 0.388979 0.262129
0.637513 0.385200 0.259141
0.707792 0.383721 0.257843
0.775063 0.382647 0.256928
0.862888 0.380926 0.256266
0.038669 0.516648 0.274098
0.152189 0.514281 0.268688
0.269107 0.510946 0.262324
0.389733 0.505949 0.257077
0.509000 0.501993 0.251833
0.630532 0.498291 0.249736
0.700504 0.497200 0.248959
0.769798 0.496457 0.248534
0.855031 0.494497 0.248579
0.034638 0.628819 0.267270
0.146258 0.627443 0.261418
0.261354 0.625076 0.254646
0.381069 0.620424 0.249874
0.500471 0.617401 0.244896
0.623334 0.614517 0.240083
0.693033 0.613695 0.239838
0.764406 0.613132 0.239954
0.846979 0.610849 0.240676
0.033149 0.699338 0.263993
0.143563 0.698605 0.257867
0.257501 0.696865 0.250841
0.376623 0.692441 0.246366
0.496538 0.688871 0.241701
0.619861 0.685362 0.236896
0.689286 0.683951 0.234452
0.762694 0.682246 0.235000
0.842314 0.679661 0.236086
0.032496 0.760612 0.261766
0.141855 0.760449 0.255404
0.254778 0.759267 0.248160
0.373372 0.755046 0.243942
0.492775 0.752271 0.239534
0.615364 0.749667 0.234999
0.684341 0.749093 0.232482
0.758092 0.748352 0.230311
0.837911 0.745586 0.231746
0.032571 0.848020 0.259569
0.140416 0.848689 0.252873
0.251877 0.848322 0.245322
0.369701 0.844401 0.241469
0.488347 0.842481 0.237450
0.610000 0.839527 0.233340
0.678538 0.837236 0.231081
0.751897 0.834821 0.228696
0.832218 0.832218 0.226124
0.071067 0.068101 0.431076
0.187635 0.063399 0.426703
0.305409 0.058535 0.422179
0.424070 0.053612 0.417360
0.536293 0.051064 0.410630
0.650915 0.049458 0.404651
0.719391 0.048990 0.401543
0.782713 0.048881 0.398974
0.870129 0.049239 0.395905
0.062046 0.177439 0.422778
0.178564 0.172487 0.420716
0.297513 0.167300 0.415784
0.417384 0.162008 0.410588
0.531435 0.158473 0.404248
0.647793 0.155833 0.398672
0.717344 0.154739 0.395804
0.781688 0.154046 0.393458
0.870555 0.153588 0.390697
0.052484 0.290803 0.413880
0.168348 0.286527 0.411128
0.287472 0.281251 0.407378
0.408669 0.275590 0.401779
0.524696 0.271058 0.395851
0.642847 0.267371 0.390701
0.713513 0.265642 0.388089
0.778916 0.264356 0.385978
0.869291 0.263070 0.383544
0.042602 0.405271 0.404659
0.157796 0.401687 0.401067
0.276265 0.397137 0.396509
0.397888 0.391534 0.390899
0.516010 0.386027 0.385399
0.636895 0.381858 0.380606
0.708582 0.380187 0.378211
0.776320 0.378960 0.376269
0.865912 0.377567 0.374196
0.036930 0.515058 0.395041
0.150316 0.512533 0.391031
0.267009 0.509099 0.386038
0.386949 0.504642 0.380023
0.505392 0.499212 0.374527
0.627892 0.495034 0.370574
0.699897 0.493694 0.368674
0.769354 0.492801 0.367175
0.857098 0.491728 0.365781
0.033089 0.627370 0.386994
0.144570 0.625831 0.382553
0.259386 0.623396 0.377114
0.377537 0.619910 0.370685
0.495152 0.614820 0.365578
0.618638 0.611198 0.360252
0.690980 0.610134 0.358864
0.762202 0.609445 0.357850
0.848064 0.608571 0.357125
0.031720 0.697981 0.382932
0.141992 0.697082 0.378224
0.255614 0.695296 0.372506
0.372625 0.692442 0.365820
0.489695 0.687570 0.361001
0.613456 0.683409 0.355827
0.686036 0.681621 0.352952
0.758997 0.679772 0.352338
0.842817 0.677881 0.352084
0.031169 0.759337 0.380013
0.140384 0.759006 0.375073
0.252961 0.757796 0.369116
0.368972 0.755504 0.362208
0.485555 0.750829 0.357639
0.608594 0.747467 0.352712
0.680706 0.746510 0.349843
0.753886 0.745539 0.347278
0.837883 0.744036 0.347334
0.031390 0.846865 0.376810
0.139087 0.847363 0.371544
0.250161 0.846994 0.365248
0.364731 0.845526 0.358027
0.480600 0.841140 0.353813
0.602645 0.838637 0.349266
0.674215 0.837182 0.346658
0.746981 0.834515 0.344086
0.831468 0.831468 0.341144
0.069850 0.066920 0.544643
0.185401 0.062673 0.540717
0.302174 0.058279 0.536664
0.419996 0.053735 0.532478
0.534711 0.049345 0.528120
0.649474 0.047929 0.520868
0.718037 0.047574 0.517004
0.781444 0.047570 0.513736
0.868980 0.048072 0.509700
0.061694 0.175679 0.537237
0.177014 0.171009 0.536796
0.294944 0.166283 0.532348
0.413914 0.161394 0.527757
0.529699 0.156622 0.523039
0.646192 0.154168 0.516200
0.715829 0.153185 0.512579
0.780255 0.152594 0.509535
0.869239 0.152278 0.505808
0.053056 0.288461 0.529281
0.167691 0.284452 0.528226
0.285609 0.279462 0.526182
0.405840 0.274229 0.521163
0.522797 0.269076 0.516067
0.641079 0.265570 0.509665
0.711827 0.263949 0.506303
0.777310 0.262763 0.503498
0.867798 0.261615 0.500098
0.044115 0.402363 0.521075
0.158063 0.399037 0.519199
0.275300 0.394756 0.516435
0.395723 0.389438 0.512635
0.513950 0.383915 0.507152
0.634030 0.379374 0.501202
0.706298 0.377685 0.498044
0.773853 0.376552 0.495394
0.864384 0.375256 0.492332
0.035193 0.513471 0.512884
0.148445 0.510787 0.510193
0.265007 0.507190 0.506590
0.384775 0.502597 0.501990
0.503386 0.497132 0.496518
0.625203 0.491615 0.491008
0.698944 0.489878 0.488035
0.768548 0.488809 0.485537
0.858901 0.487480 0.482803
0.031542 0.625923 0.503655
0.142884 0.624221 0.500557
0.257564 0.621618 0.496532
0.375488 0.618029 0.491489
0.492413 0.613505 0.485612
0.614050 0.607807 0.480105
0.688601 0.606213 0.477617
0.759644 0.605402 0.475558
0.848933 0.604252 0.473491
0.030291 0.696625 0.498848
0.140421 0.695561 0.495493
0.253905 0.693604 0.491197
0.370654 0.690668 0.485873
0.486502 0.686756 0.479745
0.607320 0.681283 0.474455
0.682455 0.678953 0.471218
0.754935 0.676966 0.469538
0.843043 0.674730 0.467971
0.029843 0.758063 0.495273
0.138914 0.757565 0.491693
0.251350 0.756181 0.487164
0.367068 0.753825 0.481597
0.481970 0.750460 0.475252
0.602095 0.745181 0.470211
0.676753 0.743575 0.467036
0.749329 0.742380 0.464144
0.837628 0.740525 0.462884
0.030210 0.845712 0.491117
0.137759 0.846039 0.487218
0.248689 0.845494 0.482358
0.362923 0.843988 0.476448
0.476458 0.841423 0.469797
0.595634 0.836431 0.465109
0.669642 0.835558 0.462145
0.741696 0.833872 0.459350
0.830490 0.830356 0.455953
0.068984 0.066091 0.660447
0.183481 0.062312 0.656868
0.299214 0.058402 0.653170
0.416015 0.054359 0.649353
0.529886 0.050323 0.645547
0.647992 0.046356 0.641401
0.716646 0.046118 0.636583
0.780139 0.046221 0.632444
0.867799 0.046872 0.627221
0.061717 0.174246 0.653736
0.175797 0.169868 0.654974
0.292670 0.165615 0.650871
0.410601 0.161216 0.646635
0.525499 0.156825 0.642413
0.644547 0.152455 0.637884
0.714272 0.151586 0.633316
0.778781 0.151101 0.629407
0.867886 0.150930 0.624500
0.054030 0.286420 0.646477
0.167393 0.282688 0.647148
0.284063 0.277992 0.646795
0.403236 0.273237 0.642117
0.519259 0.268490 0.637456
0.639262 0.263717 0.632525
0.710095 0.262207 0.628223
0.775659 0.261124 0.624558
0.866264 0.260119 0.619987
0.046075 0.399725 0.638987
0.158727 0.396669 0.638813
0.274683 0.392666 0.637785
0.393853 0.387644 0.635683
0.511096 0.382551 0.630571
0.632037 0.377385 0.625226
0.703987 0.375245 0.621199
0.771260 0.374125 0.617716
0.862687 0.372951 0.613486
0.038117 0.510258 0.631517
0.150057 0.507840 0.630502
0.265320 0.504518 0.628606
0.383806 0.500209 0.625746
0.501212 0.495030 0.621912
0.623040 0.489496 0.616159
0.696075 0.486759 0.612408
0.765051 0.485607 0.609092
0.857198 0.484303 0.605177
0.029951 0.624435 0.623837
0.141149 0.622566 0.621962
0.255690 0.619791 0.619180
0.373479 0.616024 0.615405
0.490233 0.611358 0.610732
0.611943 0.605625 0.604993
0.686057 0.602154 0.601527
0.756714 0.600930 0.598382
0.849478 0.599488 0.594787
0.028822 0.695232 0.618017
0.138806 0.693998 0.615880
0.252147 0.691865 0.612829
0.368758 0.688748 0.608779
0.484400 0.684715 0.603832
0.604734 0.679593 0.597843
0.678781 0.676046 0.594378
0.750472 0.673764 0.591614
0.842935 0.671164 0.588540
0.028479 0.756754 0.613587
0.137402 0.756083 0.611224
0.249693 0.754522 0.607942
0.365270 0.751983 0.603653
0.479935 0.748514 0.598471
0.599104 0.743938 0.592268
0.672702 0.740504 0.588941
0.744368 0.738823 0.585689
0.837465 0.736595 0.582665
0.028996 0.844526 0.608251
0.136393 0.844678 0.605570
0.247174 0.843952 0.601959
0.361263 0.842259 0.597333
0.474520 0.839616 0.591815
0.592070 0.835840 0.585309
0.665042 0.832572 0.582203
0.736453 0.831621 0.578844
0.829898 0.828835 0.574518
0.068641 0.065771 0.732834
0.182474 0.062284 0.729482
0.297552 0.058678 0.726020
0.413708 0.054948 0.722445
0.526934 0.051226 0.718882
0.644500 0.047399 0.715224
0.715776 0.045207 0.712928
0.779323 0.045378 0.708224
0.867060 0.046122 0.702232
0.061931 0.173544 0.726581
0.175230 0.169348 0.728910
0.291437 0.165392 0.725035
0.408714 0.161300 0.721034
0.522965 0.157215 0.717047
0.641439 0.153016 0.712953
0.713298 0.150586 0.710419
0.777860 0.150167 0.705948
0.867041 0.150087 0.700276
0.054839 0.285334 0.719781
0.167402 0.281774 0.721576
0.283287 0.277263 0.722325
0.401792 0.272808 0.717874
0.517168 0.268360 0.713439
0.636560 0.263787 0.708886
0.709012 0.261118 0.706100
0.774627 0.260099 0.701877
0.865305 0.259183 0.696546
0.047499 0.398260 0.712765
0.159338 0.395373 0.713699
0.274488 0.391544 0.713805
0.392870 0.386708 0.712812
0.509461 0.381908 0.707916
0.629754 0.376971 0.702892
0.702791 0.374069 0.699847
0.769468 0.372459 0.695881
0.861637 0.371264 0.690871
0.040159 0.508427 0.705766
0.151272 0.506176 0.705845
0.265714 0.503026 0.705067
0.383390 0.498895 0.703345
0.500033 0.493898 0.700586
0.621176 0.488621 0.695094
0.694768 0.485501 0.691792
0.762477 0.483330 0.688084
0.856080 0.481884 0.683378
0.032601 0.622153 0.698581
0.142964 0.620453 0.697781
0.256675 0.617853 0.696098
0.373644 0.614267 0.693443
0.489619 0.609781 0.689870
0.610509 0.604238 0.685197
0.684640 0.600756 0.681632
0.753381 0.597918 0.678190
0.848546 0.596170 0.673687
0.027903 0.694361 0.694106
0.137796 0.693020 0.692763
0.251048 0.690778 0.690518
0.367572 0.687548 0.687285
0.483133 0.683403 0.683137
0.603300 0.678187 0.677918
0.677378 0.674623 0.674352
0.746744 0.671345 0.671076
0.843313 0.668298 0.666564
0.027626 0.755935 0.689119
0.136456 0.755157 0.687546
0.248656 0.753485 0.685065
0.364145 0.750831 0.681589
0.478728 0.747248 0.677200
0.597707 0.742596 0.671736
0.671039 0.739352 0.668036
0.740674 0.736014 0.664568
0.837562 0.733228 0.660339
0.028237 0.843785 0.683010
0.135539 0.843827 0.681113
0.246227 0.842987 0.678297
0.360225 0.841177 0.674477
0.473397 0.838418 0.669748
0.590724 0.834594 0.663935
0.663455 0.831821 0.659771
0.732668 0.828634 0.656380
0.829465 0.826382 0.651553
0.068468 0.065619 0.794834
0.181729 0.062383 0.791685
0.296243 0.059036 0.788432
0.411844 0.055576 0.785073
0.524516 0.052122 0.781725
0.641413 0.048571 0.778287
0.712395 0.046456 0.776242
0.778623 0.044654 0.774148
0.866427 0.045478 0.767479
0.062236 0.173061 0.788988
0.174863 0.169022 0.792278
0.290497 0.165320 0.788607
0.407208 0.161492 0.784815
0.520905 0.157670 0.781036
0.638718 0.153741 0.777157
0.710270 0.151401 0.774848
0.777070 0.149366 0.772543
0.866315 0.149364 0.766198
0.055654 0.284519 0.782597
0.167529 0.281108 0.785381
0.282737 0.276755 0.787102
0.400668 0.272557 0.782854
0.515487 0.268366 0.778620
0.634228 0.264057 0.774275
0.706358 0.261490 0.771689
0.773742 0.259220 0.769161
0.864482 0.258380 0.763161
0.048843 0.397118 0.776002
0.159981 0.394375 0.777914
0.274438 0.390696 0.779019
0.392140 0.386020 0.779006
0.508172 0.381470 0.774304
0.627825 0.376791 0.769479
0.700524 0.374003 0.766608
0.768485 0.371504 0.763852
0.860737 0.369836 0.758210
0.042031 0.506969 0.769423
0.152432 0.504861 0.770466
0.266168 0.501860 0.770675
0.383148 0.497881 0.769960
0.499133 0.493038 0.768152
0.619648 0.488013 0.762850
0.692886 0.485019 0.759696
0.761397 0.482304 0.756713
0.855122 0.479848 0.751430
0.035018 0.620302 0.762667
0.144658 0.618749 0.762820
0.257651 0.616300 0.762109
0.373909 0.612871 0.760446
0.489208 0.608542 0.757849
0.609392 0.603164 0.754125
0.683155 0.599826 0.750682
0.752202 0.596776 0.747467
0.848068 0.593416 0.742137
0.030647 0.692262 0.758465
0.139812 0.691069 0.758065
0.252340 0.688980 0.756783
0.368147 0.685908 0.754531
0.483027 0.681921 0.751349
0.602493 0.676867 0.747107
0.676138 0.673401 0.744098
0.745956 0.670122 0.740458
0.842752 0.666164 0.735338
0.026895 0.755233 0.754831
0.135644 0.754363 0.753956
0.247767 0.752595 0.752183
0.363180 0.749843 0.749427
0.477693 0.746163 0.745741
0.596557 0.741411 0.740985
0.670165 0.738116 0.737459
0.739993 0.734767 0.733795
0.837549 0.730281 0.728873
0.027586 0.843149 0.748042
0.134806 0.843097 0.746837
0.245414 0.842161 0.744725
0.359335 0.840251 0.741619
0.472434 0.837392 0.737587
0.590094 0.833465 0.732199
0.662810 0.830652 0.728362
0.731658 0.827723 0.724535
0.829091 0.823127 0.719628
0.068416 0.065596 0.883302
0.180856 0.062719 0.880455
0.294557 0.059744 0.877513
0.409358 0.056668 0.874475
0.521242 0.053598 0.871445
0.637186 0.050442 0.868335
0.707582 0.048562 0.866485
0.773464 0.046827 0.864777
0.865522 0.044557 0.862252
0.062868 0.172563 0.878060
0.174530 0.168748 0.882763
0.289338 0.165409 0.879394
0.405238 0.161957 0.875915
0.518142 0.158512 0.872447
0.635016 0.154970 0.868886
0.705988 0.152860 0.866767
0.772418 0.150912 0.864812
0.865278 0.148331 0.861970
0.057014 0.283540 0.872278
0.167901 0.280342 0.876517
0.282139 0.276215 0.879669
0.399243 0.272385 0.875723
0.513265 0.268562 0.871791
0.631081 0.264631 0.867754
0.702639 0.262290 0.865352
0.769627 0.260127 0.863136
0.863307 0.257232 0.859958
0.050958 0.395667 0.866308
0.161093 0.393131 0.869659
0.274553 0.389667 0.872237
0.391280 0.385219 0.873669
0.506509 0.381028 0.869258
0.625251 0.376718 0.864731
0.697388 0.374150 0.862037
0.764926 0.371779 0.859552
0.859418 0.368576 0.856029
0.044903 0.505065 0.860353
0.154283 0.503161 0.862818
0.267006 0.500370 0.864481
0.382984 0.496609 0.865253
0.498026 0.491989 0.864850
0.617647 0.487323 0.859835
0.690332 0.484543 0.856851
0.758394 0.481976 0.854099
0.854320 0.478484 0.849821
0.038670 0.617840 0.854237
0.147272 0.616496 0.855793
0.259233 0.614264 0.856518
0.374471 0.611059 0.856321
0.488800 0.606953 0.855167
0.607978 0.601811 0.852849
0.681432 0.598693 0.849423
0.750507 0.595817 0.846084
0.847235 0.591890 0.841429
0.034785 0.689441 0.850432
0.142902 0.688460 0.851424
0.254388 0.686591 0.851566
0.369163 0.683746 0.850768
0.483060 0.679986 0.849016
0.601708 0.675166 0.846108
0.675275 0.671841 0.843590
0.744652 0.668755 0.840083
0.841832 0.664526 0.835211
0.031429 0.752104 0.847150
0.139126 0.751447 0.847656
0.250201 0.749900 0.847295
0.364576 0.747377 0.845979
0.478100 0.743925 0.843711
0.596579 0.739408 0.840011
0.669747 0.736252 0.837222
0.739001 0.733037 0.834291
0.836558 0.728543 0.829233
0.026672 0.842233 0.842504
0.133773 0.842048 0.842322
0.244264 0.840974 0.841251
0.358071 0.838921 0.839202
0.471409 0.835921 0.835989
0.589336 0.831850 0.831377
0.661945 0.828951 0.828149
0.730668 0.825961 0.824849
0.828123 0.821348 0.819800
