flutter_app/assets/lut/cameras/inst_c.cube
TITLE "Instax Wide"
# DAZZ Camera LUT - Instax Wide
# Generated for DAZZ retro camera app
LUT_3D_SIZE 33
DOMAIN_MIN 0.0 0.0 0.0
DOMAIN_MAX 1.0 1.0 1.0
0.012584 0.000000 0.000000
0.050479 0.000000 0.000000
0.089930 0.000000 0.000000
0.130127 0.000000 0.000000
0.170844 0.000000 0.000000
0.211960 0.000000 0.000000
0.253404 0.000000 0.000000
0.295124 0.000000 0.000000
0.337084 0.000000 0.000000
0.378926 0.000000 0.000000
0.420054 0.000000 0.000000
0.461348 0.000000 0.000000
0.502795 0.000000 0.000000
0.544383 0.000000 0.000000
0.586102 0.000000 0.000000
0.627942 0.000000 0.000000
0.669897 0.000000 0.000000
0.711959 0.000000 0.000000
0.754123 0.000000 0.000000
0.796383 0.000000 0.000000
0.839160 0.000000 0.000000
0.882659 0.000000 0.000000
0.926244 0.000000 0.000000
0.969910 0.000000 0.000000
1.000000 0.000000 0.000000
1.000000 0.000000 0.000000
1.000000 0.000000 0.000000
1.000000 0.000000 0.000000
1.000000 0.000000 0.000000
1.000000 0.000000 0.000000
1.000000 0.000000 0.000000
1.000000 0.000000 0.000000
1.000000 0.000000 0.000000
0.008045 0.005783 0.000000
0.045940 0.004391 0.000000
0.085390 0.002942 0.000000
0.125587 0.001465 0.000000
0.166304 0.000000 0.000000
0.207421 0.000000 0.000000
0.248864 0.000000 0.000000
0.290584 0.000000 0.000000
0.332544 0.000000 0.000000
0.374387 0.000000 0.000000
0.415514 0.000000 0.000000
0.456808 0.000000 0.000000
0.498256 0.000000 0.000000
0.539844 0.000000 0.000000
0.581562 0.000000 0.000000
0.623403 0.000000 0.000000
0.665357 0.000000 0.000000
0.707420 0.000000 0.000000
0.749583 0.000000 0.000000
0.791843 0.000000 0.000000
0.834620 0.000000 0.000000
0.878120 0.000000 0.000000
0.921704 0.000000 0.000000
0.965370 0.000000 0.000000
1.000000 0.000000 0.000000
1.000000 0.000000 0.000000
1.000000 0.000000 0.000000
1.000000 0.000000 0.000000
1.000000 0.000000 0.000000
1.000000 0.000000 0.000000
1.000000 0.000000 0.000000
1.000000 0.000000 0.000000
1.000000 0.000000 0.000000
0.003296 0.040873 0.000000
0.041191 0.039481 0.000000
0.080641 0.038031 0.000000
0.120839 0.036555 0.000000
0.161555 0.035059 0.000000
0.202672 0.033549 0.000000
0.244116 0.032026 0.000000
0.285836 0.030494 0.000000
0.327795 0.028952 0.000000
0.369638 0.027415 0.000000
0.410765 0.025904 0.000000
0.452060 0.024387 0.000000
0.493507 0.022865 0.000000
0.535095 0.021337 0.000000
0.576813 0.019805 0.000000
0.618654 0.018268 0.000000
0.660609 0.016726 0.000000
0.702671 0.015181 0.000000
0.744835 0.013632 0.000000
0.787094 0.012080 0.000000
0.829872 0.010509 0.000000
0.873371 0.008911 0.000000
0.916955 0.007309 0.000000
0.960621 0.005705 0.000000
1.000000 0.004098 0.000000
1.000000 0.002489 0.000000
1.000000 0.000876 0.000000
1.000000 0.000000 0.000000
1.000000 0.000000 0.000000
1.000000 0.000000 0.000000
1.000000 0.000000 0.000000
1.000000 0.000000 0.000000
1.000000 0.000000 0.000000
0.000000 0.076504 0.000000
0.036369 0.075112 0.000000
0.075819 0.073663 0.000000
0.116017 0.072187 0.000000
0.156733 0.070691 0.000000
0.197850 0.069180 0.000000
0.239294 0.067658 0.000000
0.281014 0.066125 0.000000
0.322973 0.064584 0.000000
0.364816 0.063047 0.000000
0.405943 0.061536 0.000000
0.447238 0.060019 0.000000
0.488685 0.058497 0.000000
0.530273 0.056969 0.000000
0.571991 0.055436 0.000000
0.613832 0.053899 0.000000
0.655787 0.052358 0.000000
0.697849 0.050813 0.000000
0.740013 0.049264 0.000000
0.782272 0.047712 0.000000
0.825049 0.046140 0.000000
0.868549 0.044542 0.000000
0.912133 0.042941 0.000000
0.955799 0.041337 0.000000
0.999544 0.039730 0.000000
1.000000 0.038120 0.000000
1.000000 0.036508 0.000000
1.000000 0.034893 0.000000
1.000000 0.033293 0.000000
1.000000 0.031712 0.000000
1.000000 0.031185 0.000000
1.000000 0.031185 0.000000
1.000000 0.031185 0.000000
0.000000 0.112371 0.000000
0.031515 0.110979 0.000000
0.070965 0.109530 0.000000
0.111163 0.108053 0.000000
0.151879 0.106558 0.000000
0.192996 0.105047 0.000000
0.234440 0.103525 0.000000
0.276160 0.101992 0.000000
0.318119 0.100451 0.000000
0.359962 0.098914 0.000000
0.401089 0.097403 0.000000
0.442384 0.095886 0.000000
0.483831 0.094363 0.000000
0.525419 0.092836 0.000000
0.567137 0.091303 0.000000
0.608978 0.089766 0.000000
0.650933 0.088225 0.000000
0.692995 0.086680 0.000000
0.735159 0.085131 0.000000
0.777418 0.083578 0.000000
0.820195 0.082007 0.000000
0.863695 0.080409 0.000000
0.907279 0.078808 0.000000
0.950945 0.077204 0.000000
0.994690 0.075597 0.000000
1.000000 0.073987 0.000000
1.000000 0.072375 0.000000
1.000000 0.070760 0.000000
1.000000 0.069160 0.000000
1.000000 0.067579 0.000000
1.000000 0.067052 0.000000
1.000000 0.067052 0.000000
1.000000 0.067052 0.000000
0.000000 0.148416 0.000000
0.026637 0.147024 0.000000
0.066087 0.145575 0.000000
0.106285 0.144098 0.000000
0.147001 0.142603 0.000000
0.188118 0.141092 0.000000
0.229562 0.139570 0.000000
0.271282 0.138037 0.000000
0.313241 0.136496 0.000000
0.355084 0.134959 0.000000
0.396211 0.133448 0.000000
0.437506 0.131931 0.000000
0.478953 0.130408 0.000000
0.520541 0.128881 0.000000
0.562259 0.127348 0.000000
0.604100 0.125811 0.000000
0.646055 0.124270 0.000000
0.688117 0.122725 0.000000
0.730281 0.121176 0.000000
0.772540 0.119624 0.000000
0.815317 0.118052 0.000000
0.858817 0.116454 0.000000
0.902401 0.114853 0.000000
0.946067 0.113249 0.000000
0.989812 0.111642 0.000000
1.000000 0.110032 0.000000
1.000000 0.108420 0.000000
1.000000 0.106805 0.000000
1.000000 0.105205 0.000000
1.000000 0.103624 0.000000
1.000000 0.103097 0.000000
1.000000 0.103097 0.000000
1.000000 0.103097 0.000000
0.000000 0.184605 0.000000
0.021740 0.183213 0.000000
0.061190 0.181764 0.000000
0.101387 0.180287 0.000000
0.142104 0.178792 0.000000
0.183221 0.177281 0.000000
0.224664 0.175759 0.000000
0.266384 0.174226 0.000000
0.308344 0.172685 0.000000
0.350186 0.171148 0.000000
0.391314 0.169637 0.000000
0.432608 0.168120 0.000000
0.474055 0.166597 0.000000
0.515643 0.165070 0.000000
0.557362 0.163537 0.000000
0.599202 0.162000 0.000000
0.641157 0.160459 0.000000
0.683219 0.158914 0.000000
0.725383 0.157365 0.000000
0.767643 0.155812 0.000000
0.810420 0.154241 0.000000
0.853919 0.152643 0.000000
0.897504 0.151042 0.000000
0.941170 0.149438 0.000000
0.984914 0.147831 0.000000
1.000000 0.146221 0.000000
1.000000 0.144609 0.000000
1.000000 0.142994 0.000000
1.000000 0.141393 0.000000
1.000000 0.139813 0.000000
1.000000 0.139286 0.000000
1.000000 0.139286 0.000000
1.000000 0.139286 0.000000
0.000000 0.220915 0.000000
0.016826 0.219523 0.000000
0.056276 0.218074 0.000000
0.096473 0.216597 0.000000
0.137190 0.215101 0.000000
0.178307 0.213591 0.000000
0.219750 0.212068 0.000000
0.261470 0.210536 0.000000
0.303430 0.208994 0.000000
0.345273 0.207457 0.000000
0.386400 0.205946 0.000000
0.427694 0.204429 0.000000
0.469141 0.202907 0.000000
0.510729 0.201379 0.000000
0.552448 0.199847 0.000000
0.594289 0.198310 0.000000
0.636243 0.196768 0.000000
0.678306 0.195223 0.000000
0.720469 0.193674 0.000000
0.762729 0.192122 0.000000
0.805506 0.190551 0.000000
0.849005 0.188953 0.000000
0.892590 0.187352 0.000000
0.936256 0.185747 0.000000
0.980000 0.184141 0.000000
1.000000 0.182531 0.000000
1.000000 0.180918 0.000000
1.000000 0.179304 0.000000
1.000000 0.177703 0.000000
1.000000 0.176123 0.000000
1.000000 0.175596 0.000000
1.000000 0.175596 0.000000
1.000000 0.175596 0.000000
0.000000 0.257328 0.000000
0.011898 0.255936 0.000000
0.051348 0.254487 0.000000
0.091545 0.253010 0.000000
0.132262 0.251515 0.000000
0.173379 0.250004 0.000000
0.214822 0.248482 0.000000
0.256542 0.246949 0.000000
0.298502 0.245408 0.000000
0.340345 0.243871 0.000000
0.381472 0.242360 0.000000
0.422766 0.240843 0.000000
0.464214 0.239321 0.000000
0.505802 0.237793 0.000000
0.547520 0.236260 0.000000
0.589361 0.234723 0.000000
0.631315 0.233182 0.000000
0.673378 0.231637 0.000000
0.715541 0.230088 0.000000
0.757801 0.228536 0.000000
0.800578 0.226964 0.000000
0.844078 0.225366 0.000000
0.887662 0.223765 0.000000
0.931328 0.222161 0.000000
0.975072 0.220554 0.000000
1.000000 0.218944 0.000000
1.000000 0.217332 0.000000
1.000000 0.215717 0.000000
1.000000 0.214117 0.000000
1.000000 0.212536 0.000000
1.000000 0.212009 0.000000
1.000000 0.212009 0.000000
1.000000 0.212009 0.000000
0.000000 0.293833 0.000000
0.006958 0.292441 0.000000
0.046408 0.290992 0.000000
0.086605 0.289516 0.000000
0.127322 0.288020 0.000000
0.168439 0.286509 0.000000
0.209882 0.284987 0.000000
0.251602 0.283454 0.000000
0.293562 0.281913 0.000000
0.335404 0.280376 0.000000
0.376532 0.278865 0.000000
0.417826 0.277348 0.000000
0.459273 0.275826 0.000000
0.500861 0.274298 0.000000
0.542580 0.272765 0.000000
0.584420 0.271228 0.000000
0.626375 0.269687 0.000000
0.668437 0.268142 0.000000
0.710601 0.266593 0.000000
0.752861 0.265041 0.000000
0.795638 0.263469 0.000000
0.839137 0.261871 0.000000
0.882722 0.260270 0.000000
0.926388 0.258666 0.000000
0.970132 0.257059 0.000000
1.000000 0.255449 0.000000
1.000000 0.253837 0.000000
1.000000 0.252222 0.000000
1.000000 0.250622 0.000000
1.000000 0.249041 0.000000
1.000000 0.248514 0.000000
1.000000 0.248514 0.000000
1.000000 0.248514 0.000000
0.000000 0.330420 0.000000
0.002006 0.329028 0.000000
0.041457 0.327579 0.000000
0.081654 0.326102 0.000000
0.122370 0.324606 0.000000
0.163487 0.323096 0.000000
0.204931 0.321574 0.000000
0.246651 0.320041 0.000000
0.288610 0.318500 0.000000
0.330453 0.316963 0.000000
0.371580 0.315452 0.000000
0.412875 0.313935 0.000000
0.454322 0.312412 0.000000
0.495910 0.310884 0.000000
0.537629 0.309352 0.000000
0.579469 0.307815 0.000000
0.621424 0.306274 0.000000
0.663486 0.304729 0.000000
0.705650 0.303180 0.000000
0.747910 0.301627 0.000000
0.790687 0.300056 0.000000
0.834186 0.298458 0.000000
0.877770 0.296857 0.000000
0.921437 0.295253 0.000000
0.965181 0.293646 0.000000
1.000000 0.292036 0.000000
1.000000 0.290424 0.000000
1.000000 0.288809 0.000000
1.000000 0.287208 0.000000
1.000000 0.285628 0.000000
1.000000 0.285101 0.000000
1.000000 0.285101 0.000000
1.000000 0.285101 0.000000
0.000000 0.366067 0.000000
0.000000 0.364675 0.000000
0.036632 0.363226 0.000000
0.076830 0.361749 0.000000
0.117546 0.360254 0.000000
0.158663 0.358743 0.000000
0.200107 0.357221 0.000000
0.241827 0.355688 0.000000
0.283786 0.354147 0.000000
0.325629 0.352610 0.000000
0.366756 0.351099 0.000000
0.408051 0.349582 0.000000
0.449498 0.348060 0.000000
0.491086 0.346532 0.000000
0.532804 0.344999 0.000000
0.574645 0.343462 0.000000
0.616600 0.341921 0.000000
0.658662 0.340376 0.000000
0.700826 0.338827 0.000000
0.743085 0.337275 0.000000
0.785862 0.335703 0.000000
0.829362 0.334105 0.000000
0.872946 0.332504 0.000000
0.916612 0.330900 0.000000
0.960357 0.329293 0.000000
1.000000 0.327683 0.000000
1.000000 0.326071 0.000000
1.000000 0.324456 0.000000
1.000000 0.322856 0.000000
1.000000 0.321275 0.000000
1.000000 0.320748 0.000000
1.000000 0.320748 0.000000
1.000000 0.320748 0.000000
0.000000 0.401725 0.000000
0.000000 0.400333 0.000000
0.031807 0.398884 0.000000
0.072004 0.397407 0.000000
0.112720 0.395912 0.000000
0.153837 0.394401 0.000000
0.195281 0.392879 0.000000
0.237001 0.391346 0.000000
0.278960 0.389805 0.000000
0.320803 0.388268 0.000000
0.361931 0.386757 0.000000
0.403225 0.385240 0.000000
0.444672 0.383717 0.000000
0.486260 0.382190 0.000000
0.527979 0.380657 0.000000
0.569819 0.379120 0.000000
0.611774 0.377579 0.000000
0.653836 0.376034 0.000000
0.696000 0.374485 0.000000
0.738260 0.372932 0.000000
0.781037 0.371361 0.000000
0.824536 0.369763 0.000000
0.868121 0.368162 0.000000
0.911787 0.366558 0.000000
0.955531 0.364951 0.000000
0.999350 0.363341 0.000000
1.000000 0.361729 0.000000
1.000000 0.360114 0.000000
1.000000 0.358513 0.000000
1.000000 0.356933 0.000000
1.000000 0.356406 0.000000
1.000000 0.356406 0.000000
1.000000 0.356406 0.000000
0.000000 0.437443 0.000000
0.000000 0.436051 0.000000
0.026973 0.434602 0.000000
0.067170 0.433125 0.000000
0.107887 0.431629 0.000000
0.149004 0.430119 0.000000
0.190447 0.428597 0.000000
0.232167 0.427064 0.000000
0.274127 0.425523 0.000000
0.315969 0.423985 0.000000
0.357097 0.422475 0.000000
0.398391 0.420958 0.000000
0.439838 0.419435 0.000000
0.481426 0.417907 0.000000
0.523145 0.416375 0.000000
0.564986 0.414838 0.000000
0.606940 0.413297 0.000000
0.649002 0.411752 0.000000
0.691166 0.410203 0.000000
0.733426 0.408650 0.000000
0.776203 0.407079 0.000000
0.819702 0.405481 0.000000
0.863287 0.403880 0.000000
0.906953 0.402276 0.000000
0.950697 0.400669 0.000000
0.994517 0.399059 0.000000
1.000000 0.397447 0.000000
1.000000 0.395832 0.000000
1.000000 0.394231 0.000000
1.000000 0.392651 0.000000
1.000000 0.392124 0.000000
1.000000 0.392124 0.000000
1.000000 0.392124 0.000000
0.000000 0.473216 0.000000
0.000000 0.471824 0.000000
0.022132 0.470375 0.000000
0.062329 0.468898 0.000000
0.103045 0.467403 0.000000
0.144162 0.465892 0.000000
0.185606 0.464370 0.000000
0.227326 0.462837 0.000000
0.269285 0.461296 0.000000
0.311128 0.459759 0.000000
0.352256 0.458248 0.000000
0.393550 0.456731 0.000000
0.434997 0.455208 0.000000
0.476585 0.453681 0.000000
0.518304 0.452148 0.000000
0.560144 0.450611 0.000000
0.602099 0.449070 0.000000
0.644161 0.447525 0.000000
0.686325 0.445976 0.000000
0.728585 0.444424 0.000000
0.771362 0.442852 0.000000
0.814861 0.441254 0.000000
0.858446 0.439653 0.000000
0.902112 0.438049 0.000000
0.945856 0.436442 0.000000
0.989675 0.434832 0.000000
1.000000 0.433220 0.000000
1.000000 0.431605 0.000000
1.000000 0.430005 0.000000
1.000000 0.428424 0.000000
1.000000 0.427897 0.000000
1.000000 0.427897 0.000000
1.000000 0.427897 0.000000
0.000000 0.509041 0.000000
0.000000 0.507649 0.000000
0.017283 0.506200 0.000000
0.057481 0.504723 0.000000
0.098197 0.503228 0.000000
0.139314 0.501717 0.000000
0.180758 0.500195 0.000000
0.222478 0.498662 0.000000
0.264437 0.497121 0.000000
0.306280 0.495584 0.000000
0.347407 0.494073 0.000000
0.388702 0.492556 0.000000
0.430149 0.491033 0.000000
0.471737 0.489506 0.000000
0.513456 0.487973 0.000000
0.555296 0.486436 0.000000
0.597251 0.484895 0.000000
0.639313 0.483350 0.000000
0.681477 0.481801 0.000000
0.723737 0.480249 0.000000
0.766514 0.478677 0.000000
0.810013 0.477079 0.000000
0.853597 0.475478 0.000000
0.897263 0.473874 0.000000
0.941008 0.472267 0.000000
0.984827 0.470657 0.000000
1.000000 0.469045 0.000000
1.000000 0.467430 0.000000
1.000000 0.465830 0.000000
1.000000 0.464249 0.000000
1.000000 0.463722 0.000000
1.000000 0.463722 0.000000
1.000000 0.463722 0.000000
0.000000 0.544915 0.000000
0.000000 0.543523 0.000000
0.012429 0.542073 0.000000
0.052626 0.540597 0.000000
0.093342 0.539101 0.000000
0.134459 0.537591 0.000000
0.175903 0.536068 0.000000
0.217623 0.534536 0.000000
0.259582 0.532994 0.000000
0.301425 0.531457 0.000000
0.342553 0.529946 0.000000
0.383847 0.528429 0.000000
0.425294 0.526907 0.000000
0.466882 0.525379 0.000000
0.508601 0.523846 0.000000
0.550441 0.522309 0.000000
0.592396 0.520768 0.000000
0.634458 0.519223 0.000000
0.676622 0.517674 0.000000
0.718882 0.516122 0.000000
0.761659 0.514550 0.000000
0.805158 0.512952 0.000000
0.848743 0.511351 0.000000
0.892409 0.509747 0.000000
0.936153 0.508140 0.000000
0.979972 0.506531 0.000000
1.000000 0.504918 0.000000
1.000000 0.503303 0.000000
1.000000 0.501703 0.000000
1.000000 0.500123 0.000000
1.000000 0.499595 0.000000
1.000000 0.499595 0.000000
1.000000 0.499595 0.000000
0.000000 0.580833 0.000000
0.000000 0.579441 0.000000
0.007568 0.577992 0.000000
0.047765 0.576515 0.000000
0.088481 0.575020 0.000000
0.129598 0.573509 0.000000
0.171042 0.571987 0.000000
0.212762 0.570454 0.000000
0.254722 0.568913 0.000000
0.296564 0.567376 0.000000
0.337692 0.565865 0.000000
0.378986 0.564348 0.000000
0.420433 0.562825 0.000000
0.462021 0.561298 0.000000
0.503740 0.559765 0.000000
0.545580 0.558228 0.000000
0.587535 0.556687 0.000000
0.629597 0.555142 0.000000
0.671761 0.553593 0.000000
0.714021 0.552040 0.000000
0.756798 0.550469 0.000000
0.800297 0.548871 0.000000
0.843882 0.547270 0.000000
0.887548 0.545666 0.000000
0.931292 0.544059 0.000000
0.975111 0.542449 0.000000
1.000000 0.540837 0.000000
1.000000 0.539222 0.000000
1.000000 0.537621 0.000000
1.000000 0.536041 0.000000
1.000000 0.535514 0.000000
1.000000 0.535514 0.000000
1.000000 0.535514 0.000000
0.000000 0.616795 0.000000
0.000000 0.615403 0.000000
0.002701 0.613953 0.000000
0.042898 0.612477 0.000000
0.083615 0.610981 0.000000
0.124732 0.609471 0.000000
0.166175 0.607948 0.000000
0.207895 0.606416 0.000000
0.249855 0.604874 0.000000
0.291698 0.603337 0.000000
0.332825 0.601826 0.000000
0.374119 0.600309 0.000000
0.415566 0.598787 0.000000
0.457154 0.597259 0.000000
0.498873 0.595726 0.000000
0.540714 0.594189 0.000000
0.582668 0.592648 0.000000
0.624731 0.591103 0.000000
0.666894 0.589554 0.000000
0.709154 0.588002 0.000000
0.751931 0.586430 0.000000
0.795430 0.584832 0.000000
0.839015 0.583231 0.000000
0.882681 0.581627 0.000000
0.926425 0.580020 0.000000
0.970245 0.578411 0.000000
1.000000 0.576798 0.000000
1.000000 0.575183 0.000000
1.000000 0.573583 0.000000
1.000000 0.572003 0.000000
1.000000 0.571475 0.000000
1.000000 0.571475 0.000000
1.000000 0.571475 0.000000
0.000000 0.652797 0.000000
0.000000 0.651404 0.000000
0.000000 0.649955 0.000000
0.038026 0.648479 0.000000
0.078743 0.646983 0.000000
0.119860 0.645472 0.000000
0.161303 0.643950 0.000000
0.203023 0.642417 0.000000
0.244983 0.640876 0.000000
0.286825 0.639339 0.000000
0.327953 0.637828 0.000000
0.369247 0.636311 0.000000
0.410694 0.634789 0.000000
0.452282 0.633261 0.000000
0.494001 0.631728 0.000000
0.535841 0.630191 0.000000
0.577796 0.628650 0.000000
0.619858 0.627105 0.000000
0.662022 0.625556 0.000000
0.704282 0.624004 0.000000
0.747059 0.622432 0.000000
0.790558 0.620834 0.000000
0.834143 0.619233 0.000000
0.877809 0.617629 0.000000
0.921553 0.616022 0.000000
0.965372 0.614413 0.000000
1.000000 0.612800 0.000000
1.000000 0.611185 0.000000
1.000000 0.609585 0.000000
1.000000 0.608005 0.000000
1.000000 0.607477 0.000000
1.000000 0.607477 0.000000
1.000000 0.607477 0.000000
0.000000 0.688837 0.000000
0.000000 0.687445 0.000000
0.000000 0.685996 0.000000
0.033149 0.684519 0.000000
0.073865 0.683023 0.000000
0.114982 0.681513 0.000000
0.156426 0.679990 0.000000
0.198146 0.678458 0.000000
0.240105 0.676916 0.000000
0.281948 0.675379 0.000000
0.323075 0.673868 0.000000
0.364370 0.672351 0.000000
0.405817 0.670829 0.000000
0.447405 0.669301 0.000000
0.489124 0.667769 0.000000
0.530964 0.666232 0.000000
0.572919 0.664690 0.000000
0.614981 0.663145 0.000000
0.657145 0.661596 0.000000
0.699405 0.660044 0.000000
0.742182 0.658473 0.000000
0.785681 0.656875 0.000000
0.829265 0.655274 0.000000
0.872931 0.653669 0.000000
0.916676 0.652063 0.000000
0.960495 0.650453 0.000000
1.000000 0.648840 0.000000
1.000000 0.647226 0.000000
1.000000 0.645625 0.000000
1.000000 0.644045 0.000000
1.000000 0.643518 0.000000
1.000000 0.643518 0.000000
1.000000 0.643518 0.000000
0.000000 0.724914 0.000000
0.000000 0.723521 0.000000
0.000000 0.722072 0.000000
0.028266 0.720596 0.000000
0.068983 0.719100 0.000000
0.110100 0.717589 0.000000
0.151543 0.716067 0.000000
0.193263 0.714534 0.000000
0.235223 0.712993 0.000000
0.277066 0.711456 0.000000
0.318193 0.709945 0.000000
0.359487 0.708428 0.000000
0.400935 0.706906 0.000000
0.442523 0.705378 0.000000
0.484241 0.703845 0.000000
0.526082 0.702308 0.000000
0.568036 0.700767 0.000000
0.610099 0.699222 0.000000
0.652262 0.697673 0.000000
0.694522 0.696121 0.000000
0.737299 0.694549 0.000000
0.780799 0.692951 0.000000
0.824383 0.691350 0.000000
0.868049 0.689746 0.000000
0.911793 0.688139 0.000000
0.955613 0.686530 0.000000
0.999504 0.684917 0.000000
1.000000 0.683302 0.000000
1.000000 0.681702 0.000000
1.000000 0.680122 0.000000
1.000000 0.679594 0.000000
1.000000 0.679594 0.000000
1.000000 0.679594 0.000000
0.000000 0.761385 0.000000
0.000000 0.759993 0.000000
0.000000 0.758544 0.000000
0.023331 0.757067 0.000000
0.064047 0.755571 0.000000
0.105164 0.754061 0.000000
0.146608 0.752539 0.000000
0.188328 0.751006 0.000000
0.230287 0.749465 0.000000
0.272130 0.747928 0.000000
0.313257 0.746417 0.000000
0.354552 0.744900 0.000000
0.395999 0.743377 0.000000
0.437587 0.741850 0.000000
0.479305 0.740317 0.000000
0.521146 0.738780 0.000000
0.563101 0.737239 0.000000
0.605163 0.735694 0.000000
0.647327 0.734145 0.000000
0.689586 0.732592 0.000000
0.732363 0.731021 0.000000
0.775863 0.729423 0.000000
0.819447 0.727822 0.000000
0.863113 0.726218 0.000000
0.906858 0.724611 0.000000
0.950677 0.723001 0.000000
0.994569 0.721389 0.000000
1.000000 0.719774 0.000000
1.000000 0.718173 0.000000
1.000000 0.716593 0.000000
1.000000 0.716066 0.000000
1.000000 0.716066 0.000000
1.000000 0.716066 0.000000
0.000000 0.798434 0.000000
0.000000 0.797042 0.000000
0.000000 0.795592 0.000000
0.018317 0.794116 0.000000
0.059033 0.792620 0.000000
0.100150 0.791110 0.000000
0.141594 0.789587 0.000000
0.183314 0.788055 0.000000
0.225273 0.786513 0.000000
0.267116 0.784976 0.000000
0.308243 0.783465 0.000000
0.349538 0.781948 0.000000
0.390985 0.780426 0.000000
0.432573 0.778898 0.000000
0.474292 0.777366 0.000000
0.516132 0.775828 0.000000
0.558087 0.774287 0.000000
0.600149 0.772742 0.000000
0.642313 0.771193 0.000000
0.684573 0.769641 0.000000
0.727350 0.768069 0.000000
0.770849 0.766471 0.000000
0.814433 0.764870 0.000000
0.858100 0.763266 0.000000
0.901844 0.761659 0.000000
0.945663 0.760050 0.000000
0.989555 0.758437 0.000000
1.000000 0.756822 0.000000
1.000000 0.755222 0.000000
1.000000 0.753642 0.000000
1.000000 0.753114 0.000000
1.000000 0.753114 0.000000
1.000000 0.753114 0.000000
0.000000 0.835515 0.000000
0.000000 0.834123 0.000000
0.000000 0.832674 0.000000
0.013298 0.831197 0.000000
0.054015 0.829701 0.000000
0.095132 0.828191 0.000000
0.136576 0.826668 0.000000
0.178295 0.825136 0.000000
0.220255 0.823594 0.000000
0.262098 0.822057 0.000000
0.303225 0.820546 0.000000
0.344520 0.819030 0.000000
0.385967 0.817507 0.000000
0.427555 0.815979 0.000000
0.469273 0.814447 0.000000
0.511114 0.812910 0.000000
0.553069 0.811368 0.000000
0.595131 0.809823 0.000000
0.637294 0.808274 0.000000
0.679554 0.806722 0.000000
0.722331 0.805151 0.000000
0.765831 0.803553 0.000000
0.809415 0.801952 0.000000
0.853081 0.800348 0.000000
0.896826 0.798741 0.000000
0.940645 0.797131 0.000000
0.984537 0.795519 0.000000
1.000000 0.793904 0.000000
1.000000 0.792303 0.000000
1.000000 0.790723 0.000000
1.000000 0.790196 0.000000
1.000000 0.790196 0.000000
1.000000 0.790196 0.000000
0.000000 0.872627 0.000000
0.000000 0.871235 0.000000
0.000000 0.869786 0.000000
0.008276 0.868309 0.000000
0.048993 0.866814 0.000000
0.090109 0.865303 0.000000
0.131553 0.863781 0.000000
0.173273 0.862248 0.000000
0.215233 0.860707 0.000000
0.257075 0.859170 0.000000
0.298203 0.857659 0.000000
0.339497 0.856142 0.000000
0.380944 0.854620 0.000000
0.422532 0.853092 0.000000
0.464251 0.851559 0.000000
0.506091 0.850022 0.000000
0.548046 0.848481 0.000000
0.590108 0.846936 0.000000
0.632272 0.845387 0.000000
0.674532 0.843835 0.000000
0.717309 0.842263 0.000000
0.760808 0.840665 0.000000
0.804393 0.839064 0.000000
0.848059 0.837460 0.000000
0.891803 0.835853 0.000000
0.935622 0.834243 0.000000
0.979514 0.832631 0.000000
1.000000 0.831016 0.000000
1.000000 0.829416 0.000000
1.000000 0.827835 0.000000
1.000000 0.827308 0.000000
1.000000 0.827308 0.000000
1.000000 0.827308 0.000000
0.000000 0.909770 0.000000
0.000000 0.908378 0.000000
0.000000 0.906929 0.000000
0.003249 0.905452 0.000000
0.043966 0.903956 0.000000
0.085083 0.902446 0.000000
0.126526 0.900924 0.000000
0.168246 0.899391 0.000000
0.210206 0.897850 0.000000
0.252049 0.896313 0.000000
0.293176 0.894802 0.000000
0.334470 0.893285 0.000000
0.375918 0.891762 0.000000
0.417506 0.890234 0.000000
0.459224 0.888702 0.000000
0.501065 0.887165 0.000000
0.543020 0.885624 0.000000
0.585082 0.884079 0.000000
0.627245 0.882530 0.000000
0.669505 0.880977 0.000000
0.712282 0.879406 0.000000
0.755782 0.877808 0.000000
0.799366 0.876207 0.000000
0.843032 0.874603 0.000000
0.886776 0.872996 0.000000
