flutter_app/assets/lut/cameras/inst_c.cube
TITLE "Instax Wide"
# DAZZ Camera LUT - Instax Wide
# Generated for DAZZ retro camera app
LUT_3D_SIZE 9
DOMAIN_MIN 0.0 0.0 0.0
DOMAIN_MAX 1.0 1.0 1.0
0.012584 0.000000 0.000000
0.170844 0.000000 0.000000
0.337084 0.000000 0.000000
0.502795 0.000000 0.000000
0.669897 0.000000 0.000000
0.839160 0.000000 0.000000
1.000000 0.000000 0.000000
1.000000 0.000000 0.000000
1.000000 0.000000 0.000000
0.000000 0.112371 0.000000
0.151879 0.106558 0.000000
0.318119 0.100451 0.000000
0.483831 0.094363 0.000000
0.650933 0.088225 0.000000
0.820195 0.082007 0.000000
0.994690 0.075597 0.000000
1.000000 0.069160 0.000000
1.000000 0.067052 0.000000
0.000000 0.257328 0.000000
0.132262 0.251515 0.000000
0.298502 0.245408 0.000000
0.464214 0.239321 0.000000
0.631315 0.233182 0.000000
0.800578 0.226964 0.000000
0.975072 0.220554 0.000000
1.000000 0.214117 0.000000
1.000000 0.212009 0.000000
0.000000 0.401725 0.000000
0.112720 0.395912 0.000000
0.278960 0.389805 0.000000
0.444672 0.383717 0.000000
0.611774 0.377579 0.000000
0.781037 0.371361 0.000000
0.955531 0.364951 0.000000
1.000000 0.358513 0.000000
1.000000 0.356406 0.000000
0.000000 0.544915 0.000000
0.093342 0.539101 0.000000
0.259582 0.532994 0.000000
0.425294 0.526907 0.000000
0.592396 0.520768 0.000000
0.761659 0.514550 0.000000
0.936153 0.508140 0.000000
1.000000 0.501703 0.000000
1.000000 0.499595 0.000000
0.000000 0.688837 0.000000
0.073865 0.683023 0.000000
0.240105 0.676916 0.000000
0.405817 0.670829 0.000000
0.572919 0.664690 0.000000
0.742182 0.658473 0.000000
0.916676 0.652063 0.000000
1.000000 0.645625 0.000000
1.000000 0.643518 0.000000
0.000000 0.835515 0.000000
0.054015 0.829701 0.000000
0.220255 0.823594 0.000000
0.385967 0.817507 0.000000
0.553069 0.811368 0.000000
0.722331 0.805151 0.000000
0.896826 0.798741 0.000000
1.000000 0.792303 0.000000
1.000000 0.790196 0.000000
0.000000 0.984141 0.000000
0.033901 0.978328 0.000000
0.200141 0.972221 0.000000
0.365853 0.966134 0.000000
0.532955 0.959995 0.000000
0.702218 0.953777 0.000000
0.876712 0.947367 0.000000
1.000000 0.940930 0.000000
1.000000 0.938822 0.000000
0.000000 1.000000 0.000000
0.017816 1.000000 0.000000
0.184056 1.000000 0.000000
0.349768 1.000000 0.000000
0.516870 1.000000 0.000000
0.686133 1.000000 0.000000
0.860627 1.000000 0.000000
1.000000 1.000000 0.000000
1.000000 1.000000 0.000000
0.010643 0.000000 0.104578
0.168902 0.000000 0.098764
0.335142 0.000000 0.092657
0.500854 0.000000 0.086570
0.667956 0.000000 0.080432
0.837219 0.000000 0.074214
1.000000 0.000000 0.067804
1.000000 0.000000 0.061366
1.000000 0.000000 0.059259
0.000000 0.110430 0.085614
0.149938 0.104616 0.079800
0.316178 0.098510 0.073693
0.481890 0.092422 0.067606
0.648992 0.086284 0.061467
0.818254 0.080066 0.055249
0.992748 0.073656 0.048839
1.000000 0.067218 0.042402
1.000000 0.065111 0.040294
0.000000 0.255387 0.065996
0.130321 0.249574 0.060183
0.296561 0.243467 0.054076
0.462272 0.237379 0.047988
0.629374 0.231241 0.041850
0.798637 0.225023 0.035632
0.973131 0.218613 0.029222
1.000000 0.212175 0.022785
1.000000 0.210068 0.020677
0.000000 0.399784 0.046455
0.110779 0.393970 0.040641
0.277019 0.387864 0.034534
0.442731 0.381776 0.028447
0.609833 0.375638 0.022308
0.779096 0.369420 0.016091
0.953590 0.363010 0.009681
1.000000 0.356572 0.003243
1.000000 0.354465 0.001136
0.000000 0.542973 0.027077
0.091401 0.537160 0.021263
0.257641 0.531053 0.015156
0.423353 0.524966 0.009069
0.590455 0.518827 0.002930
0.759718 0.512609 0.000000
0.934212 0.506199 0.000000
1.000000 0.499762 0.000000
1.000000 0.497654 0.000000
0.000000 0.686896 0.007600
0.071924 0.681082 0.001786
0.238164 0.674975 0.000000
0.403876 0.668888 0.000000
0.570978 0.662749 0.000000
0.740240 0.656531 0.000000
0.914735 0.650121 0.000000
1.000000 0.643684 0.000000
1.000000 0.641576 0.000000
0.000000 0.833574 0.000000
0.052074 0.827760 0.000000
0.218314 0.821653 0.000000
0.384026 0.815566 0.000000
0.551127 0.809427 0.000000
0.720390 0.803209 0.000000
0.894884 0.796799 0.000000
1.000000 0.790362 0.000000
1.000000 0.788254 0.000000
0.000000 0.982200 0.000000
0.031960 0.976387 0.000000
0.198200 0.970280 0.000000
0.363912 0.964192 0.000000
0.531014 0.958054 0.000000
0.700276 0.951836 0.000000
0.874771 0.945426 0.000000
1.000000 0.938988 0.000000
1.000000 0.936881 0.000000
0.000000 1.000000 0.000000
0.015875 1.000000 0.000000
0.182115 1.000000 0.000000
0.347827 1.000000 0.000000
0.514929 1.000000 0.000000
0.684192 1.000000 0.000000
0.858686 1.000000 0.000000
1.000000 1.000000 0.000000
1.000000 1.000000 0.000000
0.008779 0.000000 0.257603
0.167039 0.000000 0.251789
0.333279 0.000000 0.245682
0.498990 0.000000 0.239595
0.666092 0.000000 0.233456
0.835355 0.000000 0.227239
1.000000 0.000000 0.220829
1.000000 0.000000 0.214391
1.000000 0.000000 0.212284
0.000000 0.108566 0.238638
0.148074 0.102753 0.232825
0.314314 0.096646 0.226718
0.480026 0.090558 0.220631
0.647128 0.084420 0.214492
0.816391 0.078202 0.208274
0.990885 0.071792 0.201864
1.000000 0.065355 0.195427
1.000000 0.063247 0.193319
0.000000 0.253523 0.219021
0.128457 0.247710 0.213208
0.294697 0.241603 0.207101
0.460409 0.235516 0.201013
0.627510 0.229377 0.194875
0.796773 0.223159 0.188657
0.971267 0.216749 0.182247
1.000000 0.210312 0.175809
1.000000 0.208204 0.173702
0.000000 0.397920 0.199480
0.108915 0.392107 0.193666
0.275156 0.386000 0.187559
0.440867 0.379912 0.181472
0.607969 0.373774 0.175333
0.777232 0.367556 0.169115
0.951726 0.361146 0.162705
1.000000 0.354709 0.156268
1.000000 0.352601 0.154160
0.000000 0.541110 0.180102
0.089537 0.535296 0.174288
0.255777 0.529189 0.168181
0.421489 0.523102 0.162094
0.588591 0.516963 0.155955
0.757854 0.510745 0.149737
0.932348 0.504335 0.143327
1.000000 0.497898 0.136890
1.000000 0.495790 0.134782
0.000000 0.685032 0.160624
0.070060 0.679218 0.154811
0.236300 0.673111 0.148704
0.402012 0.667024 0.142617
0.569114 0.660885 0.136478
0.738377 0.654668 0.130260
0.912871 0.648258 0.123850
1.000000 0.641820 0.117413
1.000000 0.639713 0.115305
0.000000 0.831710 0.140774
0.050210 0.825896 0.134961
0.216450 0.819789 0.128854
0.382162 0.813702 0.122766
0.549264 0.807564 0.116628
0.718526 0.801346 0.110410
0.893021 0.794936 0.104000
1.000000 0.788498 0.097563
1.000000 0.786391 0.095455
0.000000 0.980336 0.120660
0.030096 0.974523 0.114847
0.196336 0.968416 0.108740
0.362048 0.962329 0.102653
0.529150 0.956190 0.096514
0.698413 0.949972 0.090296
0.872907 0.943562 0.083886
1.000000 0.937125 0.077449
1.000000 0.935017 0.075341
0.000000 1.000000 0.104576
0.014011 1.000000 0.098762
0.180251 1.000000 0.092655
0.345963 1.000000 0.086568
0.513065 1.000000 0.080429
0.682328 1.000000 0.074211
0.856822 1.000000 0.067801
1.000000 1.000000 0.061364
1.000000 1.000000 0.059256
0.006964 0.000000 0.406650
0.165223 0.000000 0.400836
0.331463 0.000000 0.394730
0.497175 0.000000 0.388642
0.664277 0.000000 0.382504
0.833540 0.000000 0.376286
1.000000 0.000000 0.369876
1.000000 0.000000 0.363438
1.000000 0.000000 0.361331
0.000000 0.106751 0.387686
0.146259 0.100937 0.381872
0.312499 0.094830 0.375765
0.478210 0.088743 0.369678
0.645312 0.082605 0.363539
0.814575 0.076387 0.357321
0.989069 0.069977 0.350911
1.000000 0.063539 0.344474
1.000000 0.061432 0.342366
0.000000 0.251708 0.368068
0.126642 0.245894 0.362255
0.292882 0.239788 0.356148
0.458593 0.233700 0.350061
0.625695 0.227562 0.343922
0.794958 0.221344 0.337704
0.969452 0.214934 0.331294
1.000000 0.208496 0.324857
1.000000 0.206389 0.322749
0.000000 0.396105 0.348527
0.107100 0.390291 0.342713
0.273340 0.384184 0.336606
0.439052 0.378097 0.330519
0.606154 0.371959 0.324381
0.775416 0.365741 0.318163
0.949911 0.359331 0.311753
1.000000 0.352893 0.305315
1.000000 0.350786 0.303208
0.000000 0.539294 0.329149
0.087722 0.533481 0.323335
0.253962 0.527374 0.317228
0.419674 0.521286 0.311141
0.586776 0.515148 0.305003
0.756038 0.508930 0.298785
0.930533 0.502520 0.292375
1.000000 0.496082 0.285937
1.000000 0.493975 0.283830
0.000000 0.683216 0.309672
0.068245 0.677403 0.303858
0.234485 0.671296 0.297751
0.400196 0.665209 0.291664
0.567298 0.659070 0.285525
0.736561 0.652852 0.279307
0.911055 0.646442 0.272897
1.000000 0.640005 0.266460
1.000000 0.637897 0.264352
0.000000 0.829894 0.289822
0.048395 0.824081 0.284008
0.214635 0.817974 0.277901
0.380346 0.811887 0.271814
0.547448 0.805748 0.265675
0.716711 0.799530 0.259457
0.891205 0.793120 0.253047
1.000000 0.786683 0.246610
1.000000 0.784575 0.244502
0.000000 0.978521 0.269708
0.028281 0.972707 0.263894
0.194521 0.966601 0.257787
0.360232 0.960513 0.251700
0.527334 0.954375 0.245561
0.696597 0.948157 0.239343
0.871091 0.941747 0.232933
1.000000 0.935309 0.226496
1.000000 0.933202 0.224388
0.000000 1.000000 0.253623
0.012196 1.000000 0.247809
0.178436 1.000000 0.241702
0.344148 1.000000 0.235615
0.511250 1.000000 0.229477
0.680512 1.000000 0.223259
0.855007 1.000000 0.216849
1.000000 1.000000 0.210411
1.000000 1.000000 0.208304
0.005214 0.000000 0.550364
0.163473 0.000000 0.544550
0.329713 0.000000 0.538443
0.495424 0.000000 0.532356
0.662526 0.000000 0.526218
0.831789 0.000000 0.520000
1.000000 0.000000 0.513590
1.000000 0.000000 0.507152
1.000000 0.000000 0.505045
0.000000 0.105000 0.531399
0.144508 0.099187 0.525586
0.310748 0.093080 0.519479
0.476460 0.086993 0.513392
0.643562 0.080854 0.507253
0.812825 0.074636 0.501035
0.987319 0.068226 0.494625
1.000000 0.061789 0.488188
1.000000 0.059681 0.486080
0.000000 0.249958 0.511782
0.124891 0.244144 0.505969
0.291131 0.238037 0.499862
0.456843 0.231950 0.493774
0.623945 0.225811 0.487636
0.793207 0.219593 0.481418
0.967702 0.213183 0.475008
1.000000 0.206746 0.468570
1.000000 0.204638 0.466463
0.000000 0.394354 0.492241
0.105350 0.388541 0.486427
0.271590 0.382434 0.480320
0.437301 0.376347 0.474233
0.604403 0.370208 0.468094
0.773666 0.363990 0.461877
0.948160 0.357580 0.455467
1.000000 0.351143 0.449029
1.000000 0.349035 0.446922
0.000000 0.537544 0.472863
0.085972 0.531730 0.467049
0.252212 0.525623 0.460942
0.417923 0.519536 0.454855
0.585025 0.513397 0.448716
0.754288 0.507180 0.442499
0.928782 0.500770 0.436088
1.000000 0.494332 0.429651
1.000000 0.492225 0.427543
0.000000 0.681466 0.453386
0.066494 0.675652 0.447572
0.232734 0.669546 0.441465
0.398446 0.663458 0.435378
0.565548 0.657320 0.429239
0.734811 0.651102 0.423021
0.909305 0.644692 0.416611
1.000000 0.638254 0.410174
1.000000 0.636147 0.408066
0.000000 0.828144 0.433535
0.046644 0.822330 0.427722
0.212884 0.816224 0.421615
0.378596 0.810136 0.415527
0.545698 0.803998 0.409389
0.714961 0.797780 0.403171
0.889455 0.791370 0.396761
1.000000 0.784932 0.390324
1.000000 0.782825 0.388216
0.000000 0.976771 0.413422
0.026530 0.970957 0.407608
0.192770 0.964850 0.401501
0.358482 0.958763 0.395414
0.525584 0.952624 0.389275
0.694847 0.946406 0.383057
0.869341 0.939996 0.376647
1.000000 0.933559 0.370210
1.000000 0.931451 0.368102
0.000000 1.000000 0.397337
0.010446 1.000000 0.391523
0.176686 1.000000 0.385416
0.342397 1.000000 0.379329
0.509499 1.000000 0.373190
0.678762 1.000000 0.366973
0.853256 1.000000 0.360563
1.000000 1.000000 0.354125
1.000000 1.000000 0.352018
0.003480 0.000000 0.692688
0.161739 0.000000 0.686874
0.327979 0.000000 0.680767
0.493691 0.000000 0.674680
0.660793 0.000000 0.668541
0.830056 0.000000 0.662323
1.000000 0.000000 0.655913
1.000000 0.000000 0.649476
1.000000 0.000000 0.647368
0.000000 0.103267 0.673723
0.142775 0.097453 0.667910
0.309015 0.091347 0.661803
0.474727 0.085259 0.655715
0.641828 0.079121 0.649577
0.811091 0.072903 0.643359
0.985585 0.066493 0.636949
1.000000 0.060055 0.630511
1.000000 0.057948 0.628404
0.000000 0.248224 0.654106
0.123158 0.242410 0.648292
0.289398 0.236304 0.642185
0.455109 0.230216 0.636098
0.622211 0.224078 0.629960
0.791474 0.217860 0.623742
0.965968 0.211450 0.617332
1.000000 0.205012 0.610894
1.000000 0.202905 0.608787
0.000000 0.392621 0.634564
0.103616 0.386807 0.628751
0.269856 0.380700 0.622644
0.435568 0.374613 0.616557
0.602670 0.368475 0.610418
0.771933 0.362257 0.604200
0.946427 0.355847 0.597790
1.000000 0.349409 0.591353
1.000000 0.347302 0.589245
0.000000 0.535810 0.615186
0.084238 0.529997 0.609373
0.250478 0.523890 0.603266
0.416190 0.517802 0.597179
0.583292 0.511664 0.591040
0.752554 0.505446 0.584822
0.927049 0.499036 0.578412
1.000000 0.492599 0.571975
1.000000 0.490491 0.569867
0.000000 0.679733 0.595709
0.064761 0.673919 0.589896
0.231001 0.667812 0.583789
0.396713 0.661725 0.577701
0.563814 0.655586 0.571563
0.733077 0.649368 0.565345
0.907571 0.642958 0.558935
1.000000 0.636521 0.552497
1.000000 0.634413 0.550390
0.000000 0.826411 0.575859
0.044911 0.820597 0.570045
0.211151 0.814490 0.563939
0.376862 0.808403 0.557851
0.543964 0.802264 0.551713
0.713227 0.796046 0.545495
0.887721 0.789636 0.539085
1.000000 0.783199 0.532647
1.000000 0.781091 0.530540
0.000000 0.975037 0.555745
0.024797 0.969223 0.549932
0.191037 0.963117 0.543825
0.356749 0.957029 0.537737
0.523850 0.950891 0.531599
0.693113 0.944673 0.525381
0.867607 0.938263 0.518971
1.000000 0.931825 0.512533
1.000000 0.929718 0.510426
0.000000 1.000000 0.539660
0.008712 1.000000 0.533847
0.174952 1.000000 0.527740
0.340664 1.000000 0.521653
0.507766 1.000000 0.515514
0.677028 1.000000 0.509296
0.851523 1.000000 0.502886
1.000000 1.000000 0.496449
1.000000 1.000000 0.494341
0.001760 0.000000 0.833913
0.160019 0.000000 0.828099
0.326259 0.000000 0.821993
0.491971 0.000000 0.815905
0.659073 0.000000 0.809767
0.828335 0.000000 0.803549
1.000000 0.000000 0.797139
1.000000 0.000000 0.790701
1.000000 0.000000 0.788594
0.000000 0.101547 0.814949
0.141055 0.095733 0.809135
0.307295 0.089626 0.803028
0.473006 0.083539 0.796941
0.640108 0.077401 0.790802
0.809371 0.071183 0.784585
0.983865 0.064773 0.778174
1.000000 0.058335 0.771737
1.000000 0.056228 0.769629
0.000000 0.246504 0.795331
0.121437 0.240690 0.789518
0.287678 0.234584 0.783411
0.453389 0.228496 0.777324
0.620491 0.222358 0.771185
0.789754 0.216140 0.764967
0.964248 0.209730 0.758557
1.000000 0.203292 0.752120
1.000000 0.201185 0.750012
0.000000 0.390901 0.775790
0.101896 0.385087 0.769976
0.268136 0.378980 0.763870
0.433848 0.372893 0.757782
0.600950 0.366754 0.751644
0.770212 0.360537 0.745426
0.944707 0.354127 0.739016
1.000000 0.347689 0.732578
1.000000 0.345582 0.730471
0.000000 0.534090 0.756412
0.082518 0.528277 0.750598
0.248758 0.522170 0.744492
0.414470 0.516082 0.738404
0.581572 0.509944 0.732266
0.750834 0.503726 0.726048
0.925329 0.497316 0.719638
1.000000 0.490878 0.713200
1.000000 0.488771 0.711093
0.000000 0.678012 0.736935
0.063041 0.672199 0.731121
0.229281 0.666092 0.725014
0.394992 0.660005 0.718927
0.562094 0.653866 0.712788
0.731357 0.647648 0.706571
0.905851 0.641238 0.700161
1.000000 0.634801 0.693723
1.000000 0.632693 0.691616
0.000000 0.824690 0.717085
0.043191 0.818877 0.711271
0.209431 0.812770 0.705164
0.375142 0.806683 0.699077
0.542244 0.800544 0.692938
0.711507 0.794326 0.686720
0.886001 0.787916 0.680310
1.000000 0.781479 0.673873
1.000000 0.779371 0.671765
0.000000 0.973317 0.696971
0.023077 0.967503 0.691157
0.189317 0.961397 0.685050
0.355028 0.955309 0.678963
0.522130 0.949171 0.672824
0.691393 0.942953 0.666607
0.865887 0.936543 0.660196
1.000000 0.930105 0.653759
1.000000 0.927998 0.651652
0.000000 1.000000 0.680886
0.006992 1.000000 0.675072
0.173232 1.000000 0.668966
0.338944 1.000000 0.662878
0.506046 1.000000 0.656740
0.675308 1.000000 0.650522
0.849803 1.000000 0.644112
1.000000 1.000000 0.637674
1.000000 1.000000 0.635567
0.000010 0.000000 0.977575
0.158269 0.000000 0.971761
0.324509 0.000000 0.965654
0.490221 0.000000 0.959567
0.657323 0.000000 0.953428
0.826586 0.000000 0.947211
1.000000 0.000000 0.940800
1.000000 0.000000 0.934363
1.000000 0.000000 0.932255
0.000000 0.099797 0.958610
0.139305 0.093983 0.952797
0.305545 0.087877 0.946690
0.471257 0.081789 0.940602
0.638359 0.075651 0.934464
0.807621 0.069433 0.928246
0.982115 0.063023 0.921836
1.000000 0.056585 0.915399
1.000000 0.054478 0.913291
0.000000 0.244754 0.938993
0.119688 0.238941 0.933179
0.285928 0.232834 0.927073
0.451639 0.226746 0.920985
0.618741 0.220608 0.914847
0.788004 0.214390 0.908629
0.962498 0.207980 0.902219
1.000000 0.201542 0.895781
1.000000 0.199435 0.893674
0.000000 0.389151 0.919452
0.100146 0.383337 0.913638
0.266386 0.377231 0.907531
0.432098 0.371143 0.901444
0.599200 0.365005 0.895305
0.768463 0.358787 0.889087
0.942957 0.352377 0.882677
1.000000 0.345939 0.876240
1.000000 0.343832 0.874132
0.000000 0.532340 0.900074
0.080768 0.526527 0.894260
0.247008 0.520420 0.888153
0.412720 0.514333 0.882066
0.579822 0.508194 0.875927
0.749085 0.501976 0.869709
0.923579 0.495566 0.863299
1.000000 0.489129 0.856862
1.000000 0.487021 0.854754
0.000000 0.676263 0.880596
0.061291 0.670449 0.874783
0.227531 0.664342 0.868676
0.393243 0.658255 0.862589
0.560345 0.652116 0.856450
0.729607 0.645898 0.850232
0.904102 0.639488 0.843822
1.000000 0.633051 0.837385
1.000000 0.630943 0.835277
0.000000 0.822941 0.860746
0.041441 0.817127 0.854933
0.207681 0.811020 0.848826
0.373393 0.804933 0.842738
0.540494 0.798794 0.836600
0.709757 0.792576 0.830382
0.884251 0.786166 0.823972
1.000000 0.779729 0.817535
1.000000 0.777621 0.815427
0.000000 0.971567 0.840632
0.021327 0.965754 0.834819
0.187567 0.959647 0.828712
0.353279 0.953559 0.822625
0.520381 0.947421 0.816486
0.689643 0.941203 0.810268
0.864137 0.934793 0.803858
1.000000 0.928355 0.797421
1.000000 0.926248 0.795313
0.000000 1.000000 0.824548
0.005242 1.000000 0.818734
0.171482 1.000000 0.812627
0.337194 1.000000 0.806540
0.504296 1.000000 0.800401
0.673559 1.000000 0.794183
0.848053 1.000000 0.787773
1.000000 1.000000 0.781336
1.000000 1.000000 0.779228
0.000000 0.000000 1.000000
0.156527 0.000000 1.000000
0.322767 0.000000 1.000000
0.488479 0.000000 1.000000
0.655581 0.000000 1.000000
0.824844 0.000000 1.000000
0.999338 0.000000 1.000000
1.000000 0.000000 1.000000
1.000000 0.000000 1.000000
0.000000 0.098055 1.000000
0.137563 0.092241 1.000000
0.303803 0.086134 1.000000
0.469514 0.080047 1.000000
0.636616 0.073909 1.000000
0.805879 0.067691 1.000000
0.980373 0.061281 1.000000
1.000000 0.054843 1.000000
1.000000 0.052736 1.000000
0.000000 0.243012 1.000000
0.117946 0.237198 1.000000
0.284186 0.231092 1.000000
0.449897 0.225004 1.000000
0.616999 0.218866 1.000000
0.786262 0.212648 1.000000
0.960756 0.206238 1.000000
1.000000 0.199800 1.000000
1.000000 0.197693 1.000000
0.000000 0.387409 1.000000
0.098404 0.381595 1.000000
0.264644 0.375488 1.000000
0.430356 0.369401 1.000000
0.597458 0.363263 1.000000
0.766720 0.357045 1.000000
0.941215 0.350635 1.000000
1.000000 0.344197 1.000000
1.000000 0.342090 1.000000
0.000000 0.530598 1.000000
0.079026 0.524785 1.000000
0.245266 0.518678 1.000000
0.410978 0.512590 1.000000
0.578080 0.506452 1.000000
0.747342 0.500234 1.000000
0.921837 0.493824 1.000000
1.000000 0.487387 0.999898
1.000000 0.485279 0.997790
0.000000 0.674520 1.000000
0.059549 0.668707 1.000000
0.225789 0.662600 1.000000
0.391501 0.656513 1.000000
0.558602 0.650374 0.999486
0.727865 0.644156 0.993268
0.902359 0.637746 0.986858
1.000000 0.631309 0.980421
1.000000 0.629201 0.978313
0.000000 0.821199 1.000000
0.039699 0.815385 0.997969
0.205939 0.809278 0.991862
0.371650 0.803191 0.985774
0.538752 0.797052 0.979636
0.708015 0.790834 0.973418
0.882509 0.784424 0.967008
1.000000 0.777987 0.960571
1.000000 0.775879 0.958463
0.000000 0.969825 0.983668
0.019585 0.964011 0.977855
0.185825 0.957905 0.971748
0.351537 0.951817 0.965661
0.518638 0.945679 0.959522
0.687901 0.939461 0.953304
0.862395 0.933051 0.946894
1.000000 0.926613 0.940457
1.000000 0.924506 0.938349
0.000000 1.000000 0.967584
0.003500 1.000000 0.961770
0.169740 1.000000 0.955663
0.335452 1.000000 0.949576
0.502554 1.000000 0.943437
0.671816 1.000000 0.937219
0.846311 1.000000 0.930809
1.000000 1.000000 0.924372
1.000000 1.000000 0.922264
