flutter_app/assets/lut/cameras/inst_sqc_warm.cube
# Instax Square C - Warm Tone LUT
# Generated for DAZZ Retro Camera
# Style: Fujifilm Instax Square - warm highlight, warm shadow, soft contrast
LUT_3D_SIZE 9
0.092048 0.059717 0.033808
0.223245 0.058899 0.033015
0.346232 0.058133 0.032272
0.462648 0.057035 0.032301
0.574971 0.055503 0.033259
0.687293 0.053971 0.034216
0.802294 0.052402 0.035197
0.922650 0.050760 0.036223
1.000000 0.049009 0.037317
0.086626 0.184261 0.032882
0.215016 0.182510 0.033977
0.335372 0.180868 0.035003
0.450372 0.179299 0.035983
0.562694 0.177766 0.036941
0.675017 0.176234 0.037898
0.790017 0.174665 0.038879
0.910373 0.173023 0.039905
1.000000 0.171272 0.040999
0.075118 0.298874 0.036334
0.203507 0.297122 0.037428
0.323863 0.295481 0.038455
0.438864 0.293912 0.039435
0.551186 0.292379 0.040392
0.663508 0.290847 0.041350
0.778509 0.289278 0.042330
0.898865 0.287636 0.043357
1.000000 0.285885 0.044451
0.064121 0.408387 0.039632
0.192511 0.406635 0.040727
0.312867 0.404993 0.041753
0.427868 0.403424 0.042733
0.540190 0.401892 0.043691
0.652512 0.400360 0.044648
0.768520 0.399126 0.044951
0.891507 0.398360 0.044208
1.000000 0.397543 0.043416
0.053381 0.515349 0.042853
0.181771 0.513598 0.043948
0.302127 0.511956 0.044974
0.418970 0.511000 0.044716
0.533748 0.510285 0.044022
0.648527 0.509570 0.043329
0.766041 0.508838 0.042619
0.889029 0.508072 0.041876
1.000000 0.508461 0.040126
0.044793 0.623028 0.044628
0.175990 0.622211 0.043836
0.298977 0.621444 0.043093
0.416492 0.620712 0.042383
0.531270 0.619997 0.041689
0.648988 0.620677 0.039889
0.769736 0.621479 0.037962
0.896106 0.622318 0.035945
1.000000 0.623213 0.033794
0.042255 0.735356 0.042240
0.174336 0.734958 0.041115
0.300707 0.735797 0.039098
0.421454 0.736599 0.037171
0.539390 0.737382 0.035289
0.657326 0.738165 0.033407
0.778073 0.738967 0.031480
0.904444 0.739806 0.029463
1.000000 0.740701 0.029200
0.048256 0.857022 0.036482
0.183062 0.857917 0.034330
0.309433 0.858757 0.032313
0.430180 0.859558 0.030386
0.548116 0.860342 0.029200
0.666052 0.861125 0.029200
0.786799 0.861927 0.029200
0.913170 0.862766 0.029200
1.000000 0.863661 0.029200
0.057564 0.970200 0.029244
0.192371 0.970200 0.029200
0.318741 0.970200 0.029200
0.439489 0.970200 0.029200
0.557425 0.970200 0.029200
0.675360 0.970200 0.029200
0.796108 0.970200 0.029200
0.922479 0.970200 0.029200
1.000000 0.970200 0.029200
0.091762 0.059439 0.157811
0.222959 0.058622 0.157018
0.345946 0.057856 0.156275
0.461409 0.056441 0.156945
0.573732 0.054908 0.157902
0.686054 0.053376 0.158860
0.801054 0.051807 0.159840
0.921410 0.050165 0.160866
1.000000 0.048414 0.161961
0.085387 0.183666 0.157526
0.213776 0.181915 0.158620
0.334132 0.180273 0.159646
0.449133 0.178704 0.160627
0.561455 0.177172 0.161584
0.673777 0.175639 0.162542
0.788778 0.174070 0.163522
0.909134 0.172428 0.164548
1.000000 0.170677 0.165643
0.073878 0.298279 0.160978
0.202268 0.296528 0.162072
0.322624 0.294886 0.163098
0.437624 0.293317 0.164079
0.549947 0.291785 0.165036
0.662269 0.290252 0.165994
0.777269 0.288683 0.166974
0.897625 0.287041 0.168000
1.000000 0.285290 0.169095
0.062882 0.407792 0.164276
0.191272 0.406040 0.165370
0.311628 0.404398 0.166396
0.426628 0.402830 0.167377
0.538951 0.401297 0.168334
0.651273 0.399765 0.169292
0.768234 0.398849 0.168954
0.891221 0.398082 0.168211
1.000000 0.397265 0.167419
0.052142 0.514755 0.167497
0.180532 0.513003 0.168592
0.301170 0.511455 0.169428
0.418684 0.510723 0.168718
0.533462 0.510008 0.168025
0.648241 0.509293 0.167332
0.765755 0.508560 0.166622
0.888903 0.507870 0.165818
1.000000 0.508765 0.163667
0.044507 0.622750 0.168631
0.175704 0.621933 0.167839
0.298691 0.621167 0.167096
0.416206 0.620435 0.166386
0.531992 0.620198 0.165313
0.649928 0.620981 0.163431
0.770675 0.621783 0.161504
0.897046 0.622622 0.159487
1.000000 0.623517 0.157335
0.041969 0.735078 0.166243
0.175276 0.735262 0.164656
0.301647 0.736101 0.162639
0.422394 0.736903 0.160712
0.540330 0.737686 0.158830
0.658266 0.738469 0.156948
0.779013 0.739271 0.155021
0.905384 0.740110 0.153004
1.000000 0.741005 0.150853
0.049196 0.857326 0.160023
0.184002 0.858221 0.157872
0.310373 0.859061 0.155855
0.431120 0.859862 0.153928
0.549056 0.860646 0.152046
0.666992 0.861429 0.150164
0.787739 0.862231 0.148237
0.914110 0.863070 0.146220
1.000000 0.863965 0.144068
0.058504 0.970200 0.152786
0.193310 0.970200 0.150634
0.319681 0.970200 0.148618
0.440429 0.970200 0.146691
0.558364 0.970200 0.144808
0.676300 0.970200 0.142926
0.797048 0.970200 0.140999
0.922302 0.970200 0.139403
1.000000 0.970200 0.138610
0.091494 0.059179 0.274054
0.222691 0.058362 0.273262
0.345247 0.057452 0.272809
0.460247 0.055883 0.273789
0.572570 0.054351 0.274747
0.684892 0.052818 0.275704
0.799892 0.051250 0.276685
0.920248 0.049608 0.277711
1.000000 0.047856 0.278805
0.084225 0.183109 0.274370
0.212615 0.181357 0.275465
0.332971 0.179715 0.276491
0.447971 0.178146 0.277471
0.560293 0.176614 0.278429
0.672616 0.175082 0.279386
0.787616 0.173513 0.280367
0.907972 0.171871 0.281393
1.000000 0.170119 0.282488
0.072717 0.297722 0.277822
0.201106 0.295970 0.278917
0.321462 0.294328 0.279943
0.436463 0.292759 0.280923
0.548785 0.291227 0.281881
0.661107 0.289695 0.282838
0.776108 0.288126 0.283819
0.896464 0.286484 0.284845
1.000000 0.284732 0.285939
0.061720 0.407234 0.281120
0.190110 0.405483 0.282215
0.310466 0.403841 0.283241
0.425466 0.402272 0.284221
0.537789 0.400740 0.285179
0.650451 0.399320 0.285908
0.767966 0.398588 0.285198
0.890953 0.397822 0.284455
1.000000 0.397005 0.283662
0.050980 0.514197 0.284342
0.179370 0.512445 0.285436
0.300901 0.511195 0.285672
0.418416 0.510463 0.284962
0.533194 0.509747 0.284269
0.647973 0.509032 0.283575
0.765487 0.508300 0.282865
0.889783 0.508155 0.281630
1.000000 0.509050 0.279478
0.044239 0.622490 0.284875
0.175435 0.621673 0.284082
0.298423 0.620907 0.283339
0.415938 0.620174 0.282629
0.532873 0.620483 0.281124
0.650809 0.621266 0.279242
0.771556 0.622068 0.277315
0.897927 0.622907 0.275298
1.000000 0.623802 0.273147
0.041701 0.734818 0.282487
0.176157 0.735547 0.280467
0.302527 0.736386 0.278450
0.423275 0.737188 0.276523
0.541211 0.737971 0.274641
0.659146 0.738754 0.272759
0.779894 0.739556 0.270832
0.906265 0.740395 0.268815
1.000000 0.741290 0.266664
0.050077 0.857611 0.275834
0.184883 0.858506 0.273683
0.311254 0.859346 0.271666
0.432001 0.860147 0.269739
0.549937 0.860931 0.267857
0.667873 0.861714 0.265975
0.788620 0.862516 0.264048
0.914991 0.863355 0.262031
1.000000 0.864250 0.259880
0.059385 0.970200 0.268597
0.194191 0.970200 0.266445
0.320562 0.970200 0.264429
0.441310 0.970200 0.262502
0.559245 0.970200 0.260619
0.677181 0.970200 0.258737
0.797929 0.970200 0.256810
0.922034 0.970200 0.255646
1.000000 0.970200 0.254854
0.091238 0.058930 0.385125
0.222435 0.058113 0.384333
0.344137 0.056919 0.384454
0.459137 0.055350 0.385434
0.571460 0.053818 0.386392
0.683782 0.052286 0.387349
0.798782 0.050717 0.388330
0.919138 0.049075 0.389356
1.000000 0.047323 0.390450
0.083115 0.182576 0.386015
0.211504 0.180824 0.387110
0.331861 0.179182 0.388136
0.446861 0.177614 0.389116
0.559183 0.176081 0.390074
0.671506 0.174549 0.391031
0.786506 0.172980 0.392012
0.906862 0.171338 0.393038
1.000000 0.169587 0.394132
0.071606 0.297189 0.389467
0.199996 0.295437 0.390562
0.320352 0.293795 0.391588
0.435353 0.292226 0.392568
0.547675 0.290694 0.393526
0.659997 0.289162 0.394483
0.774998 0.287593 0.395464
0.895354 0.285951 0.396490
1.000000 0.284429 0.397122
0.060610 0.406702 0.392765
0.189000 0.404950 0.393860
0.309356 0.403308 0.394886
0.424356 0.401739 0.395866
0.536679 0.400207 0.396824
0.650195 0.399072 0.396979
0.767710 0.398340 0.396269
0.890697 0.397573 0.395526
1.000000 0.396756 0.394733
0.049870 0.513664 0.395986
0.178260 0.511913 0.397081
0.300645 0.510946 0.396743
0.418160 0.510214 0.396033
0.532938 0.509499 0.395339
0.647716 0.508784 0.394646
0.765231 0.508052 0.393936
0.890625 0.508427 0.392287
1.000000 0.509323 0.390136
0.043982 0.622242 0.395946
0.175179 0.621424 0.395153
0.298167 0.620658 0.394410
0.415779 0.619972 0.393664
0.533715 0.620755 0.391781
0.651650 0.621538 0.389899
0.772398 0.622340 0.387972
0.898769 0.623180 0.385956
1.000000 0.624075 0.383804
0.042192 0.734924 0.393276
0.176998 0.735819 0.391125
0.303369 0.736658 0.389108
0.424117 0.737460 0.387181
0.542052 0.738243 0.385299
0.659988 0.739026 0.383417
0.780736 0.739828 0.381490
0.907107 0.740668 0.379473
1.000000 0.741563 0.377322
0.050918 0.857883 0.386492
0.185724 0.858779 0.384340
0.312095 0.859618 0.382324
0.432843 0.860420 0.380397
0.550778 0.861203 0.378514
0.668714 0.861986 0.376632
0.789462 0.862788 0.374705
0.915833 0.863627 0.372689
1.000000 0.864522 0.370537
0.060227 0.970200 0.379254
0.195033 0.970200 0.377103
0.321404 0.970200 0.375086
0.442151 0.970200 0.373159
0.560087 0.970200 0.371277
0.678023 0.970200 0.369395
0.798770 0.970200 0.367468
0.921778 0.970200 0.366717
1.000000 0.970200 0.365925
0.090988 0.058688 0.493610
0.222184 0.057870 0.492817
0.343053 0.056399 0.493499
0.458053 0.054830 0.494479
0.570375 0.053298 0.495437
0.682698 0.051765 0.496394
0.797698 0.050196 0.497375
0.918054 0.048554 0.498401
1.000000 0.046803 0.499496
0.082031 0.182055 0.495060
0.210420 0.180304 0.496155
0.330776 0.178662 0.497181
0.445777 0.177093 0.498161
0.558099 0.175561 0.499119
0.670421 0.174028 0.500077
0.785422 0.172460 0.501057
0.905778 0.170818 0.502083
1.000000 0.169066 0.503178
0.070522 0.296668 0.498512
0.198912 0.294917 0.499607
0.319268 0.293275 0.500633
0.434268 0.291706 0.501613
0.546591 0.290174 0.502571
0.658913 0.288641 0.503528
0.773913 0.287073 0.504509
0.894269 0.285431 0.505535
1.000000 0.284186 0.505606
0.059526 0.406181 0.501810
0.187916 0.404430 0.502905
0.308272 0.402788 0.503931
0.423272 0.401219 0.504911
0.535595 0.399687 0.505869
0.649945 0.398829 0.505463
0.767459 0.398097 0.504753
0.890447 0.397331 0.504010
1.000000 0.396513 0.503218
0.048786 0.513144 0.505032
0.177408 0.511469 0.505970
0.300395 0.510703 0.505227
0.417910 0.509971 0.504517
0.532688 0.509256 0.503824
0.647466 0.508541 0.503131
0.765076 0.507854 0.502385
0.891447 0.508693 0.500368
1.000000 0.509589 0.498217
0.043732 0.621999 0.504430
0.174929 0.621181 0.503638
0.297917 0.620415 0.502895
0.416601 0.620238 0.501744
0.534537 0.621021 0.499862
0.652473 0.621804 0.497980
0.773220 0.622606 0.496053
0.899591 0.623445 0.494036
1.000000 0.624341 0.491885
0.043014 0.735190 0.501357
0.177820 0.736085 0.499206
0.304191 0.736924 0.497189
0.424939 0.737726 0.495262
0.542875 0.738509 0.493380
0.660810 0.739292 0.491498
0.781558 0.740094 0.489571
0.907929 0.740933 0.487554
1.000000 0.741829 0.485402
0.051740 0.858149 0.494572
0.186546 0.859045 0.492421
0.312917 0.859884 0.490404
0.433665 0.860686 0.488477
0.551601 0.861469 0.486595
0.669536 0.862252 0.484713
0.790284 0.863054 0.482786
0.916655 0.863893 0.480769
1.000000 0.864788 0.478618
0.061049 0.970200 0.487335
0.195855 0.970200 0.485184
0.322226 0.970200 0.483167
0.442973 0.970200 0.481240
0.560909 0.970200 0.479358
0.678845 0.970200 0.477476
0.798540 0.970200 0.475945
0.921528 0.970200 0.475202
1.000000 0.970200 0.474409
0.090737 0.058445 0.602094
0.221612 0.057520 0.601518
0.341969 0.055878 0.602544
0.456969 0.054309 0.603525
0.569291 0.052777 0.604482
0.681614 0.051245 0.605440
0.796614 0.049676 0.606420
0.916970 0.048034 0.607446
1.000000 0.046283 0.608541
0.080946 0.181535 0.604106
0.209336 0.179784 0.605200
0.329692 0.178142 0.606226
0.444692 0.176573 0.607207
0.557015 0.175040 0.608164
0.669337 0.173508 0.609122
0.784337 0.171939 0.610102
0.904693 0.170297 0.611128
1.000000 0.168546 0.612223
0.069438 0.296148 0.607557
0.197828 0.294396 0.608652
0.318184 0.292755 0.609678
0.433184 0.291186 0.610658
0.545506 0.289653 0.611616
0.657829 0.288121 0.612574
0.772829 0.286552 0.613554
0.893185 0.284910 0.614580
1.000000 0.283943 0.614091
0.058442 0.405661 0.610856
0.186832 0.403909 0.611950
0.307188 0.402267 0.612976
0.422188 0.400698 0.613957
0.534916 0.399301 0.614641
0.649695 0.398586 0.613948
0.767209 0.397854 0.613238
0.890197 0.397088 0.612495
1.000000 0.396270 0.611702
0.047702 0.512623 0.614077
0.177157 0.511227 0.614455
0.300145 0.510460 0.613712
0.417660 0.509728 0.613002
0.532438 0.509013 0.612309
0.647216 0.508298 0.611615
0.765898 0.508120 0.610466
0.892269 0.508959 0.608449
1.000000 0.509854 0.606297
0.043482 0.621756 0.612915
0.174679 0.620939 0.612122
0.297666 0.620172 0.611379
0.417423 0.620504 0.609825
0.535359 0.621287 0.607943
0.653295 0.622070 0.606061
0.774042 0.622872 0.604134
0.900413 0.623711 0.602117
1.000000 0.624607 0.599966
0.043836 0.735456 0.609438
0.178642 0.736351 0.607286
0.305013 0.737190 0.605270
0.425761 0.737992 0.603343
0.543697 0.738775 0.601460
0.661632 0.739558 0.599578
0.782380 0.740360 0.597651
0.908751 0.741199 0.595635
1.000000 0.742095 0.593483
0.052562 0.858415 0.602653
0.187369 0.859311 0.600502
0.313739 0.860150 0.598485
0.434487 0.860952 0.596558
0.552423 0.861735 0.594676
0.670358 0.862518 0.592794
0.791106 0.863320 0.590867
0.917477 0.864159 0.588850
1.000000 0.865054 0.586699
0.061871 0.970200 0.595416
0.196677 0.970200 0.593265
0.323048 0.970200 0.591248
0.443795 0.970200 0.589321
0.561731 0.970200 0.587439
0.679667 0.970200 0.585557
0.798290 0.970200 0.584429
0.921277 0.970200 0.583686
1.000000 0.970200 0.582894
0.090481 0.058196 0.713165
0.220502 0.056987 0.713163
0.340858 0.055346 0.714189
0.455859 0.053777 0.715169
0.568181 0.052244 0.716127
0.680504 0.050712 0.717085
0.795504 0.049143 0.718065
0.915860 0.047501 0.719091
1.000000 0.045750 0.720186
0.079836 0.181002 0.715751
0.208226 0.179251 0.716845
0.328582 0.177609 0.717871
0.443582 0.176040 0.718852
0.555905 0.174508 0.719809
0.668227 0.172975 0.720767
0.783227 0.171406 0.721747
0.903583 0.169765 0.722773
1.000000 0.168013 0.723868
0.068328 0.295615 0.719202
0.196718 0.293864 0.720297
0.317074 0.292222 0.721323
0.432074 0.290653 0.722303
0.544396 0.289121 0.723261
0.656719 0.287588 0.724219
0.771719 0.286019 0.725199
0.892478 0.284512 0.725954
1.000000 0.283694 0.725161
0.057332 0.405128 0.722500
0.185721 0.403376 0.723595
0.306078 0.401735 0.724621
0.421078 0.400166 0.725602
0.534660 0.399053 0.725712
0.649438 0.398338 0.725019
0.766953 0.397605 0.724309
0.889941 0.396839 0.723566
1.000000 0.396022 0.722773
0.046592 0.512091 0.725722
0.176901 0.510978 0.725526
0.299889 0.510212 0.724783
0.417403 0.509480 0.724073
0.532182 0.508765 0.723379
0.646960 0.508049 0.722686
0.766740 0.508392 0.721123
0.893111 0.509232 0.719106
1.000000 0.510127 0.716955
0.043226 0.621507 0.723986
0.174423 0.620690 0.723193
0.297517 0.619974 0.722410
0.418265 0.620776 0.720483
0.536201 0.621560 0.718601
0.654136 0.622343 0.716718
0.774884 0.623145 0.714791
0.901255 0.623984 0.712775
1.000000 0.624879 0.710623
0.044678 0.735728 0.720095
0.179484 0.736623 0.717944
0.305855 0.737462 0.715927
0.426603 0.738264 0.714000
0.544538 0.739048 0.712118
0.662474 0.739831 0.710236
0.783222 0.740633 0.708309
0.909592 0.741472 0.706292
1.000000 0.742367 0.704141
0.053404 0.858688 0.713311
0.188210 0.859583 0.711159
0.314581 0.860422 0.709143
0.435329 0.861224 0.707216
0.553264 0.862007 0.705334
0.671200 0.862790 0.703451
0.791948 0.863592 0.701524
0.918319 0.864431 0.699508
1.000000 0.865327 0.697356
0.062713 0.970200 0.706074
0.197519 0.970200 0.703922
0.323890 0.970200 0.701905
0.444637 0.970200 0.699978
0.562573 0.970200 0.698096
0.680509 0.970200 0.696214
0.798034 0.970200 0.695500
0.921021 0.970200 0.694757
1.000000 0.970200 0.693965
0.090213 0.057936 0.829409
0.219341 0.056430 0.830007
0.339697 0.054788 0.831034
0.454697 0.053219 0.832014
0.567019 0.051687 0.832972
0.679342 0.050154 0.833929
0.794342 0.048586 0.834909
0.914698 0.046944 0.835936
1.000000 0.045192 0.837030
0.078674 0.180445 0.832595
0.207064 0.178693 0.833690
0.327420 0.177051 0.834716
0.442421 0.175482 0.835696
0.554743 0.173950 0.836654
0.667065 0.172418 0.837611
0.782066 0.170849 0.838592
0.902422 0.169207 0.839618
1.000000 0.167455 0.840712
0.067166 0.295058 0.836047
0.195556 0.293306 0.837141
0.315912 0.291664 0.838167
0.430912 0.290095 0.839148
0.543235 0.288563 0.840105
0.655557 0.287031 0.841063
0.770557 0.285462 0.842043
0.892210 0.284251 0.842198
1.000000 0.283434 0.841405
0.056170 0.404570 0.839345
0.184560 0.402819 0.840440
0.304916 0.401177 0.841466
0.419916 0.399608 0.842446
0.534392 0.398792 0.841956
0.649170 0.398077 0.841262
0.766685 0.397345 0.840552
0.889672 0.396579 0.839809
1.000000 0.395762 0.839017
0.045436 0.511535 0.842562
0.176633 0.510718 0.841769
0.299621 0.509952 0.841026
0.417135 0.509219 0.840316
0.531914 0.508504 0.839623
0.646874 0.507876 0.838861
0.767621 0.508677 0.836934
0.893992 0.509517 0.834917
1.000000 0.510412 0.832766
0.042958 0.621247 0.840229
0.174155 0.620430 0.839437
0.298398 0.620259 0.838221
0.419146 0.621061 0.836294
0.537081 0.621845 0.834412
0.655017 0.622628 0.832530
0.775765 0.623430 0.830603
0.902136 0.624269 0.828586
1.000000 0.625164 0.826434
0.045559 0.736013 0.835906
0.180365 0.736908 0.833755
0.306736 0.737747 0.831738
0.427483 0.738549 0.829811
0.545419 0.739333 0.827929
0.663355 0.740116 0.826047
0.784102 0.740918 0.824120
0.910473 0.741757 0.822103
1.000000 0.742652 0.819952
0.054285 0.858973 0.829122
0.189091 0.859868 0.826971
0.315462 0.860707 0.824954
0.436210 0.861509 0.823027
0.554145 0.862292 0.821145
0.672081 0.863075 0.819263
0.792829 0.863877 0.817336
0.919199 0.864716 0.815319
1.000000 0.865612 0.813167
0.063594 0.970200 0.821885
0.198400 0.970200 0.819733
0.324771 0.970200 0.817717
0.445518 0.970200 0.815790
0.563454 0.970200 0.813907
0.680251 0.970200 0.812454
0.797766 0.970200 0.811744
0.920753 0.970200 0.811001
1.000000 0.970200 0.810208
0.089712 0.057587 0.927905
0.218101 0.055835 0.929792
0.338457 0.054193 0.931561
0.453458 0.052624 0.933251
0.565780 0.051092 0.934902
0.678102 0.049560 0.936553
0.793103 0.047991 0.938244
0.913459 0.046349 0.940013
1.000000 0.044597 0.941900
0.077435 0.179850 0.934253
0.205825 0.178098 0.936141
0.326181 0.176456 0.937910
0.441181 0.174888 0.939600
0.553504 0.173355 0.941251
0.665826 0.171823 0.942902
0.780826 0.170254 0.944592
0.901182 0.168612 0.946361
1.000000 0.166861 0.948249
0.065927 0.294463 0.940205
0.194317 0.292711 0.942092
0.314673 0.291069 0.943861
0.429673 0.289500 0.945551
0.541995 0.287968 0.947202
0.654318 0.286436 0.948853
0.769318 0.284867 0.950544
0.891924 0.283974 0.950800
1.000000 0.283156 0.950800
0.054931 0.403976 0.945891
0.183320 0.402224 0.947778
0.303676 0.400582 0.949547
0.419328 0.399230 0.950800
0.534106 0.398515 0.950800
0.648884 0.397800 0.950800
0.766399 0.397068 0.950800
0.889386 0.396301 0.950800
1.000000 0.395964 0.950419
0.045150 0.511258 0.950800
0.176347 0.510440 0.950800
0.299335 0.509674 0.950800
0.416849 0.508942 0.950800
0.531628 0.508227 0.950800
0.647813 0.508180 0.950270
0.768561 0.508981 0.949053
0.894932 0.509821 0.947779
1.000000 0.510716 0.946421
0.042672 0.620969 0.950800
0.173869 0.620152 0.950800
0.299338 0.620563 0.949866
0.420085 0.621365 0.948649
0.538021 0.622149 0.947460
0.655957 0.622932 0.946271
0.776704 0.623734 0.945054
0.903075 0.624573 0.943780
1.000000 0.625468 0.942422
0.046499 0.736317 0.948404
0.181305 0.737212 0.947045
0.307676 0.738051 0.945771
0.428423 0.738853 0.944554
0.546359 0.739637 0.943366
0.664295 0.740420 0.942177
0.785042 0.741222 0.940960
0.911413 0.742061 0.939686
1.000000 0.742956 0.938327
0.055225 0.859277 0.944119
0.190031 0.860172 0.942760
0.316402 0.861011 0.941487
0.437149 0.861813 0.940269
0.555085 0.862596 0.939081
0.673021 0.863379 0.937892
0.793768 0.864181 0.936675
0.920139 0.865020 0.935401
1.000000 0.865703 0.934211
0.064533 0.970200 0.939548
0.199339 0.970200 0.938189
0.325710 0.970200 0.936916
0.446458 0.970200 0.935699
0.564394 0.970200 0.934510
0.679965 0.970200 0.934211
0.797480 0.970200 0.934211
0.920467 0.970200 0.934211
1.000000 0.970200 0.934211
