flutter_app/assets/lut/cameras/inst_sqc_warm.cube
# Instax Square C - Warm Tone LUT
# Generated for DAZZ Retro Camera
# Style: Fujifilm Instax Square - warm highlight, warm shadow, soft contrast
LUT_3D_SIZE 5
0.092048 0.059717 0.033808
0.346232 0.058133 0.032272
0.574971 0.055503 0.033259
0.802294 0.052402 0.035197
1.000000 0.049009 0.037317
0.075118 0.298874 0.036334
0.323863 0.295481 0.038455
0.551186 0.292379 0.040392
0.778509 0.289278 0.042330
1.000000 0.285885 0.044451
0.053381 0.515349 0.042853
0.302127 0.511956 0.044974
0.533748 0.510285 0.044022
0.766041 0.508838 0.042619
1.000000 0.508461 0.040126
0.042255 0.735356 0.042240
0.300707 0.735797 0.039098
0.539390 0.737382 0.035289
0.778073 0.738967 0.031480
1.000000 0.740701 0.029200
0.057564 0.970200 0.029244
0.318741 0.970200 0.029200
0.557425 0.970200 0.029200
0.796108 0.970200 0.029200
1.000000 0.970200 0.029200
0.091494 0.059179 0.274054
0.345247 0.057452 0.272809
0.572570 0.054351 0.274747
0.799892 0.051250 0.276685
1.000000 0.047856 0.278805
0.072717 0.297722 0.277822
0.321462 0.294328 0.279943
0.548785 0.291227 0.281881
0.776108 0.288126 0.283819
1.000000 0.284732 0.285939
0.050980 0.514197 0.284342
0.300901 0.511195 0.285672
0.533194 0.509747 0.284269
0.765487 0.508300 0.282865
1.000000 0.509050 0.279478
0.041701 0.734818 0.282487
0.302527 0.736386 0.278450
0.541211 0.737971 0.274641
0.779894 0.739556 0.270832
1.000000 0.741290 0.266664
0.059385 0.970200 0.268597
0.320562 0.970200 0.264429
0.559245 0.970200 0.260619
0.797929 0.970200 0.256810
1.000000 0.970200 0.254854
0.090988 0.058688 0.493610
0.343053 0.056399 0.493499
0.570375 0.053298 0.495437
0.797698 0.050196 0.497375
1.000000 0.046803 0.499496
0.070522 0.296668 0.498512
0.319268 0.293275 0.500633
0.546591 0.290174 0.502571
0.773913 0.287073 0.504509
1.000000 0.284186 0.505606
0.048786 0.513144 0.505032
0.300395 0.510703 0.505227
0.532688 0.509256 0.503824
0.765076 0.507854 0.502385
1.000000 0.509589 0.498217
0.043014 0.735190 0.501357
0.304191 0.736924 0.497189
0.542875 0.738509 0.493380
0.781558 0.740094 0.489571
1.000000 0.741829 0.485402
0.061049 0.970200 0.487335
0.322226 0.970200 0.483167
0.560909 0.970200 0.479358
0.798540 0.970200 0.475945
1.000000 0.970200 0.474409
0.090481 0.058196 0.713165
0.340858 0.055346 0.714189
0.568181 0.052244 0.716127
0.795504 0.049143 0.718065
1.000000 0.045750 0.720186
0.068328 0.295615 0.719202
0.317074 0.292222 0.721323
0.544396 0.289121 0.723261
0.771719 0.286019 0.725199
1.000000 0.283694 0.725161
0.046592 0.512091 0.725722
0.299889 0.510212 0.724783
0.532182 0.508765 0.723379
0.766740 0.508392 0.721123
1.000000 0.510127 0.716955
0.044678 0.735728 0.720095
0.305855 0.737462 0.715927
0.544538 0.739048 0.712118
0.783222 0.740633 0.708309
1.000000 0.742367 0.704141
0.062713 0.970200 0.706074
0.323890 0.970200 0.701905
0.562573 0.970200 0.698096
0.798034 0.970200 0.695500
1.000000 0.970200 0.693965
0.089712 0.057587 0.927905
0.338457 0.054193 0.931561
0.565780 0.051092 0.934902
0.793103 0.047991 0.938244
1.000000 0.044597 0.941900
0.065927 0.294463 0.940205
0.314673 0.291069 0.943861
0.541995 0.287968 0.947202
0.769318 0.284867 0.950544
1.000000 0.283156 0.950800
0.045150 0.511258 0.950800
0.299335 0.509674 0.950800
0.531628 0.508227 0.950800
0.768561 0.508981 0.949053
1.000000 0.510716 0.946421
0.046499 0.736317 0.948404
0.307676 0.738051 0.945771
0.546359 0.739637 0.943366
0.785042 0.741222 0.940960
1.000000 0.742956 0.938327
0.064533 0.970200 0.939548
0.325710 0.970200 0.936916
0.564394 0.970200 0.934510
0.797480 0.970200 0.934211
1.000000 0.970200 0.934211
