flutter_app/assets/lut/cameras/inst_c.cube
TITLE "Instax Wide"
# DAZZ Camera LUT - Instax Wide
# Generated for DAZZ retro camera app
LUT_3D_SIZE 5
DOMAIN_MIN 0.0 0.0 0.0
DOMAIN_MAX 1.0 1.0 1.0
0.012584 0.000000 0.000000
0.337084 0.000000 0.000000
0.669897 0.000000 0.000000
1.000000 0.000000 0.000000
1.000000 0.000000 0.000000
0.000000 0.257328 0.000000
0.298502 0.245408 0.000000
0.631315 0.233182 0.000000
0.975072 0.220554 0.000000
1.000000 0.212009 0.000000
0.000000 0.544915 0.000000
0.259582 0.532994 0.000000
0.592396 0.520768 0.000000
0.936153 0.508140 0.000000
1.000000 0.499595 0.000000
0.000000 0.835515 0.000000
0.220255 0.823594 0.000000
0.553069 0.811368 0.000000
0.896826 0.798741 0.000000
1.000000 0.790196 0.000000
0.000000 1.000000 0.000000
0.184056 1.000000 0.000000
0.516870 1.000000 0.000000
0.860627 1.000000 0.000000
1.000000 1.000000 0.000000
0.008779 0.000000 0.257603
0.333279 0.000000 0.245682
0.666092 0.000000 0.233456
1.000000 0.000000 0.220829
1.000000 0.000000 0.212284
0.000000 0.253523 0.219021
0.294697 0.241603 0.207101
0.627510 0.229377 0.194875
0.971267 0.216749 0.182247
1.000000 0.208204 0.173702
0.000000 0.541110 0.180102
0.255777 0.529189 0.168181
0.588591 0.516963 0.155955
0.932348 0.504335 0.143327
1.000000 0.495790 0.134782
0.000000 0.831710 0.140774
0.216450 0.819789 0.128854
0.549264 0.807564 0.116628
0.893021 0.794936 0.104000
1.000000 0.786391 0.095455
0.000000 1.000000 0.104576
0.180251 1.000000 0.092655
0.513065 1.000000 0.080429
0.856822 1.000000 0.067801
1.000000 1.000000 0.059256
0.005214 0.000000 0.550364
0.329713 0.000000 0.538443
0.662526 0.000000 0.526218
1.000000 0.000000 0.513590
1.000000 0.000000 0.505045
0.000000 0.249958 0.511782
0.291131 0.238037 0.499862
0.623945 0.225811 0.487636
0.967702 0.213183 0.475008
1.000000 0.204638 0.466463
0.000000 0.537544 0.472863
0.252212 0.525623 0.460942
0.585025 0.513397 0.448716
0.928782 0.500770 0.436088
1.000000 0.492225 0.427543
0.000000 0.828144 0.433535
0.212884 0.816224 0.421615
0.545698 0.803998 0.409389
0.889455 0.791370 0.396761
1.000000 0.782825 0.388216
0.000000 1.000000 0.397337
0.176686 1.000000 0.385416
0.509499 1.000000 0.373190
0.853256 1.000000 0.360563
1.000000 1.000000 0.352018
0.001760 0.000000 0.833913
0.326259 0.000000 0.821993
0.659073 0.000000 0.809767
1.000000 0.000000 0.797139
1.000000 0.000000 0.788594
0.000000 0.246504 0.795331
0.287678 0.234584 0.783411
0.620491 0.222358 0.771185
0.964248 0.209730 0.758557
1.000000 0.201185 0.750012
0.000000 0.534090 0.756412
0.248758 0.522170 0.744492
0.581572 0.509944 0.732266
0.925329 0.497316 0.719638
1.000000 0.488771 0.711093
0.000000 0.824690 0.717085
0.209431 0.812770 0.705164
0.542244 0.800544 0.692938
0.886001 0.787916 0.680310
1.000000 0.779371 0.671765
0.000000 1.000000 0.680886
0.173232 1.000000 0.668966
0.506046 1.000000 0.656740
0.849803 1.000000 0.644112
1.000000 1.000000 0.635567
0.000000 0.000000 1.000000
0.322767 0.000000 1.000000
0.655581 0.000000 1.000000
0.999338 0.000000 1.000000
1.000000 0.000000 1.000000
0.000000 0.243012 1.000000
0.284186 0.231092 1.000000
0.616999 0.218866 1.000000
0.960756 0.206238 1.000000
1.000000 0.197693 1.000000
0.000000 0.530598 1.000000
0.245266 0.518678 1.000000
0.578080 0.506452 1.000000
0.921837 0.493824 1.000000
1.000000 0.485279 0.997790
0.000000 0.821199 1.000000
0.205939 0.809278 0.991862
0.538752 0.797052 0.979636
0.882509 0.784424 0.967008
1.000000 0.775879 0.958463
0.000000 1.000000 0.967584
0.169740 1.000000 0.955663
0.502554 1.000000 0.943437
0.846311 1.000000 0.930809
1.000000 1.000000 0.922264
