flutter_app/assets/lut/cameras/inst_sq.cube
TITLE "Instax Square"
# DAZZ Camera LUT - Instax Square
# Generated for DAZZ retro camera app
LUT_3D_SIZE 5
DOMAIN_MIN 0.0 0.0 0.0
DOMAIN_MAX 1.0 1.0 1.0
0.187995 0.141464 0.107253
0.395550 0.139753 0.105542
0.641928 0.137722 0.103511
0.881289 0.135748 0.101538
0.979803 0.134936 0.100725
0.182583 0.332781 0.101842
0.390138 0.331070 0.100131
0.636516 0.329039 0.098099
0.875877 0.327066 0.096126
0.974392 0.326254 0.095314
0.176515 0.547307 0.095774
0.384070 0.545596 0.094063
0.630448 0.543565 0.092031
0.869809 0.541591 0.090058
0.968324 0.540779 0.089246
0.170479 0.760705 0.089738
0.378034 0.758994 0.088026
0.624412 0.756963 0.085995
0.863773 0.754989 0.084022
0.962288 0.754177 0.083210
0.165816 0.925563 0.085074
0.373371 0.923852 0.083363
0.619749 0.921821 0.081332
0.859110 0.919848 0.079359
0.957625 0.919036 0.078546
0.187487 0.140957 0.289563
0.395042 0.139245 0.287852
0.641420 0.137214 0.285821
0.880781 0.135241 0.283848
0.979296 0.134429 0.283035
0.182076 0.332274 0.284152
0.389630 0.330563 0.282441
0.636008 0.328531 0.280409
0.875369 0.326558 0.278436
0.973884 0.325746 0.277624
0.176008 0.546799 0.278084
0.383562 0.545088 0.276373
0.629940 0.543057 0.274341
0.869301 0.541084 0.272368
0.967816 0.540271 0.271556
0.169972 0.760197 0.272048
0.377526 0.758486 0.270337
0.623904 0.756455 0.268305
0.863265 0.754482 0.266332
0.961780 0.753669 0.265520
0.165308 0.925056 0.267385
0.372863 0.923345 0.265673
0.619241 0.921313 0.263642
0.858602 0.919340 0.261669
0.957117 0.918528 0.260857
0.186998 0.140467 0.465453
0.394552 0.138756 0.463742
0.640930 0.136724 0.461711
0.880291 0.134751 0.459737
0.978806 0.133939 0.458925
0.181586 0.331784 0.460041
0.389141 0.330073 0.458330
0.635519 0.328042 0.456299
0.874880 0.326068 0.454326
0.973394 0.325256 0.453514
0.175518 0.546310 0.453973
0.383073 0.544598 0.452262
0.629451 0.542567 0.450231
0.868812 0.540594 0.448258
0.967326 0.539782 0.447445
0.169482 0.759708 0.447937
0.377036 0.757996 0.446226
0.623414 0.755965 0.444195
0.862776 0.753992 0.442222
0.961290 0.753180 0.441409
0.164819 0.924566 0.443274
0.372373 0.922855 0.441563
0.618751 0.920824 0.439532
0.858112 0.918850 0.437558
0.956627 0.918038 0.436746
0.186510 0.139980 0.640391
0.394065 0.138268 0.638680
0.640443 0.136237 0.636649
0.879804 0.134264 0.634675
0.978319 0.133452 0.633863
0.181099 0.331297 0.634980
0.388653 0.329586 0.633268
0.635031 0.327554 0.631237
0.874393 0.325581 0.629264
0.972907 0.324769 0.628452
0.175031 0.545822 0.628912
0.382585 0.544111 0.627200
0.628963 0.542080 0.625169
0.868325 0.540107 0.623196
0.966839 0.539295 0.622384
0.168995 0.759220 0.622875
0.376549 0.757509 0.621164
0.622927 0.755478 0.619133
0.862288 0.753505 0.617160
0.960803 0.752692 0.616348
0.164332 0.924079 0.618212
0.371886 0.922368 0.616501
0.618264 0.920336 0.614470
0.857625 0.918363 0.612497
0.956140 0.917551 0.611684
0.186057 0.139527 0.803092
0.393612 0.137815 0.801381
0.639990 0.135784 0.799350
0.879351 0.133811 0.797377
0.977866 0.132999 0.796564
0.180646 0.330844 0.797681
0.388200 0.329133 0.795970
0.634578 0.327101 0.793938
0.873939 0.325128 0.791965
0.972454 0.324316 0.791153
0.174578 0.545369 0.791613
0.382132 0.543658 0.789902
0.628510 0.541627 0.787870
0.867871 0.539654 0.785897
0.966386 0.538841 0.785085
0.168542 0.758767 0.785577
0.376096 0.757056 0.783865
0.622474 0.755025 0.781834
0.861835 0.753052 0.779861
0.960350 0.752239 0.779049
0.163878 0.923626 0.780913
0.371433 0.921915 0.779202
0.617811 0.919883 0.777171
0.857172 0.917910 0.775198
0.955687 0.917098 0.774385
