flutter_app/assets/lut/cameras/inst_s.cube
TITLE "INST S - Portrait Soft"
LUT_3D_SIZE 33
0.076631 0.073563 0.073563
0.106301 0.072111 0.072111
0.135930 0.070700 0.070700
0.165514 0.069330 0.069330
0.195050 0.068004 0.068004
0.224534 0.066721 0.066721
0.253963 0.065483 0.065483
0.283332 0.064293 0.064293
0.312638 0.063150 0.063150
0.341878 0.062057 0.062057
0.371047 0.061015 0.061015
0.400142 0.060026 0.060026
0.429159 0.059091 0.059091
0.457328 0.058233 0.058233
0.485199 0.057436 0.057436
0.512922 0.056696 0.056696
0.540852 0.056012 0.056012
0.569698 0.055370 0.055370
0.598352 0.054799 0.054799
0.626810 0.054295 0.054295
0.655069 0.053859 0.053859
0.683126 0.053488 0.053488
0.702205 0.053271 0.053271
0.711860 0.053173 0.053173
0.723290 0.053065 0.053065
0.736478 0.052953 0.052953
0.751402 0.052844 0.052844
0.768042 0.052742 0.052742
0.786370 0.052655 0.052655
0.806358 0.052589 0.052589
0.827974 0.052554 0.052554
0.851183 0.052556 0.052556
0.873439 0.052597 0.052597
0.074048 0.099060 0.070985
0.103746 0.097607 0.069540
0.133435 0.096170 0.068175
0.163080 0.094775 0.066851
0.192676 0.093421 0.065571
0.222220 0.092111 0.064335
0.251708 0.090846 0.063145
0.281137 0.089627 0.062003
0.310503 0.088455 0.060908
0.339802 0.087333 0.059864
0.369030 0.086261 0.058872
0.398184 0.085242 0.057932
0.427260 0.084275 0.057047
0.455487 0.083387 0.056239
0.483415 0.082559 0.055491
0.511184 0.081788 0.054800
0.539150 0.081071 0.054166
0.568034 0.080397 0.053576
0.596725 0.079792 0.053055
0.625221 0.079255 0.052603
0.653519 0.078786 0.052217
0.681614 0.078381 0.051896
0.700719 0.078142 0.051714
0.710388 0.078031 0.051632
0.721835 0.077910 0.051545
0.735041 0.077782 0.051457
0.749987 0.077654 0.051373
0.766650 0.077532 0.051301
0.785005 0.077422 0.051247
0.805022 0.077332 0.051217
0.826670 0.077270 0.051220
0.849913 0.077243 0.051263
0.872203 0.077257 0.051344
0.071257 0.127355 0.068201
0.100913 0.125937 0.066767
0.130645 0.124504 0.065350
0.160357 0.123079 0.064078
0.190020 0.121695 0.062850
0.219631 0.120355 0.061667
0.249186 0.119059 0.060530
0.278682 0.117809 0.059441
0.308114 0.116606 0.058401
0.337480 0.115452 0.057412
0.366774 0.114347 0.056474
0.395995 0.113293 0.055590
0.425137 0.112293 0.054761
0.453428 0.111371 0.054008
0.481419 0.110509 0.053315
0.509242 0.109702 0.052680
0.537248 0.108951 0.052101
0.566173 0.108239 0.051569
0.594907 0.107598 0.051106
0.623445 0.107024 0.050710
0.651786 0.106518 0.050381
0.679924 0.106076 0.050116
0.699059 0.105811 0.049971
0.708743 0.105688 0.049909
0.720208 0.105551 0.049844
0.733435 0.105406 0.049783
0.748404 0.105258 0.049729
0.765095 0.105114 0.049690
0.783479 0.104979 0.049672
0.803529 0.104862 0.049682
0.825213 0.104770 0.049728
0.848495 0.104711 0.049818
0.870822 0.104693 0.049943
0.068545 0.155661 0.065496
0.098155 0.154276 0.064088
0.127847 0.152879 0.062667
0.157610 0.151466 0.061281
0.187341 0.150054 0.060105
0.217019 0.148683 0.058975
0.246642 0.147357 0.057892
0.276205 0.146076 0.056857
0.305705 0.144841 0.055871
0.335137 0.143654 0.054937
0.364499 0.142517 0.054055
0.393786 0.141430 0.053227
0.422994 0.140395 0.052455
0.451350 0.139439 0.051757
0.479405 0.138543 0.051120
0.507285 0.137702 0.050541
0.535331 0.136915 0.050019
0.564298 0.136167 0.049545
0.593074 0.135489 0.049139
0.621655 0.134879 0.048801
0.650039 0.134335 0.048529
0.678221 0.133857 0.048320
0.697386 0.133567 0.048214
0.707085 0.133431 0.048171
0.718568 0.133279 0.048129
0.731816 0.133116 0.048094
0.746809 0.132948 0.048071
0.763527 0.132781 0.048065
0.781941 0.132622 0.048084
0.802024 0.132477 0.048134
0.823744 0.132355 0.048223
0.847065 0.132265 0.048360
0.869430 0.132216 0.048530
0.065917 0.183974 0.062875
0.095479 0.182623 0.061492
0.125123 0.181260 0.060098
0.154847 0.179886 0.058692
0.184637 0.178493 0.057336
0.214384 0.177093 0.056260
0.244075 0.175736 0.055230
0.273706 0.174424 0.054250
0.303274 0.173158 0.053320
0.332774 0.171939 0.052441
0.362203 0.170768 0.051615
0.391557 0.169648 0.050844
0.420833 0.168579 0.050128
0.449254 0.167590 0.049487
0.477374 0.166660 0.048906
0.505313 0.165784 0.048383
0.533399 0.164962 0.047918
0.562408 0.164178 0.047503
0.591227 0.163463 0.047156
0.619851 0.162816 0.046875
0.648278 0.162236 0.046660
0.676504 0.161721 0.046509
0.695699 0.161406 0.046441
0.705414 0.161257 0.046418
0.716914 0.161090 0.046399
0.730184 0.160909 0.046391
0.745202 0.160721 0.046398
0.761946 0.160532 0.046426
0.780391 0.160348 0.046482
0.800507 0.160176 0.046573
0.822263 0.160025 0.046706
0.845624 0.159902 0.046889
0.868027 0.159823 0.047104
0.063373 0.212291 0.060339
0.092887 0.210974 0.058983
0.122483 0.209645 0.057615
0.152159 0.208305 0.056235
0.181911 0.206953 0.054844
0.211726 0.205581 0.053520
0.241486 0.204194 0.052545
0.271185 0.202851 0.051620
0.300821 0.201553 0.050745
0.330390 0.200302 0.049923
0.359887 0.199100 0.049154
0.389310 0.197946 0.048439
0.418653 0.196844 0.047782
0.447140 0.195821 0.047197
0.475325 0.194857 0.046673
0.503324 0.193947 0.046207
0.531451 0.193090 0.045799
0.560503 0.192269 0.045443
0.589365 0.191518 0.045155
0.618033 0.190834 0.044933
0.646503 0.190218 0.044776
0.674773 0.189666 0.044682
0.693999 0.189326 0.044653
0.703729 0.189164 0.044649
0.715248 0.188982 0.044654
0.728539 0.188784 0.044673
0.743581 0.188576 0.044710
0.760353 0.188365 0.044773
0.778828 0.188156 0.044866
0.798978 0.187957 0.044998
0.820770 0.187776 0.045175
0.844171 0.187622 0.045406
0.866612 0.187512 0.045666
0.060918 0.240610 0.057891
0.090382 0.239326 0.056562
0.119928 0.238031 0.055220
0.149555 0.236725 0.053868
0.179259 0.235408 0.052503
0.209037 0.234079 0.051127
0.238873 0.232728 0.049837
0.268642 0.231355 0.048967
0.298347 0.230026 0.048149
0.327985 0.228743 0.047383
0.357551 0.227508 0.046671
0.387042 0.226322 0.046014
0.416454 0.225186 0.045414
0.445007 0.224129 0.044887
0.473258 0.223131 0.044420
0.501321 0.222188 0.044011
0.529488 0.221296 0.043661
0.558583 0.220439 0.043365
0.587488 0.219651 0.043136
0.616200 0.218931 0.042973
0.644715 0.218278 0.042875
0.673029 0.217690 0.042839
0.692285 0.217325 0.042850
0.702031 0.217150 0.042866
0.713568 0.216953 0.042895
0.726881 0.216738 0.042940
0.741948 0.216510 0.043009
0.758747 0.216276 0.043105
0.777253 0.216043 0.043236
0.797436 0.215817 0.043409
0.819266 0.215607 0.043631
0.842706 0.215421 0.043910
0.865187 0.215280 0.044216
0.058554 0.268927 0.055534
0.087967 0.267677 0.054232
0.117463 0.266416 0.052917
0.147039 0.265144 0.051592
0.176693 0.263861 0.050255
0.206422 0.262567 0.048907
0.236223 0.261262 0.047547
0.266077 0.259933 0.046291
0.295852 0.258573 0.045529
0.325559 0.257259 0.044820
0.355194 0.255991 0.044166
0.384754 0.254772 0.043567
0.414236 0.253602 0.043027
0.442856 0.252513 0.042557
0.471173 0.251481 0.042147
0.499301 0.250504 0.041797
0.527510 0.249577 0.041505
0.556648 0.248684 0.041270
0.585597 0.247860 0.041101
0.614353 0.247104 0.040997
0.642912 0.246415 0.040957
0.671271 0.245791 0.040980
0.690557 0.245400 0.041031
0.700319 0.245213 0.041067
0.711875 0.245001 0.041120
0.725209 0.244768 0.041193
0.740301 0.244521 0.041292
0.757128 0.244265 0.041423
0.775665 0.244007 0.041593
0.795883 0.243754 0.041807
0.817749 0.243515 0.042074
0.841229 0.243297 0.042401
0.863749 0.243126 0.042754
0.056283 0.297239 0.053271
0.085644 0.296022 0.051995
0.115088 0.294795 0.050709
0.144613 0.293557 0.049411
0.174216 0.292309 0.048102
0.203894 0.291049 0.046782
0.233645 0.289779 0.045450
0.263465 0.288498 0.044108
0.293334 0.287192 0.042886
0.323111 0.285846 0.042235
0.352817 0.284546 0.041639
0.382447 0.283295 0.041100
0.411998 0.282092 0.040618
0.440686 0.280969 0.040206
0.469070 0.279904 0.039855
0.497264 0.278893 0.039563
0.525516 0.277932 0.039331
0.554698 0.277003 0.039156
0.583691 0.276143 0.039047
0.612491 0.275351 0.039004
0.641095 0.274625 0.039023
0.669499 0.273965 0.039105
0.688816 0.273550 0.039196
0.698594 0.273350 0.039253
0.710169 0.273123 0.039329
0.723525 0.272873 0.039430
0.738642 0.272606 0.039561
0.755497 0.272328 0.039727
0.774064 0.272045 0.039935
0.794316 0.271766 0.040192
0.816220 0.271497 0.040504
0.839741 0.271248 0.040880
0.862300 0.271047 0.041279
0.054108 0.325543 0.051105
0.083416 0.324360 0.049856
0.112808 0.323166 0.048597
0.142280 0.321962 0.047327
0.171831 0.320748 0.046046
0.201476 0.319534 0.044753
0.231239 0.318335 0.043444
0.261072 0.317125 0.042125
0.290973 0.315905 0.040794
0.320917 0.314656 0.039607
0.350757 0.313361 0.039066
0.380520 0.312113 0.038582
0.410205 0.310913 0.038158
0.439006 0.309795 0.037803
0.467515 0.308734 0.037508
0.495835 0.307726 0.037274
0.524223 0.306767 0.037100
0.553507 0.305839 0.036986
0.582602 0.304981 0.036938
0.611504 0.304191 0.036956
0.640209 0.303468 0.037036
0.668696 0.302799 0.037179
0.687345 0.302375 0.037308
0.697204 0.302162 0.037386
0.708863 0.301918 0.037488
0.722306 0.301650 0.037619
0.737511 0.301362 0.037784
0.754457 0.301061 0.037987
0.773119 0.300754 0.038237
0.793466 0.300447 0.038539
0.815468 0.300150 0.038900
0.839088 0.299869 0.039328
0.860808 0.299646 0.039759
0.052033 0.353836 0.049038
0.081287 0.352686 0.047817
0.110624 0.351526 0.046586
0.140043 0.350357 0.045344
0.169540 0.349177 0.044091
0.199154 0.348009 0.042825
0.228935 0.346884 0.041539
0.258787 0.345750 0.040243
0.288706 0.344605 0.038936
0.318691 0.343449 0.037618
0.348714 0.342263 0.036469
0.378619 0.341023 0.036042
0.408444 0.339831 0.035675
0.437365 0.338722 0.035377
0.466007 0.337668 0.035140
0.494458 0.336667 0.034964
0.522993 0.335714 0.034849
0.552387 0.334793 0.034797
0.581592 0.333941 0.034811
0.610602 0.333158 0.034890
0.639416 0.332441 0.035032
0.667990 0.331766 0.035238
0.685895 0.331338 0.035400
0.695843 0.331110 0.035501
0.707593 0.330850 0.035630
0.721129 0.330563 0.035791
0.736431 0.330254 0.035990
0.753476 0.329930 0.036232
0.772238 0.329598 0.036524
0.792688 0.329264 0.036872
0.814794 0.328937 0.037283
0.838521 0.328625 0.037766
0.859300 0.328385 0.038223
0.050060 0.382115 0.047073
0.079259 0.380998 0.045880
0.108541 0.379872 0.044677
0.137905 0.378736 0.043463
0.167348 0.377590 0.042240
0.196928 0.376469 0.041000
0.226726 0.375419 0.039739
0.256595 0.374360 0.038467
0.286533 0.373290 0.037184
0.316536 0.372210 0.035891
0.346602 0.371121 0.034587
0.376699 0.369998 0.033482
0.406667 0.368814 0.033173
0.435707 0.367713 0.032932
0.464483 0.366668 0.032754
0.493067 0.365674 0.032636
0.521750 0.364728 0.032582
0.551254 0.363813 0.032592
0.580568 0.362968 0.032669
0.609688 0.362190 0.032810
0.638610 0.361480 0.033015
0.667272 0.360800 0.033284
0.684433 0.360369 0.033478
0.694471 0.360127 0.033601
0.706313 0.359850 0.033757
0.719944 0.359544 0.033949
0.735342 0.359215 0.034183
0.752486 0.358868 0.034464
0.771349 0.358510 0.034799
0.791902 0.358149 0.035194
0.814113 0.357793 0.035657
0.837947 0.357449 0.036194
0.857780 0.357194 0.036673
0.048193 0.410376 0.045214
0.077335 0.409293 0.044049
0.106561 0.408200 0.042874
0.135869 0.407098 0.041689
0.165256 0.405986 0.040495
0.194802 0.404911 0.039283
0.224615 0.403936 0.038046
0.254501 0.402952 0.036799
0.284455 0.401958 0.035542
0.314476 0.400954 0.034274
0.344559 0.399941 0.032996
0.374703 0.398918 0.031708
0.404871 0.397858 0.030651
0.434032 0.396767 0.030469
0.462943 0.395729 0.030349
0.491660 0.394744 0.030292
0.520493 0.393804 0.030298
0.550108 0.392895 0.030372
0.579532 0.392057 0.030512
0.608762 0.391287 0.030717
0.637793 0.390583 0.030986
0.666542 0.389898 0.031318
0.682962 0.389466 0.031540
0.693089 0.389209 0.031687
0.705023 0.388916 0.031870
0.718749 0.388591 0.032094
0.734244 0.388241 0.032363
0.751487 0.387870 0.032684
0.770452 0.387488 0.033063
0.791108 0.387099 0.033506
0.813425 0.386714 0.034020
0.837367 0.386339 0.034612
0.856248 0.386071 0.035110
0.046468 0.438046 0.043497
0.075553 0.436995 0.042360
0.104723 0.435935 0.041214
0.133975 0.434866 0.040057
0.163306 0.433788 0.038891
0.192818 0.432757 0.037707
0.222648 0.431849 0.036495
0.252550 0.430932 0.035274
0.282522 0.430006 0.034042
0.312560 0.429071 0.032801
0.342662 0.428127 0.031549
0.372824 0.427173 0.030287
0.403044 0.426210 0.029015
0.432390 0.425242 0.028041
0.461436 0.424207 0.027981
0.490286 0.423224 0.027983
0.519269 0.422283 0.028051
0.548995 0.421376 0.028188
0.578529 0.420539 0.028391
0.607868 0.419769 0.028660
0.637009 0.419067 0.028991
0.665846 0.418373 0.029386
0.681523 0.417942 0.029633
0.691740 0.417671 0.029803
0.703767 0.417362 0.030014
0.717586 0.417019 0.030269
0.733179 0.416647 0.030574
0.750521 0.416255 0.030935
0.769586 0.415847 0.031357
0.790346 0.415432 0.031847
0.812768 0.415018 0.032412
0.836817 0.414612 0.033059
0.854740 0.414336 0.033570
0.044870 0.465322 0.041908
0.073899 0.464303 0.040799
0.103012 0.463275 0.039680
0.132208 0.462239 0.038552
0.161483 0.461193 0.037415
0.190960 0.460207 0.036258
0.220805 0.459370 0.035072
0.250724 0.458525 0.033876
0.280712 0.457671 0.032670
0.310767 0.456809 0.031455
0.340886 0.455937 0.030230
0.371066 0.455056 0.028995
0.401304 0.454167 0.027750
0.430686 0.453303 0.026532
0.459939 0.452400 0.025623
0.488922 0.451424 0.025685
0.518056 0.450490 0.025814
0.547892 0.449588 0.026014
0.577536 0.448757 0.026280
0.606985 0.447993 0.026612
0.636233 0.447297 0.027006
0.665158 0.446598 0.027464
0.680094 0.446171 0.027732
0.690400 0.445886 0.027926
0.702520 0.445560 0.028164
0.716434 0.445198 0.028451
0.732123 0.444806 0.028792
0.749564 0.444391 0.029192
0.768731 0.443959 0.029658
0.789595 0.443518 0.030196
0.812122 0.443075 0.030812
0.836278 0.442639 0.031515
0.853236 0.442356 0.032033
0.043385 0.492472 0.040431
0.072356 0.491484 0.039350
0.101412 0.490489 0.038260
0.130550 0.489485 0.037160
0.159768 0.488472 0.036051
0.189210 0.487530 0.034923
0.219070 0.486764 0.033762
0.249003 0.485990 0.032592
0.279006 0.485208 0.031413
0.309078 0.484417 0.030225
0.339213 0.483618 0.029027
0.369411 0.482810 0.027819
0.399666 0.481994 0.026602
0.429047 0.481203 0.025413
0.458355 0.480408 0.024219
0.487552 0.479569 0.023379
0.516838 0.478640 0.023570
0.546784 0.477744 0.023834
0.576539 0.476918 0.024164
0.606097 0.476161 0.024559
0.635454 0.475471 0.025016
0.664467 0.474767 0.025539
0.678662 0.474345 0.025824
0.689059 0.474046 0.026042
0.701270 0.473703 0.026308
0.715280 0.473323 0.026627
0.731066 0.472911 0.027005
0.748607 0.472473 0.027445
0.767876 0.472017 0.027955
0.788843 0.471549 0.028541
0.811476 0.471078 0.029209
0.835739 0.470611 0.029967
0.851726 0.470326 0.030490
0.042014 0.519578 0.039068
0.070926 0.518614 0.038015
0.099923 0.517643 0.036953
0.129003 0.516664 0.035882
0.158163 0.515676 0.034802
0.187568 0.514772 0.033702
0.217442 0.514072 0.032568
0.247389 0.513365 0.031425
0.277407 0.512650 0.030273
0.307494 0.511927 0.029112
0.337645 0.511196 0.027942
0.367858 0.510456 0.026762
0.398124 0.509709 0.025574
0.427509 0.508988 0.024413
0.456831 0.508275 0.023248
0.486088 0.507558 0.022078
0.515611 0.506779 0.021316
0.545668 0.505899 0.021644
0.575532 0.505090 0.022037
0.605199 0.504349 0.022495
0.634666 0.503676 0.023016
0.663766 0.502974 0.023602
0.677221 0.502559 0.023902
0.687708 0.502245 0.024145
0.700013 0.501886 0.024440
0.714118 0.501487 0.024792
0.730002 0.501054 0.025206
0.747643 0.500594 0.025687
0.767013 0.500113 0.026242
0.788085 0.499618 0.026876
0.810824 0.499119 0.027597
0.835195 0.498622 0.028412
0.850205 0.498336 0.028935
0.040722 0.547678 0.037786
0.069573 0.546735 0.036762
0.098509 0.545785 0.035729
0.127528 0.544827 0.034687
0.156628 0.543861 0.033637
0.185993 0.542994 0.032566
0.215877 0.542368 0.031460
0.245835 0.541734 0.030345
0.275865 0.541093 0.029222
0.305963 0.540444 0.028090
0.336126 0.539787 0.026949
0.366352 0.539122 0.025799
0.396615 0.538450 0.024641
0.426011 0.537803 0.023510
0.455345 0.537152 0.022374
0.484613 0.536497 0.021235
0.514222 0.535826 0.020077
0.544486 0.535082 0.019382
0.574463 0.534264 0.019842
0.604242 0.533516 0.020368
0.633820 0.532836 0.020956
0.663011 0.532116 0.021608
0.675728 0.531705 0.021920
0.686306 0.531371 0.022188
0.698704 0.530991 0.022513
0.712905 0.530567 0.022900
0.728888 0.530108 0.023352
0.746630 0.529618 0.023875
0.766104 0.529105 0.024477
0.787281 0.528577 0.025162
0.810128 0.528042 0.025937
0.834608 0.527508 0.026810
0.848636 0.527220 0.027330
0.039563 0.575748 0.036636
0.068352 0.574826 0.035641
0.097227 0.573898 0.034637
0.126184 0.572961 0.033625
0.155223 0.572017 0.032604
0.184549 0.571183 0.031563
0.214443 0.570618 0.030486
0.244413 0.570045 0.029400
0.274454 0.569465 0.028306
0.304564 0.568877 0.027204
0.334740 0.568282 0.026093
0.364979 0.567679 0.024974
0.395240 0.567069 0.023848
0.424648 0.566483 0.022747
0.453993 0.565894 0.021642
0.483273 0.565301 0.020533
0.512912 0.564691 0.019405
0.543224 0.564064 0.018258
0.573414 0.563384 0.017669
0.603306 0.562628 0.018261
0.632995 0.561941 0.018916
0.662275 0.561203 0.019635
0.674254 0.560798 0.019955
0.684923 0.560445 0.020249
0.697416 0.560042 0.020604
0.711713 0.559594 0.021025
0.727795 0.559107 0.021515
0.745638 0.558588 0.022081
0.765215 0.558043 0.022729
0.786497 0.557481 0.023464
0.809451 0.556910 0.024294
0.834041 0.556338 0.025225
0.847080 0.556051 0.025737
0.038540 0.603679 0.035621
0.067267 0.602780 0.034655
0.096079 0.601872 0.033681
0.124975 0.600958 0.032698
0.153952 0.600036 0.031707
0.183238 0.599235 0.030695
0.213144 0.598731 0.029647
0.243124 0.598218 0.028590
0.273177 0.597699 0.027526
0.303299 0.597172 0.026454
0.333488 0.596638 0.025374
0.363740 0.596097 0.024285
0.393998 0.595549 0.023190
0.423417 0.595025 0.022120
0.452773 0.594497 0.021046
0.482065 0.593966 0.019968
0.511735 0.593417 0.018871
0.542033 0.592853 0.017757
0.572280 0.592297 0.016652
0.602389 0.591682 0.016176
0.632189 0.590987 0.016897
0.661559 0.590231 0.017682
0.672801 0.589833 0.018008
0.683561 0.589461 0.018328
0.696147 0.589035 0.018713
0.710541 0.588563 0.019168
0.726722 0.588048 0.019696
0.744666 0.587499 0.020305
0.764346 0.586922 0.020999
0.785733 0.586326 0.021785
0.808795 0.585718 0.022669
0.833494 0.585108 0.023658
0.845538 0.584825 0.024156
0.037649 0.631469 0.034739
0.066313 0.630591 0.033801
0.095064 0.629706 0.032856
0.123898 0.628813 0.031902
0.152813 0.627913 0.030940
0.182059 0.627147 0.029958
0.211975 0.626702 0.028939
0.241966 0.626250 0.027912
0.272030 0.625792 0.026878
0.302164 0.625326 0.025836
0.332365 0.624853 0.024787
0.362630 0.624373 0.023729
0.392885 0.623887 0.022666
0.422315 0.623424 0.021627
0.451683 0.622957 0.020583
0.480986 0.622488 0.019537
0.510688 0.622000 0.018471
0.540972 0.621498 0.017390
0.571205 0.621006 0.016318
0.601381 0.620522 0.015256
0.631404 0.619969 0.014899
0.660862 0.619195 0.015750
0.671367 0.618807 0.016077
0.682219 0.618415 0.016424
0.694899 0.617967 0.016839
0.709389 0.617469 0.017328
0.725669 0.616927 0.017895
0.743713 0.616347 0.018546
0.763497 0.615738 0.019287
0.784990 0.615107 0.020123
0.808158 0.614463 0.021061
0.832966 0.613813 0.022109
0.844008 0.613538 0.022589
0.036886 0.659114 0.033986
0.065489 0.658258 0.033077
0.094177 0.657395 0.032160
0.122949 0.656524 0.031235
0.151803 0.655647 0.030302
0.181009 0.654913 0.029349
0.210934 0.654529 0.028360
0.240936 0.654137 0.027363
0.271011 0.653739 0.026359
0.301157 0.653334 0.025348
0.331370 0.652922 0.024329
0.361647 0.652503 0.023303
0.391900 0.652079 0.022272
0.421341 0.651677 0.021264
0.450719 0.651272 0.020252
0.480033 0.650863 0.019237
0.509767 0.650437 0.018202
0.540040 0.649997 0.017154
0.570260 0.649567 0.016115
0.600423 0.649146 0.015086
0.630523 0.648734 0.014067
0.660185 0.648090 0.013839
0.669954 0.647714 0.014164
0.680898 0.647302 0.014537
0.693672 0.646831 0.014983
0.708258 0.646308 0.015506
0.724636 0.645738 0.016112
0.742782 0.645128 0.016805
0.762668 0.644486 0.017592
0.784266 0.643820 0.018479
0.807541 0.643139 0.019471
0.832457 0.642451 0.020576
0.842492 0.642186 0.021034
0.036356 0.681682 0.033463
0.064907 0.680843 0.032576
0.093544 0.679998 0.031683
0.122265 0.679146 0.030781
0.151068 0.678287 0.029872
0.180248 0.677464 0.028945
0.210209 0.676734 0.027986
0.240249 0.675999 0.027018
0.270364 0.675256 0.026043
0.300551 0.674508 0.025059
0.330808 0.673752 0.024068
0.361131 0.672990 0.023068
0.391416 0.672225 0.022063
0.420903 0.671479 0.021079
0.450330 0.670731 0.020091
0.479694 0.669981 0.019098
0.509503 0.669211 0.018085
0.539816 0.668431 0.017059
0.570077 0.667660 0.016042
0.600283 0.666898 0.015033
0.630428 0.666145 0.014033
0.660055 0.665359 0.013056
0.669276 0.665041 0.013029
0.680304 0.664615 0.013419
0.693164 0.664129 0.013884
0.707837 0.663590 0.014429
0.724302 0.663002 0.015060
0.742536 0.662373 0.015780
0.762512 0.661711 0.016596
0.784200 0.661024 0.017515
0.807566 0.660320 0.018541
0.832574 0.659608 0.019683
0.841588 0.659362 0.020105
0.036163 0.690863 0.033273
0.064693 0.690032 0.032396
0.093309 0.689194 0.031512
0.122010 0.688349 0.030620
0.150792 0.687498 0.029721
0.179972 0.686697 0.028803
0.209983 0.686026 0.027851
0.240072 0.685349 0.026891
0.270237 0.684665 0.025923
0.300475 0.683975 0.024948
0.330782 0.683278 0.023964
0.361156 0.682575 0.022973
0.391476 0.681870 0.021977
0.421010 0.681184 0.021001
0.450484 0.680496 0.020021
0.479893 0.679805 0.019038
0.509775 0.679096 0.018033
0.540128 0.678376 0.017017
0.570429 0.677666 0.016009
0.600673 0.676965 0.015010
0.630856 0.676274 0.014020
0.659673 0.675559 0.013080
0.668995 0.675274 0.012778
0.680150 0.674891 0.012764
0.693090 0.674396 0.013242
0.707844 0.673845 0.013802
0.724390 0.673246 0.014448
0.742706 0.672606 0.015186
0.762763 0.671931 0.016022
0.784532 0.671231 0.016961
0.807979 0.670513 0.018010
0.833067 0.669787 0.019175
0.841052 0.669565 0.019556
0.035951 0.701806 0.033065
0.064456 0.700983 0.032199
0.093048 0.700154 0.031326
0.121723 0.699319 0.030446
0.150480 0.698476 0.029558
0.179657 0.697701 0.028651
0.209713 0.697095 0.027708
0.239848 0.696482 0.026758
0.270059 0.695864 0.025801
0.300342 0.695239 0.024835
0.330695 0.694609 0.023862
0.361115 0.693972 0.022881
0.391466 0.693333 0.021897
0.421043 0.692713 0.020932
0.450559 0.692092 0.019963
0.480011 0.691468 0.018991
0.509961 0.690825 0.017997
0.540348 0.690173 0.016993
0.570683 0.689531 0.015997
0.600961 0.688899 0.015010
0.631176 0.688276 0.014033
0.659182 0.687637 0.013132
0.668568 0.687353 0.012831
0.679829 0.687013 0.012471
0.692906 0.686567 0.012481
0.707742 0.686004 0.013057
0.724372 0.685392 0.013722
0.742771 0.684738 0.014480
0.762911 0.684048 0.015338
0.784763 0.683332 0.016301
0.808294 0.682598 0.017375
0.833465 0.681856 0.018568
0.840418 0.681659 0.018905
0.035730 0.714498 0.032847
0.064205 0.713686 0.031994
0.092767 0.712867 0.031135
0.121414 0.712042 0.030267
0.150142 0.711210 0.029393
0.179292 0.710458 0.028499
0.209324 0.709907 0.027571
0.239436 0.709349 0.026635
0.269623 0.708786 0.025692
0.299883 0.708216 0.024741
0.330212 0.707641 0.023783
0.360609 0.707060 0.022817
0.390934 0.706477 0.021848
0.420489 0.705913 0.020898
0.449981 0.705347 0.019945
0.479410 0.704779 0.018988
0.509336 0.704192 0.018010
0.539691 0.703597 0.017022
0.569992 0.703011 0.016043
0.600235 0.702435 0.015073
0.630416 0.701869 0.014111
0.658308 0.701275 0.013228
0.667689 0.700994 0.012931
0.678943 0.700658 0.012577
0.692065 0.700268 0.012164
0.706983 0.699765 0.012193
0.723633 0.699139 0.012875
0.742053 0.698470 0.013652
0.762217 0.697765 0.014531
0.784093 0.697033 0.015516
0.807649 0.696281 0.016615
0.832848 0.695520 0.017833
0.839705 0.695320 0.018173
0.035508 0.728925 0.032631
0.063951 0.728125 0.031793
0.092480 0.727318 0.030948
0.121093 0.726504 0.030095
0.149789 0.725684 0.029236
0.178905 0.724958 0.028358
0.208903 0.724460 0.027446
0.238980 0.723957 0.026527
0.269132 0.723449 0.025601
0.299358 0.722934 0.024667
0.329653 0.722414 0.023727
0.360014 0.721888 0.022778
0.390305 0.721360 0.021827
0.419826 0.720852 0.020895
0.449285 0.720341 0.019960
0.478681 0.719829 0.019021
0.508570 0.719298 0.018061
0.538879 0.718758 0.017092
0.569136 0.718229 0.016132
0.599334 0.717709 0.015180
0.629468 0.717198 0.014237
0.657318 0.716646 0.013371
0.666685 0.716370 0.013080
0.677923 0.716039 0.012731
0.691025 0.715654 0.012326
0.705986 0.715217 0.011865
0.722724 0.714659 0.011918
0.741160 0.713974 0.012717
0.761342 0.713252 0.013618
