flutter_app/assets/lut/cameras/inst_c_polaroid_warm.cube
TITLE "Instax Mini C - Polaroid Warm v12"
# DAZZ Camera LUT - Polaroid 600 Warm Tone
# v12 - Enhanced highlight warmth R/B warmth + exact G control
LUT_3D_SIZE 9
0.106769 0.043150 0.017218
0.215876 0.064318 0.016129
0.333983 0.080489 0.015224
0.455462 0.097123 0.014308
0.577243 0.113802 0.013407
0.697665 0.130297 0.012535
0.815968 0.146505 0.011700
0.931999 0.162405 0.010905
1.000000 0.175287 0.010495
0.100827 0.124983 0.017394
0.209707 0.139951 0.016725
0.327749 0.156120 0.015871
0.449153 0.172753 0.015015
0.570846 0.189430 0.014184
0.691165 0.205922 0.013393
0.809346 0.222127 0.012655
0.925227 0.238024 0.011980
1.000000 0.251444 0.011657
0.096266 0.206682 0.017418
0.203404 0.221649 0.017370
0.320707 0.237815 0.016815
0.441969 0.254445 0.016071
0.563481 0.271117 0.015384
0.683288 0.287567 0.014794
0.799163 0.303503 0.014397
0.912878 0.319140 0.013995
1.000000 0.333652 0.012481
0.092874 0.290717 0.017207
0.199093 0.305679 0.017553
0.313339 0.321839 0.018149
0.433178 0.338413 0.018029
0.553016 0.354795 0.016929
0.670690 0.370794 0.015246
0.785945 0.386465 0.013598
0.900828 0.402084 0.011951
1.000000 0.417434 0.010332
0.090107 0.374949 0.017310
0.196830 0.389941 0.016907
0.311661 0.406136 0.016624
0.429442 0.422797 0.016449
0.551106 0.439340 0.014707
0.666848 0.455078 0.013057
0.779008 0.470329 0.011461
0.889553 0.485360 0.009888
1.000000 0.500709 0.008269
0.091794 0.458384 0.013494
0.197832 0.473376 0.013320
0.312326 0.489572 0.013149
0.430106 0.506232 0.012974
0.549062 0.522937 0.012512
0.668514 0.539178 0.010799
0.778958 0.554195 0.009227
0.889499 0.569151 0.007130
1.000000 0.584249 0.004357
0.088615 0.540371 0.011357
0.198485 0.555364 0.009905
0.312979 0.571559 0.009735
0.430815 0.588214 0.009469
0.549411 0.604875 0.008483
0.668950 0.621315 0.006225
0.787969 0.637205 0.002485
0.901590 0.652294 0.000000
1.000000 0.666172 0.000000
0.085680 0.620789 0.008974
0.196551 0.635730 0.006459
0.315343 0.651839 0.003596
0.434494 0.668377 0.001204
0.554307 0.684928 0.000000
0.673130 0.701269 0.000000
0.793297 0.717300 0.000000
0.912108 0.732866 0.000000
1.000000 0.744698 0.000000
0.086166 0.699528 0.001389
0.198137 0.714376 0.000000
0.319405 0.730390 0.000000
0.441639 0.746836 0.000000
0.562449 0.763299 0.000000
0.682224 0.779555 0.000000
0.800191 0.795791 0.000000
0.920744 0.812153 0.000000
1.000000 0.822999 0.000000
0.105165 0.065216 0.128457
0.214508 0.080097 0.127576
0.332609 0.096267 0.126675
0.454082 0.112902 0.125764
0.575856 0.129580 0.124869
0.696269 0.146075 0.124004
0.814563 0.162283 0.123176
0.930583 0.178182 0.122390
1.000000 0.191116 0.121984
0.099132 0.140761 0.128956
0.208554 0.149645 0.128423
0.325680 0.189278 0.126667
0.446756 0.214122 0.125501
0.568278 0.234931 0.124519
0.688490 0.253810 0.123647
0.806597 0.271484 0.122866
0.922417 0.288318 0.122173
1.000000 0.301741 0.121873
0.093725 0.222460 0.129275
0.203053 0.193595 0.130766
0.320178 0.230178 0.129222
0.440576 0.268612 0.127650
0.561636 0.296213 0.126562
0.680918 0.319060 0.125764
0.797361 0.339236 0.125282
0.912371 0.357845 0.124285
1.000000 0.373847 0.122730
0.089429 0.306493 0.129393
0.197035 0.264246 0.132245
0.312895 0.294007 0.131627
0.432477 0.324517 0.131002
0.552474 0.358707 0.128583
0.670017 0.385225 0.126489
0.785407 0.407806 0.124569
0.900405 0.428341 0.122728
1.000000 0.447301 0.120966
0.086218 0.390735 0.129451
0.193125 0.341790 0.132288
0.309795 0.368216 0.130864
0.430047 0.395402 0.129322
0.551261 0.422382 0.127170
0.666194 0.452570 0.124963
0.777743 0.477239 0.123006
0.887860 0.498922 0.121177
1.000000 0.519386 0.119360
0.088927 0.474171 0.125294
0.194364 0.421427 0.128818
0.310400 0.445807 0.127711
0.429166 0.470888 0.126772
0.549665 0.496035 0.125360
0.668737 0.520471 0.123329
0.779132 0.547625 0.121199
0.889722 0.571206 0.118531
1.000000 0.592821 0.115315
0.087564 0.556158 0.122551
0.197166 0.501122 0.124805
0.312180 0.524138 0.124109
0.430176 0.547796 0.123296
0.548964 0.571459 0.121708
0.669911 0.594813 0.118473
0.788826 0.617398 0.114300
0.902386 0.643054 0.109591
1.000000 0.664267 0.104735
0.084791 0.636562 0.119917
0.198552 0.580020 0.119981
0.314905 0.601934 0.117487
0.434211 0.624436 0.114597
0.554174 0.646958 0.111150
0.673141 0.669195 0.107225
0.794691 0.691012 0.101437
0.913444 0.712211 0.095274
1.000000 0.732140 0.089134
0.085660 0.715268 0.111736
0.200533 0.657633 0.110170
0.321324 0.678702 0.104900
0.441644 0.700341 0.100400
0.562586 0.722004 0.095401
0.682490 0.743396 0.089990
0.801963 0.764386 0.083772
0.922581 0.784949 0.076204
1.000000 0.797971 0.069115
0.103690 0.083677 0.249413
0.213027 0.097475 0.248103
0.331123 0.113312 0.247074
0.452588 0.129947 0.246169
0.574354 0.146625 0.245280
0.694758 0.163119 0.244422
0.813042 0.179327 0.243603
0.929049 0.195226 0.242827
1.000000 0.208215 0.242425
0.097537 0.158645 0.249730
0.206144 0.190288 0.247982
0.323379 0.226736 0.246295
0.444707 0.244775 0.245401
0.566347 0.262181 0.244561
0.686622 0.279018 0.243782
0.804760 0.295331 0.243070
0.920589 0.311192 0.242438
1.000000 0.323975 0.242193
0.090635 0.239553 0.250247
0.200723 0.231095 0.250434
0.317947 0.264631 0.249003
0.438003 0.311261 0.247132
0.558869 0.342985 0.245912
0.678336 0.368269 0.245066
0.795385 0.390060 0.244705
0.912026 0.409796 0.243028
1.000000 0.425523 0.241508
0.085269 0.323536 0.250734
0.194278 0.294893 0.252433
0.311809 0.294649 0.252848
0.431546 0.339187 0.251213
0.551965 0.384604 0.248348
0.670737 0.417888 0.245975
0.787576 0.444949 0.243862
0.903353 0.468554 0.241892
1.000000 0.488753 0.240125
0.081600 0.407789 0.250731
0.190296 0.369057 0.252444
0.308681 0.351992 0.252695
0.429794 0.389702 0.250322
0.550691 0.427156 0.247764
0.665699 0.467869 0.245143
0.777659 0.499421 0.242912
0.888263 0.525971 0.240886
1.000000 0.550130 0.238923
0.083155 0.491224 0.246959
0.190888 0.446652 0.249295
0.307877 0.419653 0.250524
0.428128 0.453153 0.248656
0.549550 0.486743 0.246499
0.668239 0.519364 0.244153
0.778779 0.555968 0.241467
0.889512 0.586245 0.238306
1.000000 0.612925 0.234694
0.083761 0.573211 0.243560
0.192988 0.524985 0.245587
0.308257 0.491603 0.247718
0.428375 0.522248 0.245629
0.548562 0.552903 0.243034
0.670332 0.583164 0.239011
0.789154 0.612441 0.234394
0.902754 0.646745 0.229175
1.000000 0.673721 0.223947
0.083879 0.653596 0.239690
0.196356 0.602871 0.239727
0.312658 0.564938 0.240189
0.433483 0.593397 0.236338
0.554192 0.621883 0.232195
0.674077 0.650010 0.227528
0.795650 0.677607 0.221307
0.914361 0.704442 0.214771
1.000000 0.730893 0.208245
0.085151 0.732269 0.230883
0.199928 0.679715 0.228962
0.321340 0.638449 0.226575
0.441802 0.665276 0.221631
0.562883 0.692133 0.216192
0.682923 0.718656 0.210349
0.803481 0.744682 0.203393
0.924000 0.770178 0.195491
1.000000 0.786017 0.188171
0.102171 0.104353 0.374517
0.211503 0.117273 0.372860
0.329592 0.131482 0.371185
0.451049 0.147481 0.370032
0.572806 0.164159 0.369150
0.693200 0.180653 0.368300
0.811472 0.196860 0.367490
0.927466 0.212759 0.366725
1.000000 0.225806 0.366329
0.095997 0.178763 0.374628
0.204278 0.217502 0.372123
0.321766 0.246047 0.370268
0.442594 0.276308 0.368746
0.564355 0.290213 0.368054
0.684693 0.304950 0.367370
0.802862 0.319862 0.366732
0.918695 0.334722 0.366166
1.000000 0.346851 0.365987
0.089059 0.259074 0.374934
0.198288 0.271486 0.373914
0.315175 0.312360 0.371839
0.435282 0.356789 0.369989
0.556376 0.381511 0.369074
0.676073 0.402633 0.368455
0.793804 0.421684 0.367877
0.910884 0.439462 0.366120
1.000000 0.453574 0.364669
0.081385 0.341604 0.375646
0.191428 0.326939 0.376294
0.308885 0.340290 0.375918
0.429538 0.382810 0.373768
0.550895 0.432583 0.370722
0.671315 0.468617 0.368222
0.789899 0.497483 0.366018
0.906557 0.522140 0.363996
1.000000 0.541120 0.362343
0.076398 0.425332 0.375643
0.186746 0.397108 0.376264
0.306303 0.390550 0.375581
0.428683 0.405800 0.373945
0.549671 0.453903 0.370969
0.666837 0.501583 0.368050
0.781638 0.537877 0.365600
0.894851 0.567774 0.363413
1.000000 0.594037 0.361362
0.077217 0.508767 0.372117
0.186705 0.472601 0.373434
0.305178 0.454007 0.373734
0.427180 0.452954 0.373066
0.548743 0.494986 0.370427
0.667360 0.535890 0.367751
0.779163 0.579413 0.364508
0.890845 0.614548 0.360924
1.000000 0.644817 0.356971
0.077823 0.590754 0.368718
0.188105 0.549533 0.370031
0.305132 0.523148 0.371152
0.426723 0.511373 0.370546
0.548337 0.549014 0.366939
0.670226 0.586172 0.362361
0.788959 0.622141 0.357299
0.902687 0.663090 0.351647
1.000000 0.694193 0.346108
0.079321 0.671116 0.364047
0.190896 0.626374 0.363923
0.309497 0.594417 0.363157
0.431008 0.574983 0.361403
0.553368 0.609426 0.356261
0.674715 0.643438 0.350667
0.796169 0.676809 0.344059
0.914846 0.709284 0.337147
1.000000 0.740617 0.330297
0.084666 0.749754 0.353390
0.197609 0.702427 0.351684
0.318930 0.666382 0.348926
0.439813 0.641301 0.346391
0.562578 0.673348 0.339994
0.683450 0.704997 0.333486
0.804625 0.736053 0.325944
0.925046 0.766479 0.317706
1.000000 0.784992 0.310158
0.100646 0.126627 0.500574
0.209971 0.138840 0.498638
0.328054 0.152098 0.496588
0.449503 0.166009 0.494606
0.571251 0.181739 0.493353
0.691634 0.198233 0.492511
0.809894 0.214440 0.491711
0.925873 0.230339 0.490958
1.000000 0.243444 0.490570
0.094450 0.200384 0.500440
0.202562 0.242350 0.497420
0.320172 0.266500 0.495309
0.441123 0.291781 0.493342
0.562353 0.318320 0.491881
0.682752 0.330950 0.491295
0.800947 0.344458 0.490733
0.916778 0.358314 0.490239
1.000000 0.369794 0.490139
0.087474 0.280060 0.500523
0.196265 0.302624 0.498781
0.312970 0.346497 0.496113
0.433317 0.382838 0.494124
0.553855 0.420138 0.492581
0.673585 0.437043 0.492229
0.792089 0.453321 0.491230
0.909247 0.469092 0.489550
1.000000 0.481699 0.488158
0.079710 0.362022 0.501081
0.188996 0.364556 0.500794
0.305744 0.388102 0.499842
0.427124 0.433778 0.496484
0.548770 0.481886 0.493388
0.669780 0.511703 0.491124
0.788866 0.536439 0.489076
0.905795 0.558105 0.487169
1.000000 0.574513 0.485628
0.072958 0.444206 0.500811
0.184498 0.426627 0.500534
0.304096 0.430007 0.499054
0.426288 0.455159 0.496683
0.547883 0.501938 0.493680
0.667586 0.552763 0.490609
0.785554 0.591329 0.488033
0.901607 0.622768 0.485752
1.000000 0.646533 0.483907
0.071263 0.526357 0.497609
0.181892 0.498619 0.498110
0.301798 0.488492 0.497512
0.424754 0.495829 0.496076
0.547279 0.520178 0.494029
0.666569 0.569666 0.490910
0.781662 0.618111 0.487175
0.895986 0.656613 0.483217
1.000000 0.687179 0.479119
0.071869 0.608344 0.494210
0.182495 0.574146 0.495046
0.301367 0.554768 0.495043
0.424402 0.549984 0.493398
0.547858 0.559223 0.490475
0.669617 0.603271 0.485430
0.788434 0.645995 0.479921
0.902788 0.691739 0.473902
1.000000 0.725146 0.468132
0.073717 0.688678 0.489020
0.185469 0.649934 0.488380
0.305713 0.623969 0.486607
0.428841 0.610520 0.483860
0.552756 0.609041 0.479914
0.674923 0.648931 0.473609
0.796258 0.688071 0.466615
0.914905 0.726190 0.459329
1.000000 0.760780 0.452218
0.079776 0.767283 0.477643
0.192576 0.725196 0.475590
0.314863 0.694385 0.472109
0.437691 0.674533 0.468524
0.561470 0.665114 0.463804
0.683770 0.701885 0.456431
0.805397 0.737967 0.448362
0.925720 0.773318 0.439787
1.000000 0.794365 0.432018
0.099135 0.144426 0.623557
0.208455 0.159396 0.622729
0.326530 0.173126 0.620874
0.447971 0.186702 0.618764
0.569710 0.200314 0.616671
0.690082 0.215621 0.615364
0.808329 0.231827 0.614574
0.924291 0.247726 0.613833
1.000000 0.260890 0.613454
0.092916 0.220059 0.624192
0.200927 0.266250 0.621822
0.318605 0.288039 0.619671
0.439624 0.310195 0.617386
0.560919 0.332822 0.615298
0.680823 0.356666 0.613867
0.799042 0.368784 0.613383
0.914862 0.381647 0.612966
1.000000 0.392493 0.612976
0.085901 0.300084 0.624446
0.194425 0.330031 0.622834
0.311014 0.375788 0.619894
0.431487 0.406916 0.617692
0.552124 0.438666 0.615828
0.670917 0.471065 0.614811
0.790394 0.484611 0.613230
0.907628 0.498398 0.611627
1.000000 0.509516 0.610292
0.078035 0.382045 0.625086
0.186820 0.395627 0.624610
0.303918 0.425390 0.622761
0.425208 0.472265 0.618866
0.547100 0.512966 0.615585
0.667654 0.554107 0.612694
0.786901 0.574675 0.610808
0.903946 0.593364 0.609015
1.000000 0.607539 0.607561
0.071800 0.464231 0.624400
0.182764 0.461463 0.623523
0.301946 0.475166 0.621443
0.423885 0.505897 0.618448
0.545496 0.554075 0.614981
0.665727 0.603747 0.611839
0.784486 0.636940 0.609464
0.901186 0.664535 0.607327
1.000000 0.684753 0.605585
0.068565 0.545527 0.621369
0.180171 0.526603 0.621306
0.299995 0.524389 0.620136
0.422577 0.539156 0.618032
0.544830 0.571094 0.615346
0.665153 0.619720 0.611974
0.783367 0.670604 0.607871
0.900159 0.710629 0.603623
1.000000 0.738892 0.599509
0.065980 0.625741 0.618325
0.177298 0.598841 0.618709
0.297877 0.586554 0.617635
0.421803 0.588422 0.615050
0.545924 0.604315 0.611283
0.668528 0.633798 0.606557
0.787823 0.683465 0.600594
0.903929 0.732507 0.594260
1.000000 0.766024 0.588365
0.068223 0.706043 0.612551
0.180147 0.673230 0.611404
0.301367 0.653191 0.608856
0.426016 0.645661 0.605153
0.551195 0.650095 0.600343
0.674719 0.665887 0.594700
0.795932 0.710791 0.587323
0.914593 0.754576 0.579664
0.999629 0.790827 0.572358
0.074691 0.784616 0.600570
0.187638 0.747710 0.598078
0.310077 0.722076 0.594151
0.434946 0.707396 0.589492
0.560159 0.703144 0.583901
0.684038 0.708765 0.577490
0.805805 0.749869 0.568997
0.926029 0.790141 0.560089
0.998823 0.813583 0.552106
0.097649 0.161513 0.744246
0.206962 0.176482 0.743423
0.325030 0.192652 0.742549
0.446463 0.206843 0.740693
0.568192 0.220456 0.738608
0.688552 0.233919 0.736572
0.806785 0.248912 0.735308
0.922731 0.264810 0.734581
1.000000 0.278035 0.734211
0.091407 0.237145 0.744899
0.199352 0.285684 0.742830
0.317071 0.308659 0.741761
0.438129 0.330033 0.739789
0.559460 0.350594 0.737504
0.679395 0.370964 0.735313
0.797156 0.392687 0.733916
0.912952 0.404574 0.733585
1.000000 0.414817 0.733784
0.084350 0.318839 0.745854
0.192693 0.353777 0.744414
0.309200 0.402241 0.741935
0.429740 0.430468 0.739834
0.550399 0.458387 0.737741
0.669842 0.486489 0.735777
0.788728 0.515358 0.733113
0.906038 0.527194 0.731586
1.000000 0.536850 0.730307
0.076365 0.401721 0.746958
0.184745 0.422108 0.746248
0.302344 0.456936 0.744008
0.423579 0.504981 0.739956
0.545634 0.540446 0.736432
0.666350 0.576157 0.733201
0.784971 0.612248 0.730426
0.902129 0.628012 0.728746
1.000000 0.639993 0.727378
0.070663 0.483909 0.745845
0.181248 0.490680 0.744486
0.300155 0.511909 0.742316
0.421932 0.546561 0.739038
0.543488 0.595061 0.735087
0.663935 0.638141 0.731750
0.782291 0.681339 0.728818
0.899142 0.705033 0.726832
1.000000 0.722277 0.725047
0.067427 0.565204 0.742814
0.178547 0.558513 0.742134
0.297990 0.566279 0.740643
0.420302 0.587679 0.738128
0.542399 0.622870 0.734910
0.662987 0.672042 0.730840
0.781897 0.722035 0.726443
0.899468 0.757316 0.722179
0.999428 0.781279 0.718075
0.064248 0.645089 0.739836
0.175956 0.625159 0.739726
0.296436 0.619602 0.738104
0.420237 0.627736 0.734828
0.544221 0.649508 0.730236
0.666680 0.685005 0.724756
0.786694 0.733800 0.718592
0.904378 0.784322 0.712020
0.998112 0.816347 0.706063
0.063083 0.723221 0.733846
0.176296 0.696860 0.732081
0.298344 0.682915 0.728925
0.423734 0.680919 0.724425
0.549326 0.690674 0.718849
0.673441 0.712028 0.712483
0.795207 0.744438 0.705446
0.914021 0.793959 0.697412
0.997633 0.830280 0.689978
0.069732 0.801645 0.721305
0.182824 0.769831 0.718384
0.305412 0.749282 0.714020
0.431625 0.739683 0.708526
0.558191 0.740508 0.702100
0.683218 0.751201 0.694926
0.805861 0.771282 0.687113
0.925984 0.816471 0.677874
0.997250 0.842174 0.669687
0.096188 0.178276 0.862649
0.205496 0.193244 0.861830
0.323556 0.209414 0.860962
0.444980 0.226047 0.860090
0.566699 0.240215 0.858235
0.687047 0.253680 0.856210
0.805265 0.266911 0.854253
0.921193 0.281571 0.853045
1.000000 0.294855 0.852687
0.089922 0.253907 0.863321
0.197822 0.303386 0.861223
0.315567 0.325387 0.860200
0.436649 0.348019 0.859183
0.557999 0.368392 0.857279
0.677945 0.387809 0.855163
0.795703 0.406891 0.853169
0.911042 0.427065 0.851947
1.000000 0.436650 0.851930
0.082822 0.335600 0.864311
0.191034 0.373419 0.862774
0.307476 0.424101 0.860794
0.428043 0.452721 0.859768
0.548653 0.479091 0.858037
0.668810 0.504201 0.855228
0.787771 0.529334 0.851927
0.904478 0.555445 0.849270
1.000000 0.563666 0.848047
0.074697 0.419619 0.865982
0.182673 0.445414 0.865467
0.300925 0.483866 0.862766
0.422125 0.533901 0.859112
0.544297 0.566297 0.855683
0.665128 0.598003 0.852159
0.783863 0.629727 0.848922
0.900346 0.662002 0.846208
1.000000 0.671831 0.844923
0.069547 0.503214 0.864987
0.179865 0.516691 0.863290
0.298582 0.542728 0.860878
0.420246 0.581096 0.857813
0.541768 0.630174 0.853703
0.662369 0.668294 0.850127
0.780876 0.706415 0.846879
0.897137 0.744764 0.844071
0.999805 0.759063 0.842160
0.066312 0.584509 0.861956
0.177089 0.586447 0.860841
0.296264 0.600944 0.859011
0.418386 0.627773 0.856527
0.540436 0.665491 0.852971
0.661152 0.714501 0.848198
0.780384 0.758612 0.843388
0.897721 0.802682 0.838457
0.997356 0.822842 0.834335
0.063132 0.664394 0.858978
0.174541 0.654966 0.858151
0.294825 0.658005 0.855863
0.418495 0.673256 0.852243
0.542414 0.699400 0.847106
0.664875 0.736849 0.840974
0.785092 0.785848 0.834259
0.903301 0.835556 0.827497
0.995857 0.862679 0.821596
0.062407 0.742472 0.852296
0.175506 0.721675 0.850082
0.297443 0.713288 0.846473
0.422720 0.717059 0.841607
0.548196 0.731812 0.835366
0.672162 0.757938 0.828263
0.793834 0.795422 0.820598
0.912984 0.843870 0.812444
0.995295 0.878802 0.804941
0.065586 0.818726 0.839621
0.179858 0.792484 0.836165
0.303069 0.777190 0.831322
0.429676 0.772540 0.825303
0.556518 0.777743 0.818169
0.681874 0.792923 0.810317
0.805005 0.817880 0.801935
0.925595 0.851968 0.793007
0.995336 0.879798 0.784622
0.094751 0.194748 0.979003
0.204052 0.209717 0.978190
0.322105 0.225886 0.977328
0.443520 0.242519 0.976463
0.565228 0.259196 0.975620
0.685563 0.273098 0.973780
0.803766 0.286329 0.971835
0.919674 0.299311 0.969972
1.000000 0.311385 0.969120
0.088461 0.270378 0.979695
0.196326 0.320475 0.977581
0.314087 0.341747 0.976596
0.435182 0.363628 0.975620
0.556541 0.385566 0.974689
0.676486 0.404871 0.972879
0.794224 0.423222 0.970953
0.909474 0.441228 0.969272
1.000000 0.458066 0.967823
0.081315 0.352071 0.980721
0.189425 0.391964 0.979121
0.305810 0.443261 0.977143
0.426375 0.470378 0.976224
0.546772 0.497547 0.975692
0.667783 0.522325 0.972756
0.786801 0.545788 0.969429
0.903563 0.568806 0.966165
1.000000 0.590017 0.963748
0.073014 0.436085 0.982531
0.181438 0.465474 0.981412
0.299608 0.506329 0.978743
0.420785 0.558321 0.975612
0.543044 0.590661 0.973153
0.663963 0.620059 0.969686
0.782782 0.648580 0.966133
0.899349 0.677073 0.962852
1.000000 0.703118 0.960433
0.068451 0.520415 0.981359
0.178572 0.539354 0.979619
0.297149 0.569728 0.977356
0.418732 0.610569 0.974363
0.540232 0.661323 0.970670
0.660948 0.696262 0.967130
0.779569 0.730465 0.963599
0.895984 0.764603 0.960306
0.997949 0.795188 0.957171
0.065215 0.603480 0.979036
0.175738 0.611805 0.977599
0.294716 0.631266 0.975518
0.416700 0.661574 0.972859
0.538790 0.702191 0.969381
0.659631 0.751349 0.964187
0.779131 0.790815 0.958935
0.896720 0.830165 0.953515
0.995320 0.863666 0.948528
0.062045 0.683363 0.976042
0.173303 0.681717 0.974573
0.293470 0.691116 0.971750
0.417070 0.711246 0.967685
0.540970 0.741590 0.962505
0.663462 0.780528 0.955897
0.783756 0.829167 0.948588
0.902229 0.873674 0.941473
0.993642 0.908190 0.935080
0.061782 0.761386 0.968636
0.174618 0.749770 0.965796
0.296353 0.749148 0.961627
0.421485 0.759211 0.956277
0.546871 0.779446 0.949890
0.670798 0.808332 0.942195
0.792482 0.847050 0.933944
0.911753 0.895623 0.925343
0.992901 0.928978 0.917770
0.065306 0.837597 0.955419
0.179479 0.816131 0.951578
0.302595 0.805608 0.946343
0.429110 0.805724 0.939932
0.555856 0.815877 0.932483
0.681114 0.835032 0.923934
0.804094 0.863988 0.914886
0.924630 0.902636 0.905489
0.993087 0.926278 0.897156
