flutter_app/assets/lut/cameras/inst_sq.cube
TITLE "Instax Square"
# DAZZ Camera LUT - Instax Square
# Generated for DAZZ retro camera app
LUT_3D_SIZE 33
DOMAIN_MIN 0.0 0.0 0.0
DOMAIN_MAX 1.0 1.0 1.0
0.187995 0.141464 0.107253
0.210801 0.141276 0.107065
0.234881 0.141078 0.106867
0.259767 0.140872 0.106662
0.285252 0.140662 0.106451
0.311216 0.140448 0.106237
0.337581 0.140231 0.106020
0.365863 0.139998 0.105787
0.395550 0.139753 0.105542
0.425535 0.139506 0.105295
0.455791 0.139256 0.105045
0.486294 0.139005 0.104794
0.517024 0.138752 0.104541
0.547966 0.138496 0.104286
0.579105 0.138240 0.104029
0.610430 0.137982 0.103771
0.641928 0.137722 0.103511
0.673590 0.137461 0.103250
0.705409 0.137198 0.102988
0.737251 0.136936 0.102725
0.765828 0.136700 0.102489
0.794525 0.136464 0.102253
0.823337 0.136226 0.102015
0.852260 0.135988 0.101777
0.881289 0.135748 0.101538
0.910420 0.135508 0.101297
0.939650 0.135267 0.101056
0.968976 0.135026 0.100815
0.979803 0.134936 0.100725
0.979803 0.134936 0.100725
0.979803 0.134936 0.100725
0.979803 0.134936 0.100725
0.979803 0.134936 0.100725
0.187339 0.164643 0.106598
0.210145 0.164455 0.106410
0.234225 0.164256 0.106211
0.259111 0.164051 0.106006
0.284596 0.163841 0.105796
0.310560 0.163627 0.105582
0.336925 0.163410 0.105364
0.365207 0.163177 0.105131
0.394894 0.162932 0.104886
0.424879 0.162685 0.104639
0.455135 0.162435 0.104390
0.485638 0.162184 0.104138
0.516369 0.161930 0.103885
0.547311 0.161675 0.103630
0.578450 0.161419 0.103373
0.609774 0.161160 0.103115
0.641272 0.160901 0.102855
0.672935 0.160640 0.102594
0.704753 0.160377 0.102332
0.736596 0.160115 0.102069
0.765172 0.159879 0.101834
0.793869 0.159643 0.101597
0.822681 0.159405 0.101360
0.851604 0.159167 0.101121
0.880633 0.158927 0.100882
0.909765 0.158687 0.100642
0.938995 0.158446 0.100401
0.968320 0.158204 0.100159
0.979148 0.158115 0.100070
0.979148 0.158115 0.100070
0.979148 0.158115 0.100070
0.979148 0.158115 0.100070
0.979148 0.158115 0.100070
0.186672 0.188233 0.105930
0.209478 0.188045 0.105742
0.233558 0.187846 0.105544
0.258444 0.187641 0.105339
0.283929 0.187431 0.105129
0.309893 0.187217 0.104915
0.336258 0.187000 0.104697
0.364540 0.186766 0.104464
0.394227 0.186522 0.104219
0.424212 0.186275 0.103972
0.454468 0.186025 0.103723
0.484971 0.185774 0.103471
0.515701 0.185520 0.103218
0.546643 0.185265 0.102963
0.577783 0.185008 0.102706
0.609107 0.184750 0.102448
0.640605 0.184490 0.102188
0.672267 0.184229 0.101927
0.704086 0.183967 0.101665
0.735929 0.183705 0.101402
0.764505 0.183469 0.101167
0.793202 0.183232 0.100930
0.822014 0.182995 0.100692
0.850937 0.182756 0.100454
0.879966 0.182517 0.100215
0.909097 0.182277 0.099974
0.938327 0.182036 0.099733
0.967653 0.181794 0.099492
0.978481 0.181705 0.099402
0.978481 0.181705 0.099402
0.978481 0.181705 0.099402
0.978481 0.181705 0.099402
0.978481 0.181705 0.099402
0.185999 0.212039 0.105257
0.208804 0.211851 0.105069
0.232885 0.211653 0.104870
0.257771 0.211447 0.104665
0.283255 0.211237 0.104455
0.309220 0.211023 0.104241
0.335585 0.210806 0.104024
0.363867 0.210573 0.103791
0.393553 0.210328 0.103546
0.423539 0.210081 0.103299
0.453794 0.209831 0.103049
0.484297 0.209580 0.102798
0.515028 0.209326 0.102544
0.545970 0.209071 0.102289
0.577109 0.208815 0.102033
0.608433 0.208556 0.101774
0.639931 0.208297 0.101515
0.671594 0.208036 0.101254
0.703413 0.207773 0.100991
0.735255 0.207511 0.100729
0.763832 0.207275 0.100493
0.792529 0.207039 0.100257
0.821341 0.206801 0.100019
0.850263 0.206563 0.099781
0.879292 0.206323 0.099541
0.908424 0.206083 0.099301
0.937654 0.205842 0.099060
0.966980 0.205600 0.098818
0.977807 0.205511 0.098729
0.977807 0.205511 0.098729
0.977807 0.205511 0.098729
0.977807 0.205511 0.098729
0.977807 0.205511 0.098729
0.185321 0.235995 0.104579
0.208127 0.235807 0.104391
0.232207 0.235608 0.104193
0.257093 0.235403 0.103988
0.282578 0.235193 0.103778
0.308542 0.234979 0.103564
0.334907 0.234762 0.103346
0.363189 0.234528 0.103113
0.392876 0.234284 0.102868
0.422861 0.234036 0.102621
0.453117 0.233787 0.102372
0.483620 0.233536 0.102120
0.514350 0.233282 0.101867
0.545292 0.233027 0.101612
0.576432 0.232770 0.101355
0.607756 0.232512 0.101097
0.639254 0.232252 0.100837
0.670916 0.231991 0.100576
0.702735 0.231729 0.100314
0.734578 0.231467 0.100051
0.763154 0.231231 0.099816
0.791851 0.230994 0.099579
0.820663 0.230757 0.099341
0.849586 0.230518 0.099103
0.878615 0.230279 0.098864
0.907746 0.230039 0.098623
0.936976 0.229798 0.098382
0.966302 0.229556 0.098141
0.977130 0.229467 0.098051
0.977130 0.229467 0.098051
0.977130 0.229467 0.098051
0.977130 0.229467 0.098051
0.977130 0.229467 0.098051
0.184640 0.260065 0.103899
0.207446 0.259877 0.103711
0.231526 0.259679 0.103512
0.256412 0.259474 0.103307
0.281897 0.259263 0.103097
0.307861 0.259049 0.102883
0.334226 0.258832 0.102665
0.362508 0.258599 0.102432
0.392195 0.258354 0.102187
0.422180 0.258107 0.101940
0.452436 0.257857 0.101691
0.482939 0.257606 0.101439
0.513670 0.257353 0.101186
0.544612 0.257098 0.100931
0.575751 0.256841 0.100674
0.607075 0.256583 0.100416
0.638573 0.256323 0.100156
0.670236 0.256062 0.099895
0.702054 0.255800 0.099633
0.733897 0.255537 0.099370
0.762473 0.255301 0.099135
0.791170 0.255065 0.098898
0.819982 0.254827 0.098661
0.848905 0.254589 0.098422
0.877934 0.254350 0.098183
0.907065 0.254109 0.097943
0.936296 0.253868 0.097702
0.965621 0.253627 0.097460
0.976449 0.253537 0.097371
0.976449 0.253537 0.097371
0.976449 0.253537 0.097371
0.976449 0.253537 0.097371
0.976449 0.253537 0.097371
0.183957 0.284229 0.103215
0.206763 0.284041 0.103027
0.230843 0.283842 0.102829
0.255729 0.283637 0.102623
0.281214 0.283427 0.102413
0.307178 0.283213 0.102199
0.333543 0.282996 0.101982
0.361825 0.282763 0.101749
0.391511 0.282518 0.101504
0.421497 0.282271 0.101257
0.451752 0.282021 0.101007
0.482255 0.281770 0.100756
0.512986 0.281516 0.100502
0.543928 0.281261 0.100247
0.575067 0.281004 0.099991
0.606391 0.280746 0.099732
0.637889 0.280487 0.099473
0.669552 0.280226 0.099212
0.701371 0.279963 0.098949
0.733213 0.279701 0.098687
0.761790 0.279465 0.098451
0.790487 0.279229 0.098215
0.819299 0.278991 0.097977
0.848221 0.278753 0.097739
0.877250 0.278513 0.097499
0.906382 0.278273 0.097259
0.935612 0.278032 0.097018
0.964938 0.277790 0.096776
0.975765 0.277701 0.096687
0.975765 0.277701 0.096687
0.975765 0.277701 0.096687
0.975765 0.277701 0.096687
0.975765 0.277701 0.096687
0.183271 0.308471 0.102529
0.206077 0.308283 0.102341
0.230157 0.308085 0.102143
0.255043 0.307879 0.101938
0.280528 0.307669 0.101728
0.306492 0.307455 0.101513
0.332857 0.307238 0.101296
0.361139 0.307005 0.101063
0.390826 0.306760 0.100818
0.420811 0.306513 0.100571
0.451067 0.306263 0.100322
0.481570 0.306012 0.100070
0.512300 0.305759 0.099817
0.543242 0.305503 0.099562
0.574382 0.305247 0.099305
0.605706 0.304989 0.099047
0.637204 0.304729 0.098787
0.668866 0.304468 0.098526
0.700685 0.304205 0.098264
0.732528 0.303943 0.098001
0.761104 0.303707 0.097765
0.789801 0.303471 0.097529
0.818613 0.303233 0.097291
0.847536 0.302995 0.097053
0.876565 0.302755 0.096814
0.905696 0.302515 0.096573
0.934926 0.302274 0.096332
0.964252 0.302033 0.096091
0.975080 0.301943 0.096001
0.975080 0.301943 0.096001
0.975080 0.301943 0.096001
0.975080 0.301943 0.096001
0.975080 0.301943 0.096001
0.182583 0.332781 0.101842
0.205389 0.332593 0.101654
0.229469 0.332395 0.101455
0.254355 0.332190 0.101250
0.279840 0.331980 0.101040
0.305804 0.331766 0.100826
0.332169 0.331548 0.100608
0.360451 0.331315 0.100375
0.390138 0.331070 0.100131
0.420123 0.330823 0.099883
0.450379 0.330574 0.099634
0.480882 0.330322 0.099382
0.511613 0.330069 0.099129
0.542555 0.329814 0.098874
0.573694 0.329557 0.098617
0.605018 0.329299 0.098359
0.636516 0.329039 0.098099
0.668179 0.328778 0.097838
0.699997 0.328516 0.097576
0.731840 0.328253 0.097313
0.760416 0.328018 0.097078
0.789113 0.327781 0.096841
0.817925 0.327543 0.096604
0.846848 0.327305 0.096365
0.875877 0.327066 0.096126
0.905009 0.326826 0.095886
0.934239 0.326585 0.095645
0.963564 0.326343 0.095403
0.974392 0.326254 0.095314
0.974392 0.326254 0.095314
0.974392 0.326254 0.095314
0.974392 0.326254 0.095314
0.974392 0.326254 0.095314
0.181857 0.358453 0.101116
0.204663 0.358265 0.100928
0.228743 0.358066 0.100729
0.253629 0.357861 0.100524
0.279114 0.357651 0.100314
0.305078 0.357437 0.100100
0.331443 0.357220 0.099882
0.359725 0.356986 0.099649
0.389412 0.356742 0.099404
0.419397 0.356494 0.099157
0.449653 0.356245 0.098908
0.480156 0.355993 0.098656
0.510887 0.355740 0.098403
0.541829 0.355485 0.098148
0.572968 0.355228 0.097891
0.604292 0.354970 0.097633
0.635790 0.354710 0.097373
0.667453 0.354449 0.097112
0.699271 0.354187 0.096850
0.731114 0.353925 0.096587
0.759690 0.353689 0.096352
0.788387 0.353452 0.096115
0.817199 0.353215 0.095878
0.846122 0.352976 0.095639
0.875151 0.352737 0.095400
0.904282 0.352497 0.095160
0.933513 0.352256 0.094919
0.962838 0.352014 0.094677
0.973666 0.351925 0.094588
0.973666 0.351925 0.094588
0.973666 0.351925 0.094588
0.973666 0.351925 0.094588
0.973666 0.351925 0.094588
0.181098 0.385292 0.100356
0.203904 0.385104 0.100168
0.227984 0.384905 0.099970
0.252870 0.384700 0.099765
0.278355 0.384490 0.099555
0.304319 0.384276 0.099341
0.330684 0.384059 0.099123
0.358966 0.383826 0.098890
0.388653 0.383581 0.098645
0.418638 0.383334 0.098398
0.448894 0.383084 0.098149
0.479397 0.382833 0.097897
0.510127 0.382579 0.097644
0.541069 0.382324 0.097389
0.572209 0.382068 0.097132
0.603533 0.381809 0.096874
0.635031 0.381550 0.096614
0.666693 0.381289 0.096353
0.698512 0.381026 0.096091
0.730355 0.380764 0.095828
0.758931 0.380528 0.095593
0.787628 0.380292 0.095356
0.816440 0.380054 0.095118
0.845363 0.379816 0.094880
0.874392 0.379576 0.094641
0.903523 0.379336 0.094400
0.932753 0.379095 0.094160
0.962079 0.378853 0.093918
0.972907 0.378764 0.093828
0.972907 0.378764 0.093828
0.972907 0.378764 0.093828
0.972907 0.378764 0.093828
0.972907 0.378764 0.093828
0.180337 0.412185 0.099596
0.203143 0.411997 0.099408
0.227223 0.411798 0.099209
0.252109 0.411593 0.099004
0.277594 0.411383 0.098794
0.303558 0.411169 0.098580
0.329923 0.410951 0.098362
0.358205 0.410718 0.098129
0.387892 0.410473 0.097885
0.417877 0.410226 0.097637
0.448133 0.409977 0.097388
0.478636 0.409725 0.097136
0.509367 0.409472 0.096883
0.540309 0.409217 0.096628
0.571448 0.408960 0.096371
0.602772 0.408702 0.096113
0.634270 0.408442 0.095853
0.665933 0.408181 0.095592
0.697751 0.407919 0.095330
0.729594 0.407656 0.095067
0.758170 0.407421 0.094832
0.786867 0.407184 0.094595
0.815679 0.406947 0.094358
0.844602 0.406708 0.094119
0.873631 0.406469 0.093880
0.902763 0.406229 0.093640
0.931993 0.405988 0.093399
0.961318 0.405746 0.093157
0.972146 0.405657 0.093068
0.972146 0.405657 0.093068
0.972146 0.405657 0.093068
0.972146 0.405657 0.093068
0.972146 0.405657 0.093068
0.179575 0.439126 0.098834
0.202381 0.438938 0.098646
0.226461 0.438739 0.098447
0.251347 0.438534 0.098242
0.276832 0.438324 0.098032
0.302796 0.438110 0.097818
0.329161 0.437893 0.097600
0.357443 0.437659 0.097367
0.387130 0.437415 0.097123
0.417115 0.437167 0.096875
0.447371 0.436918 0.096626
0.477874 0.436666 0.096374
0.508605 0.436413 0.096121
0.539547 0.436158 0.095866
0.570686 0.435901 0.095609
0.602010 0.435643 0.095351
0.633508 0.435383 0.095091
0.665171 0.435122 0.094830
0.696989 0.434860 0.094568
0.728832 0.434597 0.094305
0.757408 0.434362 0.094070
0.786105 0.434125 0.093833
0.814917 0.433888 0.093596
0.843840 0.433649 0.093357
0.872869 0.433410 0.093118
0.902001 0.433170 0.092878
0.931231 0.432929 0.092637
0.960556 0.432687 0.092395
0.971384 0.432598 0.092306
0.971384 0.432598 0.092306
0.971384 0.432598 0.092306
0.971384 0.432598 0.092306
0.971384 0.432598 0.092306
0.178812 0.466112 0.098070
0.201618 0.465924 0.097882
0.225698 0.465725 0.097684
0.250584 0.465520 0.097479
0.276069 0.465310 0.097269
0.302033 0.465096 0.097054
0.328398 0.464878 0.096837
0.356680 0.464645 0.096604
0.386367 0.464401 0.096359
0.416352 0.464153 0.096112
0.446608 0.463904 0.095863
0.477111 0.463652 0.095611
0.507841 0.463399 0.095358
0.538783 0.463144 0.095103
0.569923 0.462887 0.094846
0.601247 0.462629 0.094588
0.632745 0.462369 0.094328
0.664407 0.462108 0.094067
0.696226 0.461846 0.093805
0.728069 0.461583 0.093542
0.756645 0.461348 0.093307
0.785342 0.461111 0.093070
0.814154 0.460874 0.092832
0.843077 0.460635 0.092594
0.872106 0.460396 0.092355
0.901237 0.460156 0.092114
0.930467 0.459915 0.091873
0.959793 0.459673 0.091632
0.970621 0.459584 0.091542
0.970621 0.459584 0.091542
0.970621 0.459584 0.091542
0.970621 0.459584 0.091542
0.970621 0.459584 0.091542
0.178048 0.493139 0.097306
0.200853 0.492951 0.097118
0.224933 0.492752 0.096919
0.249820 0.492547 0.096714
0.275304 0.492337 0.096504
0.301268 0.492123 0.096290
0.327634 0.491906 0.096073
0.355916 0.491673 0.095839
0.385602 0.491428 0.095595
0.415587 0.491181 0.095348
0.445843 0.490931 0.095098
0.476346 0.490680 0.094847
0.507077 0.490426 0.094593
0.538019 0.490171 0.094338
0.569158 0.489915 0.094081
0.600482 0.489656 0.093823
0.631980 0.489397 0.093564
0.663643 0.489136 0.093302
0.695462 0.488873 0.093040
0.727304 0.488611 0.092778
0.755881 0.488375 0.092542
0.784577 0.488139 0.092305
0.813390 0.487901 0.092068
0.842312 0.487663 0.091829
0.871341 0.487423 0.091590
0.900473 0.487183 0.091350
0.929703 0.486942 0.091109
0.959029 0.486700 0.090867
0.969856 0.486611 0.090778
0.969856 0.486611 0.090778
0.969856 0.486611 0.090778
0.969856 0.486611 0.090778
0.969856 0.486611 0.090778
0.177282 0.520205 0.096540
0.200088 0.520017 0.096352
0.224168 0.519818 0.096154
0.249054 0.519613 0.095949
0.274539 0.519403 0.095738
0.300503 0.519189 0.095524
0.326868 0.518972 0.095307
0.355150 0.518739 0.095074
0.384837 0.518494 0.094829
0.414822 0.518247 0.094582
0.445078 0.517997 0.094332
0.475581 0.517746 0.094081
0.506311 0.517492 0.093828
0.537253 0.517237 0.093573
0.568393 0.516981 0.093316
0.599717 0.516722 0.093058
0.631215 0.516463 0.092798
0.662877 0.516202 0.092537
0.694696 0.515939 0.092275
0.726538 0.515677 0.092012
0.755115 0.515441 0.091776
0.783812 0.515205 0.091540
0.812624 0.514967 0.091302
0.841547 0.514729 0.091064
0.870576 0.514489 0.090825
0.899707 0.514249 0.090584
0.928937 0.514008 0.090343
0.958263 0.513766 0.090102
0.969090 0.513677 0.090012
0.969090 0.513677 0.090012
0.969090 0.513677 0.090012
0.969090 0.513677 0.090012
0.969090 0.513677 0.090012
0.176515 0.547307 0.095774
0.199321 0.547119 0.095586
0.223401 0.546921 0.095387
0.248287 0.546715 0.095182
0.273772 0.546505 0.094972
0.299736 0.546291 0.094758
0.326101 0.546074 0.094540
0.354383 0.545841 0.094307
0.384070 0.545596 0.094063
0.414055 0.545349 0.093815
0.444311 0.545099 0.093566
0.474814 0.544848 0.093314
0.505545 0.544594 0.093061
0.536487 0.544339 0.092806
0.567626 0.544083 0.092549
0.598950 0.543824 0.092291
0.630448 0.543565 0.092031
0.662111 0.543304 0.091770
0.693929 0.543041 0.091508
0.725772 0.542779 0.091245
0.754348 0.542543 0.091010
0.783045 0.542307 0.090773
0.811857 0.542069 0.090536
0.840780 0.541831 0.090297
0.869809 0.541591 0.090058
0.898941 0.541351 0.089818
0.928171 0.541110 0.089577
0.957496 0.540868 0.089335
0.968324 0.540779 0.089246
0.968324 0.540779 0.089246
0.968324 0.540779 0.089246
0.968324 0.540779 0.089246
0.968324 0.540779 0.089246
0.175748 0.574443 0.095006
0.198554 0.574255 0.094818
0.222634 0.574057 0.094620
0.247520 0.573851 0.094414
0.273005 0.573641 0.094204
0.298969 0.573427 0.093990
0.325334 0.573210 0.093773
0.353616 0.572977 0.093540
0.383302 0.572732 0.093295
0.413288 0.572485 0.093048
0.443543 0.572235 0.092798
0.474046 0.571984 0.092547
0.504777 0.571730 0.092293
0.535719 0.571475 0.092038
0.566858 0.571219 0.091782
0.598182 0.570960 0.091523
0.629681 0.570701 0.091264
0.661343 0.570440 0.091003
0.693162 0.570177 0.090740
0.725004 0.569915 0.090478
0.753581 0.569679 0.090242
0.782278 0.569443 0.090006
0.811090 0.569205 0.089768
0.840013 0.568967 0.089530
0.869042 0.568727 0.089290
0.898173 0.568487 0.089050
0.927403 0.568246 0.088809
0.956729 0.568004 0.088567
0.967556 0.567915 0.088478
0.967556 0.567915 0.088478
0.967556 0.567915 0.088478
0.967556 0.567915 0.088478
0.967556 0.567915 0.088478
0.174979 0.601611 0.094238
0.197785 0.601423 0.094050
0.221865 0.601225 0.093851
0.246751 0.601019 0.093646
0.272236 0.600809 0.093436
0.298200 0.600595 0.093222
0.324565 0.600378 0.093004
0.352847 0.600145 0.092771
0.382534 0.599900 0.092527
0.412519 0.599653 0.092279
0.442775 0.599403 0.092030
0.473278 0.599152 0.091778
0.504009 0.598899 0.091525
0.534951 0.598643 0.091270
0.566090 0.598387 0.091013
0.597414 0.598128 0.090755
0.628912 0.597869 0.090495
0.660575 0.597608 0.090234
0.692393 0.597345 0.089972
0.724236 0.597083 0.089709
0.752812 0.596847 0.089474
0.781509 0.596611 0.089237
0.810321 0.596373 0.089000
0.839244 0.596135 0.088761
0.868273 0.595895 0.088522
0.897405 0.595655 0.088282
0.926635 0.595414 0.088041
0.955960 0.595173 0.087799
0.966788 0.595083 0.087710
0.966788 0.595083 0.087710
0.966788 0.595083 0.087710
0.966788 0.595083 0.087710
0.966788 0.595083 0.087710
0.174210 0.628810 0.093468
0.197016 0.628622 0.093280
0.221096 0.628423 0.093082
0.245982 0.628218 0.092877
0.271467 0.628008 0.092667
0.297431 0.627794 0.092452
0.323796 0.627576 0.092235
0.352078 0.627343 0.092002
0.381765 0.627098 0.091757
0.411750 0.626851 0.091510
0.442006 0.626602 0.091261
0.472509 0.626350 0.091009
0.503239 0.626097 0.090756
0.534181 0.625842 0.090501
0.565321 0.625585 0.090244
0.596645 0.625327 0.089986
0.628143 0.625067 0.089726
0.659805 0.624806 0.089465
0.691624 0.624544 0.089203
0.723467 0.624281 0.088940
0.752043 0.624046 0.088704
0.780740 0.623809 0.088468
0.809552 0.623572 0.088230
0.838475 0.623333 0.087992
0.867504 0.623094 0.087753
0.896635 0.622854 0.087512
0.925865 0.622613 0.087271
0.955191 0.622371 0.087030
0.966019 0.622282 0.086940
0.966019 0.622282 0.086940
0.966019 0.622282 0.086940
0.966019 0.622282 0.086940
0.966019 0.622282 0.086940
0.173440 0.656037 0.092698
0.196246 0.655849 0.092510
0.220326 0.655650 0.092312
0.245212 0.655445 0.092106
0.270697 0.655235 0.091896
0.296661 0.655021 0.091682
0.323026 0.654803 0.091465
0.351308 0.654570 0.091232
0.380994 0.654326 0.090987
0.410980 0.654078 0.090740
0.441236 0.653829 0.090490
0.471738 0.653577 0.090239
0.502469 0.653324 0.089986
0.533411 0.653069 0.089730
0.564550 0.652812 0.089474
0.595874 0.652554 0.089215
0.627373 0.652294 0.088956
0.659035 0.652033 0.088695
0.690854 0.651771 0.088432
0.722696 0.651508 0.088170
0.751273 0.651273 0.087934
0.779970 0.651036 0.087698
0.808782 0.650799 0.087460
0.837705 0.650560 0.087222
0.866734 0.650321 0.086982
0.895865 0.650081 0.086742
0.925095 0.649840 0.086501
0.954421 0.649598 0.086260
0.965248 0.649509 0.086170
0.965248 0.649509 0.086170
0.965248 0.649509 0.086170
0.965248 0.649509 0.086170
0.965248 0.649509 0.086170
0.172669 0.683291 0.091927
0.195475 0.683103 0.091739
0.219555 0.682905 0.091541
0.244441 0.682700 0.091336
0.269926 0.682489 0.091125
0.295890 0.682275 0.090911
0.322255 0.682058 0.090694
0.350537 0.681825 0.090461
0.380224 0.681580 0.090216
0.410209 0.681333 0.089969
0.440465 0.681083 0.089719
0.470968 0.680832 0.089468
0.501698 0.680579 0.089215
0.532640 0.680324 0.088960
0.563779 0.680067 0.088703
0.595104 0.679809 0.088445
0.626602 0.679549 0.088185
0.658264 0.679288 0.087924
0.690083 0.679026 0.087662
0.721925 0.678763 0.087399
0.750502 0.678527 0.087163
0.779199 0.678291 0.086927
0.808011 0.678053 0.086689
0.836934 0.677815 0.086451
0.865963 0.677576 0.086212
0.895094 0.677335 0.085971
0.924324 0.677094 0.085730
0.953650 0.676853 0.085489
0.964477 0.676763 0.085399
0.964477 0.676763 0.085399
0.964477 0.676763 0.085399
0.964477 0.676763 0.085399
0.964477 0.676763 0.085399
0.171897 0.710572 0.091156
0.194703 0.710384 0.090968
0.218783 0.710185 0.090769
0.243669 0.709980 0.090564
0.269154 0.709770 0.090354
0.295118 0.709556 0.090140
0.321483 0.709339 0.089922
0.349765 0.709106 0.089689
0.379452 0.708861 0.089444
0.409437 0.708614 0.089197
0.439693 0.708364 0.088948
0.470196 0.708113 0.088696
0.500927 0.707859 0.088443
0.531869 0.707604 0.088188
0.563008 0.707347 0.087931
0.594332 0.707089 0.087673
0.625830 0.706830 0.087413
0.657493 0.706569 0.087152
0.689311 0.706306 0.086890
0.721154 0.706044 0.086627
0.749730 0.705808 0.086392
0.778427 0.705571 0.086155
0.807239 0.705334 0.085918
0.836162 0.705095 0.085679
0.865191 0.704856 0.085440
0.894322 0.704616 0.085200
0.923553 0.704375 0.084959
0.952878 0.704133 0.084717
0.963706 0.704044 0.084628
0.963706 0.704044 0.084628
0.963706 0.704044 0.084628
0.963706 0.704044 0.084628
0.963706 0.704044 0.084628
0.171167 0.736382 0.090426
0.193973 0.736194 0.090238
0.218053 0.735995 0.090039
0.242939 0.735790 0.089834
0.268424 0.735580 0.089624
0.294388 0.735366 0.089410
0.320753 0.735148 0.089192
0.349035 0.734915 0.088959
0.378722 0.734671 0.088714
0.408707 0.734423 0.088467
0.438963 0.734174 0.088218
0.469466 0.733922 0.087966
0.500197 0.733669 0.087713
0.531139 0.733414 0.087458
0.562278 0.733157 0.087201
0.593602 0.732899 0.086943
0.625100 0.732639 0.086683
0.656763 0.732378 0.086422
0.688581 0.732116 0.086160
0.720424 0.731853 0.085897
0.749000 0.731618 0.085662
0.777697 0.731381 0.085425
0.806509 0.731144 0.085188
0.835432 0.730905 0.084949
0.864461 0.730666 0.084710
0.893592 0.730426 0.084470
0.922823 0.730185 0.084229
0.952148 0.729943 0.083987
0.962976 0.729854 0.083898
0.962976 0.729854 0.083898
0.962976 0.729854 0.083898
0.962976 0.729854 0.083898
0.962976 0.729854 0.083898
0.170479 0.760705 0.089738
0.193285 0.760517 0.089550
0.217365 0.760318 0.089351
0.242251 0.760113 0.089146
0.267736 0.759903 0.088936
0.293700 0.759689 0.088722
0.320065 0.759472 0.088504
0.348347 0.759239 0.088271
0.378034 0.758994 0.088026
0.408019 0.758747 0.087779
0.438275 0.758497 0.087530
0.468778 0.758246 0.087278
0.499509 0.757992 0.087025
0.530451 0.757737 0.086770
0.561590 0.757481 0.086513
0.592914 0.757222 0.086255
0.624412 0.756963 0.085995
0.656075 0.756702 0.085734
0.687893 0.756439 0.085472
0.719736 0.756177 0.085209
0.748312 0.755941 0.084974
0.777009 0.755705 0.084737
0.805821 0.755467 0.084500
0.834744 0.755229 0.084261
0.863773 0.754989 0.084022
0.892904 0.754749 0.083782
0.922135 0.754508 0.083541
0.951460 0.754266 0.083299
0.962288 0.754177 0.083210
0.962288 0.754177 0.083210
0.962288 0.754177 0.083210
0.962288 0.754177 0.083210
0.962288 0.754177 0.083210
0.169791 0.785049 0.089049
0.192596 0.784861 0.088861
0.216676 0.784662 0.088662
0.241563 0.784457 0.088457
0.267047 0.784247 0.088247
0.293012 0.784033 0.088033
0.319377 0.783816 0.087816
0.347659 0.783582 0.087583
0.377345 0.783338 0.087338
0.407331 0.783090 0.087091
0.437586 0.782841 0.086841
0.468089 0.782589 0.086590
0.498820 0.782336 0.086336
0.529762 0.782081 0.086081
0.560901 0.781824 0.085825
0.592225 0.781566 0.085566
0.623723 0.781306 0.085307
0.655386 0.781045 0.085046
0.687205 0.780783 0.084783
0.719047 0.780521 0.084521
0.747624 0.780285 0.084285
0.776321 0.780048 0.084049
0.805133 0.779811 0.083811
0.834055 0.779572 0.083573
0.863084 0.779333 0.083333
0.892216 0.779093 0.083093
0.921446 0.778852 0.082852
0.950772 0.778610 0.082610
0.961599 0.778521 0.082521
0.961599 0.778521 0.082521
0.961599 0.778521 0.082521
0.961599 0.778521 0.082521
0.961599 0.778521 0.082521
0.169102 0.809412 0.088360
0.191907 0.809224 0.088172
0.215987 0.809026 0.087973
0.240874 0.808820 0.087768
0.266358 0.808610 0.087558
0.292322 0.808396 0.087344
0.318687 0.808179 0.087127
0.346970 0.807946 0.086893
0.376656 0.807701 0.086649
0.406641 0.807454 0.086401
0.436897 0.807204 0.086152
0.467400 0.806953 0.085901
0.498131 0.806700 0.085647
0.529073 0.806444 0.085392
0.560212 0.806188 0.085135
0.591536 0.805929 0.084877
0.623034 0.805670 0.084617
0.654697 0.805409 0.084356
0.686515 0.805146 0.084094
0.718358 0.804884 0.083832
0.746935 0.804648 0.083596
0.775631 0.804412 0.083359
0.804444 0.804174 0.083122
0.833366 0.803936 0.082883
0.862395 0.803696 0.082644
