flutter_app/assets/lut/cameras/inst_sqc_warm.cube
# Instax Square C - Warm Tone LUT
# Generated for DAZZ Retro Camera
# Style: Fujifilm Instax Square - warm highlight, warm shadow, soft contrast
LUT_3D_SIZE 33
0.092048 0.059717 0.033808
0.125766 0.059507 0.033604
0.158844 0.059301 0.033404
0.191322 0.059098 0.033208
0.223245 0.058899 0.033015
0.254654 0.058704 0.032826
0.285594 0.058511 0.032639
0.316105 0.058321 0.032454
0.346232 0.058133 0.032272
0.376017 0.057948 0.032092
0.405503 0.057764 0.031914
0.434254 0.057423 0.032059
0.462648 0.057035 0.032301
0.490875 0.056650 0.032542
0.518977 0.056267 0.032781
0.546995 0.055885 0.033020
0.574971 0.055503 0.033259
0.602947 0.055121 0.033497
0.630965 0.054739 0.033736
0.659066 0.054356 0.033976
0.687293 0.053971 0.034216
0.715688 0.053583 0.034458
0.744291 0.053193 0.034702
0.773146 0.052800 0.034948
0.802294 0.052402 0.035197
0.831776 0.052000 0.035448
0.861635 0.051592 0.035702
0.891912 0.051179 0.035961
0.922650 0.050760 0.036223
0.953889 0.050334 0.036489
0.985673 0.049900 0.036760
1.000000 0.049459 0.037036
1.000000 0.049009 0.037317
0.091320 0.091947 0.033123
0.125038 0.091737 0.032919
0.158116 0.091531 0.032719
0.190594 0.091328 0.032523
0.222517 0.091130 0.032330
0.253926 0.090934 0.032140
0.284866 0.090741 0.031953
0.315011 0.090429 0.032016
0.344493 0.090027 0.032267
0.373641 0.089629 0.032515
0.402495 0.089236 0.032761
0.431099 0.088845 0.033005
0.459493 0.088458 0.033247
0.487720 0.088073 0.033488
0.515822 0.087690 0.033728
0.543840 0.087307 0.033966
0.571816 0.086926 0.034205
0.599792 0.086544 0.034443
0.627810 0.086162 0.034682
0.655911 0.085778 0.034922
0.684138 0.085393 0.035163
0.712533 0.085006 0.035405
0.741136 0.084616 0.035648
0.769991 0.084222 0.035894
0.799138 0.083824 0.036143
0.828621 0.083422 0.036394
0.858480 0.083015 0.036649
0.888757 0.082602 0.036907
0.919494 0.082183 0.037169
0.950734 0.081756 0.037435
0.982518 0.081323 0.037706
1.000000 0.080881 0.037982
1.000000 0.080431 0.038264
0.090606 0.123564 0.032450
0.124324 0.123354 0.032247
0.157401 0.123148 0.032047
0.189802 0.122920 0.031903
0.221042 0.122494 0.032169
0.251779 0.122074 0.032431
0.282057 0.121661 0.032689
0.311916 0.121254 0.032944
0.341398 0.120852 0.033195
0.370545 0.120454 0.033444
0.399400 0.120060 0.033690
0.428004 0.119670 0.033934
0.456398 0.119283 0.034176
0.484625 0.118898 0.034416
0.512727 0.118514 0.034656
0.540745 0.118132 0.034895
0.568721 0.117750 0.035133
0.596697 0.117369 0.035372
0.624714 0.116987 0.035611
0.652816 0.116603 0.035850
0.681043 0.116218 0.036091
0.709437 0.115831 0.036333
0.738041 0.115441 0.036577
0.766896 0.115047 0.036823
0.796043 0.114649 0.037071
0.825526 0.114247 0.037323
0.855384 0.113840 0.037577
0.885662 0.113427 0.037835
0.916399 0.113007 0.038097
0.947639 0.112581 0.038364
0.979423 0.112148 0.038635
1.000000 0.111706 0.038911
1.000000 0.111256 0.039192
0.089613 0.154512 0.031986
0.122610 0.154062 0.032268
0.154979 0.153620 0.032543
0.186763 0.153187 0.032814
0.218003 0.152761 0.033081
0.248740 0.152341 0.033343
0.279018 0.151928 0.033601
0.308876 0.151521 0.033855
0.338359 0.151119 0.034107
0.367506 0.150721 0.034355
0.396361 0.150327 0.034601
0.424965 0.149937 0.034845
0.453359 0.149550 0.035087
0.481586 0.149165 0.035328
0.509688 0.148781 0.035567
0.537705 0.148399 0.035806
0.565681 0.148017 0.036045
0.593657 0.147636 0.036283
0.621675 0.147254 0.036522
0.649777 0.146870 0.036762
0.678004 0.146485 0.037002
0.706398 0.146098 0.037244
0.735002 0.145708 0.037488
0.763857 0.145314 0.037734
0.793004 0.144916 0.037983
0.822486 0.144514 0.038234
0.852345 0.144107 0.038489
0.882623 0.143694 0.038747
0.913360 0.143274 0.039009
0.944600 0.142848 0.039275
0.976383 0.142415 0.039546
1.000000 0.141973 0.039822
1.000000 0.141523 0.040103
0.086626 0.184261 0.032882
0.119623 0.183811 0.033163
0.151992 0.183369 0.033439
0.183776 0.182936 0.033710
0.215016 0.182510 0.033977
0.245753 0.182090 0.034239
0.276031 0.181677 0.034497
0.305889 0.181270 0.034751
0.335372 0.180868 0.035003
0.364519 0.180470 0.035251
0.393374 0.180076 0.035497
0.421978 0.179686 0.035741
0.450372 0.179299 0.035983
0.478599 0.178914 0.036224
0.506701 0.178530 0.036463
0.534718 0.178148 0.036702
0.562694 0.177766 0.036941
0.590670 0.177385 0.037179
0.618688 0.177003 0.037418
0.646790 0.176619 0.037658
0.675017 0.176234 0.037898
0.703411 0.175847 0.038140
0.732015 0.175457 0.038384
0.760869 0.175063 0.038630
0.790017 0.174665 0.038879
0.819499 0.174263 0.039130
0.849358 0.173856 0.039385
0.879636 0.173443 0.039643
0.910373 0.173023 0.039905
0.941613 0.172597 0.040171
0.973396 0.172164 0.040442
1.000000 0.171722 0.040718
1.000000 0.171272 0.040999
0.083687 0.213532 0.033764
0.116684 0.213082 0.034045
0.149053 0.212640 0.034321
0.180837 0.212207 0.034592
0.212077 0.211780 0.034858
0.242814 0.211361 0.035120
0.273091 0.210948 0.035378
0.302950 0.210541 0.035633
0.332433 0.210138 0.035884
0.361580 0.209741 0.036133
0.390435 0.209347 0.036379
0.419038 0.208957 0.036623
0.447433 0.208570 0.036865
0.475660 0.208185 0.037105
0.503761 0.207801 0.037345
0.531779 0.207419 0.037584
0.559755 0.207037 0.037822
0.587731 0.206656 0.038061
0.615749 0.206273 0.038300
0.643851 0.205890 0.038539
0.672078 0.205505 0.038780
0.700472 0.205118 0.039022
0.729076 0.204727 0.039266
0.757930 0.204334 0.039512
0.787078 0.203936 0.039760
0.816560 0.203534 0.040012
0.846419 0.203127 0.040266
0.876696 0.202713 0.040524
0.907434 0.202294 0.040786
0.938674 0.201868 0.041053
0.970457 0.201434 0.041324
1.000000 0.200993 0.041600
1.000000 0.200543 0.041881
0.080792 0.242364 0.034632
0.113789 0.241914 0.034913
0.146158 0.241473 0.035189
0.177942 0.241039 0.035460
0.209181 0.240613 0.035727
0.239919 0.240194 0.035989
0.270196 0.239781 0.036247
0.300055 0.239373 0.036501
0.329538 0.238971 0.036753
0.358685 0.238573 0.037001
0.387540 0.238180 0.037247
0.416143 0.237789 0.037491
0.444538 0.237402 0.037733
0.472765 0.237017 0.037974
0.500866 0.236634 0.038213
0.528884 0.236251 0.038452
0.556860 0.235870 0.038691
0.584836 0.235488 0.038929
0.612854 0.235106 0.039168
0.640956 0.234723 0.039408
0.669183 0.234337 0.039648
0.697577 0.233950 0.039890
0.726181 0.233560 0.040134
0.755035 0.233166 0.040380
0.784183 0.232769 0.040629
0.813665 0.232366 0.040880
0.843524 0.231959 0.041134
0.873801 0.231546 0.041393
0.904539 0.231127 0.041655
0.935779 0.230701 0.041921
0.967562 0.230267 0.042192
0.999932 0.229825 0.042468
1.000000 0.229375 0.042749
0.077937 0.270799 0.035488
0.110934 0.270348 0.035770
0.143303 0.269907 0.036046
0.175087 0.269473 0.036317
0.206326 0.269047 0.036583
0.237064 0.268628 0.036845
0.267341 0.268215 0.037103
0.297200 0.267807 0.037358
0.326682 0.267405 0.037609
0.355830 0.267007 0.037857
0.384685 0.266614 0.038103
0.413288 0.266224 0.038347
0.441683 0.265836 0.038589
0.469910 0.265451 0.038830
0.498011 0.265068 0.039070
0.526029 0.264686 0.039308
0.554005 0.264304 0.039547
0.581981 0.263922 0.039785
0.609999 0.263540 0.040024
0.638100 0.263157 0.040264
0.666328 0.262772 0.040505
0.694722 0.262384 0.040747
0.723326 0.261994 0.040990
0.752180 0.261600 0.041236
0.781328 0.261203 0.041485
0.810810 0.260801 0.041736
0.840669 0.260393 0.041991
0.870946 0.259980 0.042249
0.901684 0.259561 0.042511
0.932924 0.259135 0.042777
0.964707 0.258701 0.043048
0.997077 0.258259 0.043324
1.000000 0.257809 0.043606
0.075118 0.298874 0.036334
0.108115 0.298424 0.036615
0.140484 0.297982 0.036891
0.172268 0.297549 0.037162
0.203507 0.297122 0.037428
0.234245 0.296703 0.037690
0.264522 0.296290 0.037949
0.294381 0.295883 0.038203
0.323863 0.295481 0.038455
0.353011 0.295083 0.038703
0.381866 0.294689 0.038949
0.410469 0.294299 0.039193
0.438864 0.293912 0.039435
0.467091 0.293527 0.039676
0.495192 0.293143 0.039915
0.523210 0.292761 0.040154
0.551186 0.292379 0.040392
0.579162 0.291998 0.040631
0.607180 0.291615 0.040870
0.635281 0.291232 0.041109
0.663508 0.290847 0.041350
0.691903 0.290460 0.041592
0.720507 0.290069 0.041836
0.749361 0.289676 0.042082
0.778509 0.289278 0.042330
0.807991 0.288876 0.042582
0.837850 0.288469 0.042836
0.868127 0.288056 0.043094
0.898865 0.287636 0.043357
0.930104 0.287210 0.043623
0.961888 0.286776 0.043894
0.994257 0.286335 0.044170
1.000000 0.285885 0.044451
0.072331 0.326631 0.037170
0.105328 0.326181 0.037451
0.137697 0.325739 0.037727
0.169481 0.325305 0.037998
0.200720 0.324879 0.038264
0.231458 0.324460 0.038526
0.261735 0.324047 0.038785
0.291594 0.323639 0.039039
0.321076 0.323237 0.039290
0.350224 0.322840 0.039539
0.379079 0.322446 0.039785
0.407682 0.322056 0.040029
0.436077 0.321668 0.040271
0.464304 0.321283 0.040511
0.492405 0.320900 0.040751
0.520423 0.320518 0.040990
0.548399 0.320136 0.041228
0.576375 0.319754 0.041467
0.604393 0.319372 0.041706
0.632494 0.318989 0.041945
0.660721 0.318604 0.042186
0.689116 0.318216 0.042428
0.717719 0.317826 0.042672
0.746574 0.317433 0.042918
0.775722 0.317035 0.043166
0.805204 0.316633 0.043418
0.835063 0.316225 0.043672
0.865340 0.315812 0.043930
0.896078 0.315393 0.044192
0.927317 0.314967 0.044459
0.959101 0.314533 0.044730
0.991470 0.314092 0.045006
1.000000 0.313685 0.045199
0.069572 0.354109 0.037997
0.102569 0.353658 0.038279
0.134938 0.353217 0.038555
0.166722 0.352783 0.038826
0.197961 0.352357 0.039092
0.228699 0.351938 0.039354
0.258976 0.351525 0.039612
0.288835 0.351117 0.039867
0.318317 0.350715 0.040118
0.347465 0.350317 0.040366
0.376320 0.349924 0.040612
0.404923 0.349534 0.040856
0.433318 0.349146 0.041098
0.461545 0.348761 0.041339
0.489646 0.348378 0.041579
0.517664 0.347996 0.041817
0.545640 0.347614 0.042056
0.573616 0.347232 0.042294
0.601634 0.346850 0.042533
0.629735 0.346467 0.042773
0.657962 0.346082 0.043014
0.686357 0.345694 0.043256
0.714960 0.345304 0.043499
0.743815 0.344910 0.043745
0.772963 0.344513 0.043994
0.802445 0.344111 0.044245
0.832304 0.343703 0.044500
0.862581 0.343290 0.044758
0.893319 0.342871 0.045020
0.924688 0.342488 0.045199
0.957166 0.342285 0.045003
0.990244 0.342079 0.044803
1.000000 0.341869 0.044600
0.066837 0.381347 0.038818
0.099834 0.380897 0.039099
0.132203 0.380456 0.039375
0.163987 0.380022 0.039646
0.195226 0.379596 0.039912
0.225964 0.379176 0.040174
0.256241 0.378763 0.040432
0.286100 0.378356 0.040687
0.315582 0.377954 0.040938
0.344730 0.377556 0.041187
0.373585 0.377163 0.041433
0.402188 0.376772 0.041677
0.430583 0.376385 0.041919
0.458810 0.376000 0.042159
0.486911 0.375617 0.042399
0.514929 0.375234 0.042638
0.542905 0.374853 0.042876
0.570881 0.374471 0.043115
0.598899 0.374089 0.043354
0.627000 0.373705 0.043593
0.655227 0.373320 0.043834
0.683622 0.372933 0.044076
0.712225 0.372543 0.044320
0.741080 0.372149 0.044566
0.770228 0.371751 0.044814
0.799710 0.371349 0.045066
0.829785 0.371014 0.045175
0.860724 0.370821 0.044988
0.892134 0.370625 0.044798
0.924057 0.370427 0.044605
0.956535 0.370224 0.044409
0.989612 0.370018 0.044209
1.000000 0.369808 0.044005
0.064121 0.408387 0.039632
0.097119 0.407937 0.039913
0.129488 0.407495 0.040189
0.161272 0.407061 0.040460
0.192511 0.406635 0.040727
0.223249 0.406216 0.040989
0.253526 0.405803 0.041247
0.283385 0.405396 0.041501
0.312867 0.404993 0.041753
0.342015 0.404596 0.042001
0.370869 0.404202 0.042247
0.399473 0.403812 0.042491
0.427868 0.403424 0.042733
0.456095 0.403039 0.042974
0.484196 0.402656 0.043213
0.512214 0.402274 0.043452
0.540190 0.401892 0.043691
0.568166 0.401510 0.043929
0.596184 0.401128 0.044168
0.624285 0.400745 0.044408
0.652512 0.400360 0.044648
0.680907 0.399972 0.044890
0.709510 0.399582 0.045134
0.738735 0.399312 0.045131
0.768520 0.399126 0.044951
0.798647 0.398938 0.044769
0.829159 0.398748 0.044585
0.860098 0.398556 0.044398
0.891507 0.398360 0.044208
0.923430 0.398161 0.044016
0.955909 0.397959 0.043819
0.988986 0.397753 0.043620
1.000000 0.397543 0.043416
0.061422 0.435267 0.040442
0.094419 0.434817 0.040723
0.126789 0.434375 0.040999
0.158572 0.433942 0.041270
0.189812 0.433515 0.041536
0.220550 0.433096 0.041798
0.250827 0.432683 0.042056
0.280686 0.432276 0.042311
0.310168 0.431873 0.042562
0.339316 0.431476 0.042811
0.368170 0.431082 0.043057
0.396774 0.430692 0.043301
0.425168 0.430305 0.043543
0.453396 0.429920 0.043783
0.481497 0.429536 0.044023
0.509515 0.429154 0.044262
0.537491 0.428772 0.044500
0.565467 0.428391 0.044739
0.593485 0.428008 0.044978
0.621586 0.427625 0.045217
0.650382 0.427429 0.045075
0.679398 0.427249 0.044900
0.708627 0.427066 0.044723
0.738112 0.426883 0.044545
0.767897 0.426697 0.044365
0.798024 0.426509 0.044183
0.828536 0.426319 0.043999
0.859475 0.426127 0.043812
0.890885 0.425931 0.043622
0.922807 0.425732 0.043429
0.955286 0.425530 0.043233
0.988363 0.425324 0.043033
1.000000 0.425114 0.042830
0.058735 0.462027 0.041248
0.091732 0.461577 0.041529
0.124102 0.461136 0.041805
0.155885 0.460702 0.042076
0.187125 0.460276 0.042342
0.217863 0.459857 0.042604
0.248140 0.459444 0.042862
0.277999 0.459036 0.043117
0.307481 0.458634 0.043368
0.336629 0.458236 0.043617
0.365483 0.457843 0.043863
0.394087 0.457453 0.044106
0.422481 0.457065 0.044349
0.450708 0.456680 0.044589
0.478810 0.456297 0.044829
0.506828 0.455915 0.045068
0.534984 0.455593 0.045185
0.563572 0.455415 0.045012
0.592202 0.455236 0.044839
0.620918 0.455057 0.044666
0.649762 0.454878 0.044492
0.678778 0.454697 0.044316
0.708007 0.454515 0.044140
0.737492 0.454331 0.043962
0.767277 0.454146 0.043782
0.797404 0.453958 0.043600
0.827916 0.453768 0.043415
0.858855 0.453575 0.043228
0.890265 0.453379 0.043039
0.922187 0.453180 0.042846
0.954666 0.452978 0.042650
0.987743 0.452772 0.042450
1.000000 0.452562 0.042246
0.056056 0.488708 0.042051
0.089053 0.488258 0.042332
0.121423 0.487817 0.042608
0.153206 0.487383 0.042879
0.184446 0.486957 0.043146
0.215184 0.486538 0.043408
0.245461 0.486124 0.043666
0.275320 0.485717 0.043920
0.304802 0.485315 0.044172
0.333950 0.484917 0.044420
0.362804 0.484524 0.044666
0.391408 0.484133 0.044910
0.419802 0.483746 0.045152
0.448432 0.483495 0.045122
0.477148 0.483316 0.044949
0.505778 0.483138 0.044776
0.534366 0.482959 0.044603
0.562953 0.482781 0.044430
0.591584 0.482603 0.044257
0.620300 0.482424 0.044084
0.649144 0.482244 0.043910
0.678159 0.482064 0.043734
0.707388 0.481882 0.043558
0.736874 0.481698 0.043380
0.766659 0.481512 0.043200
0.796786 0.481325 0.043018
0.827297 0.481134 0.042833
0.858237 0.480942 0.042646
0.889646 0.480746 0.042457
0.921569 0.480547 0.042264
0.954048 0.480345 0.042068
0.987125 0.480139 0.041868
1.000000 0.479929 0.041664
0.053381 0.515349 0.042853
0.086378 0.514899 0.043135
0.118748 0.514458 0.043411
0.150531 0.514024 0.043682
0.181771 0.513598 0.043948
0.212509 0.513179 0.044210
0.242786 0.512766 0.044468
0.272645 0.512358 0.044723
0.302127 0.511956 0.044974
0.331275 0.511558 0.045222
0.360726 0.511363 0.045067
0.389955 0.511181 0.044891
0.418970 0.511000 0.044716
0.447814 0.510821 0.044541
0.476530 0.510642 0.044368
0.505161 0.510463 0.044195
0.533748 0.510285 0.044022
0.562336 0.510107 0.043849
0.590967 0.509929 0.043676
0.619683 0.509750 0.043503
0.648527 0.509570 0.043329
0.677542 0.509389 0.043153
0.706771 0.509207 0.042977
0.736257 0.509024 0.042799
0.766041 0.508838 0.042619
0.796168 0.508650 0.042437
0.826680 0.508460 0.042252
0.857619 0.508268 0.042065
0.889029 0.508072 0.041876
0.920952 0.507873 0.041683
0.954136 0.508005 0.041221
0.988123 0.508231 0.040679
1.000000 0.508461 0.040126
0.050706 0.541990 0.043656
0.083703 0.541540 0.043937
0.116073 0.541099 0.044213
0.147856 0.540665 0.044484
0.179096 0.540239 0.044750
0.209834 0.539820 0.045012
0.240200 0.539436 0.045211
0.270711 0.539246 0.045026
0.300838 0.539058 0.044844
0.330623 0.538873 0.044665
0.360109 0.538689 0.044486
0.389338 0.538507 0.044310
0.418353 0.538326 0.044135
0.447197 0.538146 0.043960
0.475913 0.537968 0.043787
0.504543 0.537789 0.043614
0.533131 0.537611 0.043441
0.561719 0.537433 0.043268
0.590349 0.537255 0.043095
0.619065 0.537076 0.042922
0.647909 0.536896 0.042748
0.676925 0.536715 0.042572
0.706154 0.536533 0.042396
0.735639 0.536349 0.042218
0.765424 0.536164 0.042038
0.795551 0.535976 0.041856
0.826063 0.535786 0.041671
0.857718 0.535933 0.041215
0.889991 0.536147 0.040700
0.922792 0.536365 0.040177
0.956164 0.536587 0.039644
0.990151 0.536812 0.039102
1.000000 0.537042 0.038549
0.048027 0.568671 0.044459
0.081024 0.568221 0.044741
0.113394 0.567780 0.045017
0.145310 0.567390 0.045198
0.177232 0.567191 0.045006
0.208642 0.566996 0.044816
0.239581 0.566803 0.044629
0.270093 0.566613 0.044445
0.300220 0.566425 0.044263
0.330005 0.566239 0.044083
0.359490 0.566056 0.043905
0.388719 0.565874 0.043728
0.417735 0.565693 0.043553
0.446579 0.565513 0.043378
0.475295 0.565334 0.043205
0.503925 0.565156 0.043032
0.532513 0.564978 0.042859
0.561101 0.564800 0.042687
0.589731 0.564621 0.042514
0.618447 0.564442 0.042340
0.647291 0.564263 0.042166
0.676306 0.564082 0.041991
0.705535 0.563900 0.041814
0.735047 0.563729 0.041626
0.765652 0.563932 0.041137
0.796607 0.564137 0.040643
0.827958 0.564346 0.040143
0.859749 0.564557 0.039636
0.892023 0.564771 0.039121
0.924823 0.564989 0.038597
0.958195 0.565211 0.038065
0.992183 0.565436 0.037522
1.000000 0.565666 0.036969
0.045416 0.595457 0.045215
0.079134 0.595247 0.045011
0.112211 0.595041 0.044811
0.144690 0.594839 0.044615
0.176612 0.594640 0.044422
0.208022 0.594444 0.044232
0.238961 0.594251 0.044045
0.269473 0.594061 0.043861
0.299600 0.593873 0.043679
0.329385 0.593688 0.043499
0.358870 0.593504 0.043321
0.388099 0.593322 0.043144
0.417115 0.593141 0.042969
0.445959 0.592962 0.042795
0.474675 0.592783 0.042621
0.503305 0.592604 0.042448
0.531893 0.592426 0.042276
0.560481 0.592248 0.042103
0.589111 0.592070 0.041930
0.617827 0.591891 0.041756
0.646942 0.591839 0.041480
0.676755 0.592037 0.041005
0.706788 0.592237 0.040525
0.737085 0.592438 0.040042
0.767689 0.592641 0.039553
0.798645 0.592847 0.039059
0.829996 0.593055 0.038559
0.861786 0.593266 0.038052
0.894060 0.593481 0.037537
0.926861 0.593698 0.037013
0.960233 0.593920 0.036481
0.994220 0.594146 0.035938
1.000000 0.594376 0.035385
0.044793 0.623028 0.044628
0.078511 0.622818 0.044425
0.111588 0.622612 0.044225
0.144067 0.622410 0.044029
0.175990 0.622211 0.043836
0.207399 0.622015 0.043646
0.238338 0.621822 0.043459
0.268850 0.621632 0.043275
0.298977 0.621444 0.043093
0.328762 0.621259 0.042913
0.358247 0.621075 0.042735
0.387477 0.620893 0.042558
0.416492 0.620712 0.042383
0.445336 0.620533 0.042209
0.474052 0.620354 0.042035
0.502682 0.620175 0.041862
0.531270 0.619997 0.041689
0.560426 0.620089 0.041303
0.589844 0.620284 0.040833
0.619350 0.620480 0.040362
0.648988 0.620677 0.039889
0.678802 0.620875 0.039413
0.708835 0.621075 0.038934
0.739131 0.621276 0.038451
0.769736 0.621479 0.037962
0.800691 0.621685 0.037468
0.832042 0.621893 0.036968
0.863833 0.622104 0.036461
0.896106 0.622318 0.035945
0.928907 0.622536 0.035422
0.962279 0.622758 0.034889
0.996266 0.622983 0.034347
1.000000 0.623213 0.033794
0.044166 0.650763 0.044039
0.077885 0.650552 0.043835
0.110962 0.650346 0.043635
0.143440 0.650144 0.043439
0.175363 0.649945 0.043246
0.206773 0.649749 0.043056
0.237712 0.649557 0.042869
0.268224 0.649367 0.042685
0.298351 0.649179 0.042503
0.328135 0.648993 0.042323
0.357621 0.648810 0.042145
0.386850 0.648628 0.041968
0.415865 0.648447 0.041793
0.444813 0.648316 0.041580
0.474319 0.648512 0.041109
0.503737 0.648708 0.040640
0.533111 0.648903 0.040171
0.562485 0.649098 0.039702
0.591903 0.649293 0.039232
0.621409 0.649489 0.038762
0.651047 0.649686 0.038289
0.680860 0.649884 0.037813
0.710893 0.650083 0.037334
0.741190 0.650284 0.036850
0.771794 0.650488 0.036362
0.802750 0.650693 0.035868
0.834101 0.650901 0.035367
0.865891 0.651112 0.034860
0.898165 0.651327 0.034345
0.930966 0.651545 0.033821
0.964338 0.651766 0.033289
0.998325 0.651992 0.032746
1.000000 0.652222 0.032194
0.043535 0.678701 0.043445
0.077253 0.678491 0.043241
0.110331 0.678285 0.043041
0.142809 0.678083 0.042845
0.174732 0.677884 0.042652
0.206141 0.677688 0.042462
0.237081 0.677496 0.042275
0.267592 0.677305 0.042091
0.297719 0.677118 0.041909
0.327504 0.676932 0.041729
0.357403 0.676944 0.041396
0.387436 0.677144 0.040916
0.417249 0.677342 0.040440
0.446887 0.677539 0.039968
0.476393 0.677735 0.039497
0.505811 0.677930 0.039027
0.535185 0.678125 0.038558
0.564559 0.678320 0.038090
0.593977 0.678515 0.037620
0.623483 0.678711 0.037149
0.653121 0.678908 0.036676
0.682934 0.679106 0.036200
0.712967 0.679306 0.035721
0.743264 0.679507 0.035238
0.773868 0.679710 0.034749
0.804824 0.679916 0.034255
0.836175 0.680124 0.033755
0.867965 0.680335 0.033248
0.900239 0.680549 0.032732
0.933040 0.680767 0.032209
0.966412 0.680989 0.031676
1.000000 0.681214 0.031134
1.000000 0.681444 0.030581
0.042898 0.706885 0.042845
0.076617 0.706675 0.042642
0.109694 0.706469 0.042442
0.142172 0.706267 0.042246
0.174095 0.706068 0.042053
0.205505 0.705872 0.041863
0.236444 0.705680 0.041676
0.267638 0.705813 0.041235
0.298594 0.706019 0.040741
0.329198 0.706222 0.040253
0.359495 0.706423 0.039769
0.389528 0.706623 0.039290
0.419341 0.706821 0.038814
0.448979 0.707017 0.038341
0.478485 0.707213 0.037870
0.507903 0.707409 0.037401
0.537277 0.707604 0.036932
0.566651 0.707799 0.036463
0.596069 0.707994 0.035994
0.625575 0.708190 0.035523
0.655213 0.708387 0.035050
0.685026 0.708585 0.034574
0.715059 0.708784 0.034095
0.745356 0.708986 0.033611
0.775960 0.709189 0.033123
0.806916 0.709394 0.032629
0.838267 0.709603 0.032128
0.870057 0.709814 0.031621
0.902331 0.710028 0.031106
0.935132 0.710246 0.030582
0.968504 0.710468 0.030050
1.000000 0.710693 0.029507
1.000000 0.710923 0.029200
0.042255 0.735356 0.042240
0.075974 0.735145 0.042036
0.109051 0.734939 0.041837
0.141535 0.734740 0.041638
0.174336 0.734958 0.041115
0.206610 0.735172 0.040600
0.238400 0.735383 0.040092
0.269751 0.735591 0.039592
0.300707 0.735797 0.039098
0.331311 0.736000 0.038609
0.361608 0.736201 0.038126
0.391641 0.736401 0.037647
0.421454 0.736599 0.037171
0.451092 0.736796 0.036698
0.480598 0.736991 0.036227
0.510016 0.737187 0.035758
0.539390 0.737382 0.035289
0.568764 0.737577 0.034820
0.598182 0.737772 0.034351
0.627688 0.737968 0.033880
0.657326 0.738165 0.033407
0.687139 0.738363 0.032931
0.717172 0.738563 0.032452
0.747469 0.738764 0.031968
0.778073 0.738967 0.031480
0.809029 0.739173 0.030986
0.840380 0.739381 0.030485
0.872171 0.739592 0.029978
0.904444 0.739806 0.029463
0.937245 0.740024 0.029200
0.970617 0.740246 0.029200
1.000000 0.740471 0.029200
1.000000 0.740701 0.029200
0.041667 0.764183 0.041604
0.076314 0.764413 0.041051
0.110301 0.764638 0.040509
0.143673 0.764860 0.039976
0.176473 0.765078 0.039453
0.208747 0.765292 0.038938
0.240538 0.765503 0.038430
0.271889 0.765711 0.037930
0.302844 0.765917 0.037436
0.333449 0.766120 0.036948
0.363745 0.766321 0.036464
0.393778 0.766521 0.035985
0.423592 0.766719 0.035509
0.453230 0.766916 0.035036
0.482735 0.767112 0.034565
0.512154 0.767307 0.034096
0.541528 0.767502 0.033627
0.570902 0.767697 0.033158
0.600320 0.767892 0.032689
0.629826 0.768088 0.032218
0.659463 0.768285 0.031745
0.689277 0.768483 0.031269
0.719310 0.768683 0.030790
0.749607 0.768884 0.030306
0.780211 0.769087 0.029818
0.811167 0.769293 0.029324
0.842518 0.769501 0.029200
0.874308 0.769712 0.029200
0.906582 0.769926 0.029200
0.939383 0.770144 0.029200
0.972755 0.770366 0.029200
1.000000 0.770591 0.029200
1.000000 0.770821 0.029200
0.043832 0.794687 0.039921
0.078478 0.794917 0.039368
0.112465 0.795143 0.038826
0.145837 0.795365 0.038293
0.178638 0.795583 0.037770
0.210912 0.795797 0.037255
0.242702 0.796008 0.036747
0.274054 0.796216 0.036247
0.305009 0.796422 0.035753
0.335613 0.796625 0.035264
0.365910 0.796826 0.034781
0.395943 0.797026 0.034302
0.425757 0.797224 0.033826
0.455394 0.797420 0.033353
0.484900 0.797616 0.032882
0.514318 0.797812 0.032412
0.543692 0.798007 0.031944
0.573067 0.798202 0.031475
0.602485 0.798397 0.031005
0.631991 0.798593 0.030535
0.661628 0.798790 0.030062
0.691442 0.798988 0.029586
0.721475 0.799187 0.029200
0.751771 0.799389 0.029200
