flutter_app/assets/lut/cameras/inst_c_polaroid_warm.cube
TITLE "Instax Mini C - Polaroid Warm v12"
# DAZZ Camera LUT - Polaroid 600 Warm Tone
# v12 - Enhanced highlight warmth R/B warmth + exact G control
LUT_3D_SIZE 33
0.106769 0.043150 0.017218
0.132621 0.052920 0.016775
0.159641 0.056619 0.016564
0.187437 0.060424 0.016349
0.215876 0.064318 0.016129
0.244844 0.068284 0.015906
0.274241 0.072309 0.015680
0.303979 0.076380 0.015452
0.333983 0.080489 0.015224
0.364188 0.084624 0.014995
0.394534 0.088780 0.014765
0.424973 0.092948 0.014536
0.455462 0.097123 0.014308
0.485963 0.101300 0.014080
0.516445 0.105475 0.013854
0.546879 0.109643 0.013630
0.577243 0.113802 0.013407
0.607518 0.117949 0.013186
0.637688 0.122081 0.012967
0.667740 0.126198 0.012750
0.697665 0.130297 0.012535
0.727454 0.134378 0.012323
0.757102 0.138439 0.012113
0.786608 0.142482 0.011905
0.815968 0.146505 0.011700
0.845185 0.150508 0.011497
0.874260 0.154492 0.011297
0.903197 0.158458 0.011100
0.931999 0.162405 0.010905
0.960673 0.166335 0.010713
0.989223 0.170248 0.010523
1.000000 0.174146 0.010336
1.000000 0.175287 0.010495
0.105085 0.067395 0.017098
0.131174 0.070967 0.016897
0.158191 0.074666 0.016689
0.185984 0.078471 0.016475
0.214421 0.082365 0.016258
0.243386 0.086331 0.016037
0.272779 0.090355 0.015814
0.302514 0.094427 0.015589
0.332515 0.098535 0.015363
0.362715 0.102671 0.015137
0.393058 0.106826 0.014911
0.423493 0.110994 0.014685
0.453978 0.115169 0.014460
0.484475 0.119346 0.014236
0.514952 0.123521 0.014013
0.545382 0.127689 0.013792
0.575742 0.131848 0.013573
0.606012 0.135994 0.013355
0.636177 0.140127 0.013140
0.666224 0.144243 0.012927
0.696143 0.148342 0.012717
0.725927 0.152423 0.012508
0.755570 0.156485 0.012303
0.785069 0.160527 0.012100
0.814424 0.164549 0.011900
0.843635 0.168553 0.011702
0.872703 0.172537 0.011507
0.901633 0.176502 0.011315
0.930428 0.180449 0.011126
0.959094 0.184379 0.010940
0.987637 0.188292 0.010756
1.000000 0.192189 0.010576
1.000000 0.193452 0.010726
0.103580 0.086085 0.017230
0.129666 0.089656 0.017031
0.156681 0.093355 0.016825
0.184470 0.097160 0.016614
0.212903 0.101054 0.016400
0.241864 0.105020 0.016182
0.271254 0.109044 0.015961
0.300985 0.113116 0.015740
0.330982 0.117224 0.015517
0.361178 0.121359 0.015294
0.391517 0.125515 0.015071
0.421948 0.129683 0.014849
0.452428 0.133858 0.014627
0.482920 0.138035 0.014407
0.513392 0.142209 0.014188
0.543817 0.146377 0.013971
0.574172 0.150535 0.013756
0.604436 0.154682 0.013543
0.634596 0.158814 0.013332
0.664637 0.162930 0.013124
0.694550 0.167029 0.012918
0.724327 0.171110 0.012715
0.753963 0.175171 0.012515
0.783456 0.179214 0.012318
0.812804 0.183236 0.012123
0.842007 0.187239 0.011931
0.871067 0.191223 0.011743
0.899989 0.195188 0.011557
0.928775 0.199135 0.011375
0.957432 0.203064 0.011196
0.985965 0.206977 0.011020
1.000000 0.210874 0.010848
1.000000 0.212267 0.010991
0.102133 0.105311 0.017337
0.128104 0.108883 0.017178
0.155115 0.112581 0.016975
0.182901 0.116386 0.016767
0.211330 0.120280 0.016555
0.240287 0.124245 0.016340
0.269673 0.128270 0.016123
0.299400 0.132342 0.015905
0.329392 0.136449 0.015686
0.359584 0.140585 0.015467
0.389917 0.144740 0.015248
0.420343 0.148908 0.015029
0.450818 0.153083 0.014812
0.481305 0.157260 0.014596
0.511771 0.161434 0.014382
0.542190 0.165601 0.014169
0.572538 0.169760 0.013959
0.602797 0.173906 0.013751
0.632950 0.178038 0.013546
0.662984 0.182154 0.013343
0.692889 0.186253 0.013143
0.722659 0.190334 0.012946
0.752288 0.194395 0.012752
0.781772 0.198437 0.012561
0.811111 0.202459 0.012373
0.840305 0.206462 0.012189
0.869356 0.210445 0.012008
0.898267 0.214410 0.011831
0.927042 0.218357 0.011657
0.955688 0.222286 0.011488
0.984209 0.226198 0.011322
1.000000 0.230095 0.011160
1.000000 0.231628 0.011297
0.100827 0.124983 0.017394
0.126616 0.128554 0.017297
0.153500 0.132253 0.017138
0.181282 0.136058 0.016933
0.209707 0.139951 0.016725
0.238660 0.143917 0.016513
0.268041 0.147941 0.016300
0.297762 0.152013 0.016086
0.327749 0.156120 0.015871
0.357936 0.160256 0.015656
0.388264 0.164411 0.015441
0.418684 0.168579 0.015228
0.449153 0.172753 0.015015
0.479633 0.176930 0.014804
0.510093 0.181104 0.014595
0.540505 0.185271 0.014388
0.570846 0.189430 0.014184
0.601097 0.193576 0.013982
0.631242 0.197708 0.013783
0.661268 0.201824 0.013587
0.691165 0.205922 0.013393
0.720925 0.210002 0.013204
0.750544 0.214064 0.013017
0.780018 0.218105 0.012835
0.809346 0.222127 0.012655
0.838529 0.226130 0.012480
0.867568 0.230113 0.012309
0.896466 0.234077 0.012142
0.925227 0.238024 0.011980
0.953857 0.241952 0.011822
0.982361 0.245865 0.011670
1.000000 0.249761 0.011523
1.000000 0.251444 0.011657
0.099581 0.145021 0.017430
0.125324 0.148592 0.017350
0.151961 0.152291 0.017275
0.179617 0.156096 0.017115
0.208037 0.159989 0.016910
0.236985 0.163954 0.016703
0.266361 0.167979 0.016494
0.296077 0.172050 0.016284
0.326058 0.176157 0.016074
0.356238 0.180293 0.015864
0.386560 0.184447 0.015654
0.416973 0.188615 0.015446
0.447435 0.192790 0.015239
0.477908 0.196966 0.015034
0.508360 0.201140 0.014831
0.538764 0.205307 0.014631
0.569096 0.209465 0.014433
0.599338 0.213611 0.014238
0.629474 0.217743 0.014047
0.659489 0.221858 0.013859
0.689376 0.225957 0.013674
0.719125 0.230037 0.013493
0.748732 0.234098 0.013317
0.778193 0.238139 0.013144
0.807507 0.242161 0.012976
0.836674 0.246163 0.012813
0.865697 0.250146 0.012655
0.894577 0.254110 0.012502
0.923318 0.258055 0.012356
0.951926 0.261984 0.012216
0.980319 0.265883 0.012084
1.000000 0.269738 0.011965
1.000000 0.271640 0.012098
0.098403 0.165355 0.017445
0.124098 0.168927 0.017384
0.150686 0.172625 0.017327
0.178016 0.176430 0.017278
0.206325 0.180323 0.017113
0.235267 0.184288 0.016911
0.264636 0.188313 0.016707
0.294346 0.192384 0.016502
0.324320 0.196491 0.016297
0.354493 0.200626 0.016092
0.384807 0.204781 0.015889
0.415213 0.208948 0.015687
0.445666 0.213123 0.015487
0.476130 0.217299 0.015289
0.506573 0.221472 0.015093
0.536967 0.225639 0.014901
0.567289 0.229797 0.014712
0.597520 0.233943 0.014526
0.627643 0.238074 0.014344
0.657646 0.242190 0.014166
0.687519 0.246288 0.013992
0.717253 0.250367 0.013823
0.746844 0.254428 0.013659
0.776288 0.258469 0.013500
0.805583 0.262490 0.013347
0.834729 0.266491 0.013201
0.863727 0.270474 0.013062
0.892319 0.274402 0.012935
0.920671 0.278298 0.012819
0.948886 0.282177 0.012714
0.976969 0.286040 0.012622
1.000000 0.289887 0.012548
1.000000 0.292156 0.012693
0.097297 0.185927 0.017441
0.122944 0.189498 0.017398
0.149482 0.193196 0.017361
0.176759 0.197001 0.017332
0.204644 0.200894 0.017311
0.233506 0.204859 0.017138
0.262869 0.208883 0.016940
0.292571 0.212954 0.016741
0.322537 0.217061 0.016543
0.352701 0.221196 0.016345
0.383006 0.225351 0.016149
0.413402 0.229518 0.015954
0.443845 0.233692 0.015762
0.474299 0.237868 0.015573
0.504730 0.242041 0.015387
0.535111 0.246208 0.015204
0.565420 0.250365 0.015025
0.595637 0.254511 0.014851
0.625744 0.258642 0.014681
0.655731 0.262757 0.014516
0.685585 0.266854 0.014357
0.715299 0.270933 0.014204
0.744867 0.274993 0.014058
0.774223 0.279025 0.013921
0.803066 0.282988 0.013799
0.831759 0.286932 0.013687
0.860301 0.290857 0.013587
0.888693 0.294763 0.013502
0.916930 0.298652 0.013439
0.945006 0.302522 0.013407
0.972884 0.306374 0.013442
1.000000 0.310217 0.013280
1.000000 0.312873 0.013023
0.096266 0.206682 0.017418
0.121863 0.210254 0.017394
0.148350 0.213952 0.017377
0.175574 0.217756 0.017369
0.203404 0.221649 0.017370
0.231726 0.225614 0.017381
0.261058 0.229638 0.017197
0.290751 0.233708 0.017005
0.320707 0.237815 0.016815
0.350861 0.241950 0.016625
0.381155 0.246104 0.016438
0.411539 0.250271 0.016253
0.441969 0.254445 0.016071
0.472409 0.258620 0.015893
0.502825 0.262793 0.015718
0.533190 0.266960 0.015549
0.563481 0.271117 0.015384
0.593678 0.275262 0.015225
0.623764 0.279392 0.015072
0.653726 0.283506 0.014927
0.683288 0.287567 0.014794
0.712484 0.291580 0.014675
0.741533 0.295573 0.014567
0.770428 0.299548 0.014473
0.799163 0.303503 0.014397
0.827729 0.307438 0.014347
0.856105 0.311354 0.014341
0.884263 0.315249 0.014406
0.912878 0.319140 0.013995
0.941368 0.323013 0.013586
0.969738 0.326870 0.013179
0.997996 0.330712 0.012774
1.000000 0.333652 0.012481
0.095311 0.227577 0.017379
0.120857 0.231147 0.017375
0.147291 0.234845 0.017380
0.174460 0.238650 0.017394
0.202234 0.242542 0.017418
0.230498 0.246507 0.017452
0.259201 0.250530 0.017483
0.288883 0.254601 0.017300
0.318827 0.258708 0.017119
0.348968 0.262842 0.016940
0.379248 0.266996 0.016764
0.409616 0.271162 0.016591
0.440030 0.275336 0.016422
0.470451 0.279511 0.016259
0.500847 0.283683 0.016101
0.531189 0.287849 0.015949
0.561454 0.292005 0.015805
0.591224 0.296096 0.015676
0.620753 0.300154 0.015560
0.650062 0.304185 0.015458
0.679227 0.308198 0.015371
0.708306 0.312202 0.015305
0.737211 0.316186 0.015272
0.765895 0.320150 0.015308
0.794693 0.324100 0.015139
0.823657 0.328038 0.014724
0.852482 0.331957 0.014310
0.881172 0.335858 0.013899
0.909731 0.339741 0.013489
0.938166 0.343607 0.013082
0.966481 0.347457 0.012675
0.994684 0.351291 0.012271
1.000000 0.354570 0.011936
0.094430 0.248569 0.017327
0.119925 0.252140 0.017345
0.146303 0.255838 0.017372
0.173416 0.259642 0.017409
0.201131 0.263534 0.017458
0.229335 0.267498 0.017518
0.257930 0.271522 0.017591
0.286961 0.275592 0.017632
0.316890 0.279698 0.017463
0.347013 0.283832 0.017298
0.377274 0.287985 0.017137
0.407621 0.292151 0.016981
0.438010 0.296324 0.016832
0.468348 0.300491 0.016691
0.498438 0.304625 0.016562
0.528369 0.308740 0.016447
0.558116 0.312831 0.016346
0.587655 0.316896 0.016266
0.616962 0.320933 0.016212
0.646005 0.324940 0.016204
0.674696 0.328915 0.016306
0.703966 0.332895 0.015887
0.733313 0.336885 0.015466
0.762520 0.340855 0.015047
0.791585 0.344807 0.014630
0.820510 0.348740 0.014215
0.849297 0.352654 0.013803
0.877948 0.356549 0.013392
0.906469 0.360427 0.012983
0.934864 0.364287 0.012576
0.963140 0.368132 0.012170
0.991304 0.371961 0.011767
1.000000 0.375588 0.011388
0.093621 0.269626 0.017267
0.119061 0.273197 0.017308
0.145382 0.276894 0.017360
0.172435 0.280698 0.017423
0.200089 0.284590 0.017499
0.228229 0.288554 0.017588
0.256757 0.292577 0.017691
0.285586 0.296646 0.017808
0.314879 0.300752 0.017861
0.344978 0.304885 0.017716
0.375207 0.309037 0.017578
0.405434 0.313191 0.017450
0.435596 0.317337 0.017335
0.465651 0.321471 0.017237
0.495563 0.325589 0.017161
0.525291 0.329685 0.017117
0.554778 0.333758 0.017136
0.584219 0.337808 0.017043
0.613871 0.341839 0.016618
0.643308 0.345841 0.016197
0.672521 0.349813 0.015779
0.701504 0.353754 0.015365
0.730495 0.357696 0.014950
0.759702 0.361667 0.014531
0.788768 0.365619 0.014115
0.817693 0.369551 0.013700
0.846479 0.373465 0.013287
0.875130 0.377361 0.012876
0.903651 0.381238 0.012467
0.932046 0.385099 0.012060
0.960322 0.388943 0.011655
0.988486 0.392772 0.011251
1.000000 0.396587 0.010849
0.092874 0.290717 0.017207
0.118256 0.294287 0.017274
0.144517 0.297984 0.017353
0.171506 0.301788 0.017446
0.199093 0.305679 0.017553
0.227162 0.309642 0.017676
0.255616 0.313665 0.017815
0.284367 0.317734 0.017972
0.313339 0.321839 0.018149
0.342821 0.325971 0.018229
0.372999 0.330122 0.018133
0.403235 0.334285 0.018060
0.433178 0.338413 0.018029
0.462916 0.342527 0.018096
0.493000 0.346635 0.017789
0.523093 0.350726 0.017358
0.553016 0.354795 0.016929
0.582750 0.358837 0.016503
0.612281 0.362852 0.016081
0.641597 0.366838 0.015662
0.670690 0.370794 0.015246
0.699554 0.374719 0.014834
0.728185 0.378612 0.014425
0.756879 0.382513 0.014015
0.785945 0.386465 0.013598
0.814870 0.390398 0.013183
0.843656 0.394311 0.012771
0.872308 0.398207 0.012360
0.900828 0.402084 0.011951
0.929223 0.405945 0.011544
0.957499 0.409790 0.011138
0.985663 0.413619 0.010734
1.000000 0.417434 0.010332
0.092176 0.311816 0.017160
0.117495 0.315386 0.017256
0.143689 0.319082 0.017368
0.170606 0.322885 0.017497
0.198114 0.326775 0.017645
0.226100 0.330738 0.017813
0.254460 0.334759 0.018004
0.283106 0.338827 0.018223
0.311951 0.342930 0.018478
0.340908 0.347059 0.018791
0.370412 0.351207 0.018988
0.401119 0.355381 0.018546
0.431877 0.359563 0.018103
0.462125 0.363676 0.017669
0.492244 0.367771 0.017238
0.522215 0.371846 0.016808
0.552016 0.375897 0.016382
0.581628 0.379924 0.015958
0.611038 0.383922 0.015537
0.640233 0.387892 0.015120
0.669206 0.391831 0.014706
0.697950 0.395740 0.014296
0.726463 0.399617 0.013890
0.754742 0.403462 0.013487
0.783121 0.407320 0.013081
0.812046 0.411253 0.012667
0.840833 0.415167 0.012254
0.869484 0.419062 0.011843
0.898004 0.422940 0.011434
0.926399 0.426801 0.011027
0.954676 0.430645 0.010622
0.982839 0.434474 0.010218
1.000000 0.438289 0.009815
0.091499 0.332900 0.017148
0.116743 0.336469 0.017284
0.142854 0.340165 0.017441
0.169677 0.343966 0.017624
0.197076 0.347855 0.017837
0.224924 0.351815 0.018093
0.253080 0.355833 0.018427
0.281789 0.359903 0.018571
0.311042 0.364017 0.018473
0.340464 0.368160 0.018383
0.369997 0.372321 0.018303
0.400300 0.376496 0.017995
0.431058 0.380678 0.017553
0.461830 0.384861 0.017110
0.491837 0.388941 0.016680
0.521686 0.393000 0.016253
0.551365 0.397035 0.015828
0.580856 0.401045 0.015407
0.610144 0.405027 0.014988
0.639219 0.408980 0.014573
0.668072 0.412903 0.014161
0.696696 0.416795 0.013753
0.725090 0.420656 0.013349
0.753251 0.424485 0.012948
0.781179 0.428283 0.012550
0.809224 0.432096 0.012150
0.838010 0.436010 0.011737
0.866662 0.439905 0.011327
0.895182 0.443783 0.010918
0.923577 0.447644 0.010511
0.951853 0.451488 0.010105
0.980017 0.455317 0.009701
1.000000 0.459132 0.009299
0.090769 0.353949 0.017230
0.115898 0.357516 0.017438
0.141851 0.361208 0.017701
0.168457 0.365006 0.018037
0.196231 0.368905 0.017927
0.224497 0.372877 0.017823
0.253156 0.376908 0.017727
0.282122 0.380986 0.017638
0.311322 0.385101 0.017558
0.340689 0.389243 0.017486
0.370168 0.393405 0.017424
0.399709 0.397579 0.017370
0.430241 0.401761 0.017003
0.461013 0.405945 0.016560
0.491767 0.410126 0.016118
0.521505 0.414169 0.015693
0.551062 0.418188 0.015270
0.580431 0.422181 0.014850
0.609599 0.426147 0.014434
0.638553 0.430084 0.014021
0.667286 0.433991 0.013611
0.695792 0.437867 0.013205
0.724066 0.441711 0.012803
0.752109 0.445524 0.012403
0.779919 0.449306 0.012008
0.807500 0.453056 0.011616
0.835192 0.456822 0.011222
0.863844 0.460717 0.010811
0.892364 0.464595 0.010402
0.920759 0.468456 0.009995
0.949036 0.472300 0.009590
0.977199 0.476129 0.009186
1.000000 0.479944 0.008783
0.090107 0.374949 0.017310
0.115604 0.378526 0.017203
0.141988 0.382230 0.017099
0.169107 0.386041 0.017000
0.196830 0.389941 0.016907
0.225044 0.393913 0.016821
0.253651 0.397944 0.016742
0.282564 0.402022 0.016671
0.311661 0.406136 0.016624
0.340944 0.410278 0.016581
0.370366 0.414440 0.016537
0.399879 0.418615 0.016493
0.429442 0.422797 0.016449
0.460197 0.426980 0.016012
0.490951 0.431161 0.015570
0.521659 0.435336 0.015128
0.551106 0.439340 0.014707
0.580354 0.443317 0.014290
0.609401 0.447266 0.013875
0.638235 0.451187 0.013464
0.666848 0.455078 0.013057
0.695235 0.458937 0.012652
0.723391 0.462766 0.012252
0.751315 0.466563 0.011855
0.779008 0.470329 0.011461
0.806472 0.474063 0.011071
0.833710 0.477767 0.010685
0.861032 0.481482 0.010297
0.889553 0.485360 0.009888
0.917948 0.489221 0.009480
0.946224 0.493065 0.009075
0.974388 0.496894 0.008671
1.000000 0.500709 0.008269
0.091007 0.395923 0.016192
0.116458 0.399501 0.016100
0.142794 0.403205 0.016013
0.169768 0.407016 0.015962
0.197335 0.410916 0.015921
0.225415 0.414888 0.015879
0.253912 0.418919 0.015837
0.282741 0.422996 0.015794
0.311828 0.427111 0.015751
0.341111 0.431253 0.015707
0.370533 0.435415 0.015664
0.400046 0.439590 0.015620
0.429609 0.443771 0.015576
0.459384 0.447955 0.015465
0.490137 0.452136 0.015023
0.520845 0.456311 0.014581
0.551484 0.460476 0.014140
0.580621 0.464438 0.013725
0.609548 0.468371 0.013312
0.638262 0.472276 0.012903
0.666756 0.476150 0.012498
0.695023 0.479994 0.012095
0.723061 0.483806 0.011697
0.750868 0.487588 0.011302
0.778444 0.491337 0.010910
0.805791 0.495056 0.010522
0.832913 0.498744 0.010138
0.859814 0.502402 0.009757
0.886749 0.506065 0.009375
0.915144 0.509926 0.008967
0.943421 0.513770 0.008562
0.971584 0.517599 0.008158
0.999643 0.521414 0.007756
0.091514 0.416826 0.015208
0.116803 0.420404 0.015170
0.142992 0.424108 0.015131
0.169934 0.427919 0.015091
0.197501 0.431819 0.015050
0.225581 0.435791 0.015009
0.254078 0.439822 0.014966
0.282907 0.443900 0.014924
0.311995 0.448014 0.014880
0.341278 0.452156 0.014837
0.370700 0.456318 0.014793
0.400213 0.460493 0.014749
0.429775 0.464674 0.014705
0.459351 0.468858 0.014661
0.489327 0.473039 0.014478
0.520035 0.477214 0.014036
0.550673 0.481379 0.013595
0.581223 0.485533 0.013156
0.610035 0.489450 0.012745
0.638630 0.493339 0.012338
0.667005 0.497197 0.011935
0.695154 0.501025 0.011535
0.723074 0.504821 0.011138
0.750764 0.508586 0.010745
0.778223 0.512320 0.010355
0.805454 0.516023 0.009969
0.832461 0.519696 0.009587
0.859246 0.523338 0.009208
0.885817 0.526952 0.008832
0.912351 0.530560 0.008456
0.940627 0.534404 0.008051
0.969166 0.538284 0.007636
0.998370 0.542246 0.007158
0.091680 0.437649 0.014341
0.116969 0.441226 0.014303
0.143158 0.444931 0.014264
0.170100 0.448742 0.014224
0.197667 0.452641 0.014183
0.225747 0.456613 0.014141
0.254244 0.460644 0.014099
0.283073 0.464722 0.014056
0.312161 0.468837 0.014013
0.341443 0.472979 0.013970
0.370866 0.477141 0.013926
0.400379 0.481315 0.013882
0.429941 0.485497 0.013838
0.459517 0.489681 0.013794
0.489075 0.493862 0.013750
0.519227 0.498036 0.013493
0.549866 0.502202 0.013053
0.580416 0.506355 0.012613
0.610860 0.510494 0.012175
0.639336 0.514366 0.011770
0.667593 0.518209 0.011368
0.695624 0.522020 0.010970
0.723427 0.525801 0.010576
0.750999 0.529550 0.010185
0.778343 0.533269 0.009797
0.805458 0.536956 0.009413
0.832349 0.540613 0.009032
0.859020 0.544240 0.008655
0.886312 0.547947 0.008238
0.913725 0.551662 0.007762
0.941217 0.555381 0.007238
0.970607 0.559351 0.006639
0.999915 0.563305 0.006001
0.091794 0.458384 0.013494
0.117134 0.461961 0.013440
0.143323 0.465666 0.013401
0.170265 0.469477 0.013361
0.197832 0.473376 0.013320
0.225912 0.477348 0.013278
0.254409 0.481379 0.013236
0.283238 0.485457 0.013193
0.312326 0.489572 0.013149
0.341609 0.493714 0.013106
0.371031 0.497876 0.013062
0.400544 0.502050 0.013018
0.430106 0.506232 0.012974
0.459682 0.510416 0.012930
0.489240 0.514597 0.012887
0.518754 0.518772 0.012843
0.549062 0.522937 0.012512
0.579612 0.527090 0.012072
0.610057 0.531229 0.011634
0.640376 0.535351 0.011198
0.668514 0.539178 0.010799
0.696428 0.542973 0.010402
0.724114 0.546738 0.010010
0.751570 0.550472 0.009621
0.778958 0.554195 0.009227
0.806603 0.557946 0.008776
0.834242 0.561689 0.008272
0.861874 0.565423 0.007722
0.889499 0.569151 0.007130
0.917119 0.572873 0.006499
0.944739 0.576589 0.005830
0.972380 0.580303 0.005126
1.000000 0.584249 0.004357
0.090994 0.479027 0.012956
0.117299 0.482604 0.012580
0.143488 0.486308 0.012541
0.170430 0.490119 0.012501
0.197997 0.494019 0.012460
0.226077 0.497991 0.012418
0.254574 0.502022 0.012376
0.283403 0.506100 0.012333
0.312490 0.510214 0.012290
0.341773 0.514356 0.012246
0.371195 0.518518 0.012203
0.400708 0.522693 0.012159
0.430271 0.526875 0.012115
0.459846 0.531058 0.012071
0.489404 0.535239 0.012027
0.518918 0.539414 0.011983
0.548365 0.543580 0.011939
0.578811 0.547733 0.011534
0.609257 0.551872 0.011096
0.639585 0.555995 0.010660
0.669765 0.560098 0.010226
0.697646 0.563887 0.009809
0.725533 0.567667 0.009330
0.753415 0.571439 0.008801
0.781287 0.575204 0.008226
0.809146 0.578960 0.007610
0.836991 0.582709 0.006954
0.864823 0.586451 0.006261
0.892645 0.590187 0.005533
0.920459 0.593916 0.004770
0.948270 0.597640 0.003974
0.976082 0.601360 0.003146
1.000000 0.605077 0.002287
0.090197 0.499573 0.012421
0.116509 0.503150 0.012042
0.143652 0.506855 0.011685
0.170594 0.510666 0.011645
0.198160 0.514565 0.011604
0.226240 0.518537 0.011562
0.254737 0.522568 0.011520
0.283566 0.526646 0.011477
0.312654 0.530761 0.011434
0.341937 0.534903 0.011391
0.371359 0.539065 0.011347
0.400872 0.543240 0.011303
0.430434 0.547421 0.011259
0.460010 0.551605 0.011215
0.489568 0.555786 0.011171
0.519082 0.559961 0.011127
0.548529 0.564126 0.011083
0.578014 0.568279 0.010999
0.608488 0.572416 0.010517
0.638882 0.576534 0.009978
0.669182 0.580631 0.009389
0.699327 0.584701 0.008758
0.727426 0.588488 0.008119
0.755513 0.592267 0.007441
0.783586 0.596039 0.006724
0.811642 0.599803 0.005972
0.839682 0.603561 0.005186
0.867706 0.607311 0.004366
0.895717 0.611055 0.003514
0.923719 0.614793 0.002631
0.951716 0.618526 0.001717
0.979713 0.622255 0.000774
1.000000 0.625981 0.000000
0.089404 0.520022 0.011888
0.115716 0.523599 0.011509
0.142964 0.527303 0.011117
0.170756 0.531115 0.010794
0.198323 0.535014 0.010753
0.226403 0.538986 0.010711
0.254900 0.543017 0.010668
0.283729 0.547095 0.010626
0.312817 0.551209 0.010582
0.342100 0.555352 0.010539
0.371522 0.559513 0.010495
0.401035 0.563688 0.010451
0.430597 0.567870 0.010407
0.460173 0.572053 0.010363
0.489734 0.576234 0.010315
0.519286 0.580406 0.010209
0.548806 0.584564 0.010047
0.578272 0.588709 0.009835
0.608035 0.592836 0.009455
0.638530 0.596945 0.008759
0.668923 0.601035 0.008025
0.699207 0.605104 0.007254
0.729270 0.609138 0.006450
0.757553 0.612925 0.005641
0.785819 0.616705 0.004797
0.814066 0.620478 0.003922
0.842294 0.624244 0.003015
0.870505 0.628004 0.002078
0.898702 0.631757 0.001110
0.926888 0.635504 0.000115
0.955067 0.639246 0.000000
0.983246 0.642985 0.000000
1.000000 0.646189 0.000000
0.088615 0.540371 0.011357
0.114927 0.543949 0.010979
0.142175 0.547653 0.010586
0.170207 0.551464 0.010183
0.198485 0.555364 0.009905
0.226565 0.559336 0.009863
0.255062 0.563367 0.009821
0.283891 0.567445 0.009778
0.312979 0.571559 0.009735
0.342262 0.575701 0.009691
0.371684 0.579863 0.009648
0.401206 0.584037 0.009590
0.430815 0.588214 0.009469
0.460472 0.592391 0.009294
0.490142 0.596562 0.009068
0.519797 0.600724 0.008797
0.549411 0.604875 0.008483
0.578966 0.609011 0.008128
0.608444 0.613131 0.007733
0.638474 0.617232 0.007088
0.668950 0.621315 0.006225
0.699314 0.625377 0.005329
0.729560 0.629419 0.004401
0.759515 0.633416 0.003446
0.787969 0.637205 0.002485
0.816402 0.640988 0.001494
0.844816 0.644763 0.000474
0.873211 0.648532 0.000000
0.901590 0.652294 0.000000
0.929957 0.656051 0.000000
0.958317 0.659803 0.000000
0.986675 0.663551 0.000000
1.000000 0.666172 0.000000
0.087829 0.560623 0.010829
0.114141 0.564200 0.010451
0.141390 0.567904 0.010059
0.169422 0.571715 0.009655
0.198104 0.575615 0.009243
0.226727 0.579587 0.009020
0.255224 0.583618 0.008978
0.284053 0.587696 0.008935
0.313157 0.591809 0.008865
0.342495 0.595946 0.008732
0.372005 0.600100 0.008545
0.401637 0.604264 0.008309
0.431346 0.608433 0.008028
0.461096 0.612601 0.007702
0.490854 0.616764 0.007335
0.520592 0.620919 0.006927
0.550288 0.625062 0.006481
0.579921 0.629191 0.005999
0.609476 0.633304 0.005481
0.638940 0.637399 0.004929
0.669235 0.641475 0.004032
0.699674 0.645531 0.003020
0.729993 0.649567 0.001978
0.760189 0.653581 0.000908
0.790028 0.657542 0.000000
0.818645 0.661334 0.000000
0.847241 0.665119 0.000000
0.875818 0.668898 0.000000
0.904377 0.672670 0.000000
0.932923 0.676437 0.000000
0.961461 0.680199 0.000000
0.989996 0.683957 0.000000
1.000000 0.686011 0.000000
0.087048 0.580777 0.010304
0.113360 0.584354 0.009925
0.140608 0.588059 0.009533
0.168640 0.591870 0.009130
0.197323 0.595769 0.008716
0.226569 0.599739 0.008249
0.255476 0.603764 0.007989
0.284399 0.607833 0.007794
0.313610 0.611937 0.007551
0.343045 0.616066 0.007262
0.372646 0.620211 0.006929
0.402364 0.624368 0.006554
0.432156 0.628529 0.006137
0.461987 0.632690 0.005681
0.491823 0.636846 0.005187
0.521638 0.640994 0.004656
0.551408 0.645131 0.004090
0.581114 0.649253 0.003489
0.610741 0.653360 0.002855
0.640274 0.657449 0.002190
0.669760 0.661519 0.001475
0.700270 0.665569 0.000352
0.730659 0.669598 0.000000
0.760923 0.673606 0.000000
