flutter_app/assets/lut/cameras/inst_sq.cube
TITLE "Instax Square"
# DAZZ Camera LUT - Instax Square
# Generated for DAZZ retro camera app
LUT_3D_SIZE 9
DOMAIN_MIN 0.0 0.0 0.0
DOMAIN_MAX 1.0 1.0 1.0
0.187995 0.141464 0.107253
0.285252 0.140662 0.106451
0.395550 0.139753 0.105542
0.517024 0.138752 0.104541
0.641928 0.137722 0.103511
0.765828 0.136700 0.102489
0.881289 0.135748 0.101538
0.979803 0.134936 0.100725
0.979803 0.134936 0.100725
0.185321 0.235995 0.104579
0.282578 0.235193 0.103778
0.392876 0.234284 0.102868
0.514350 0.233282 0.101867
0.639254 0.232252 0.100837
0.763154 0.231231 0.099816
0.878615 0.230279 0.098864
0.977130 0.229467 0.098051
0.977130 0.229467 0.098051
0.182583 0.332781 0.101842
0.279840 0.331980 0.101040
0.390138 0.331070 0.100131
0.511613 0.330069 0.099129
0.636516 0.329039 0.098099
0.760416 0.328018 0.097078
0.875877 0.327066 0.096126
0.974392 0.326254 0.095314
0.974392 0.326254 0.095314
0.179575 0.439126 0.098834
0.276832 0.438324 0.098032
0.387130 0.437415 0.097123
0.508605 0.436413 0.096121
0.633508 0.435383 0.095091
0.757408 0.434362 0.094070
0.872869 0.433410 0.093118
0.971384 0.432598 0.092306
0.971384 0.432598 0.092306
0.176515 0.547307 0.095774
0.273772 0.546505 0.094972
0.384070 0.545596 0.094063
0.505545 0.544594 0.093061
0.630448 0.543565 0.092031
0.754348 0.542543 0.091010
0.869809 0.541591 0.090058
0.968324 0.540779 0.089246
0.968324 0.540779 0.089246
0.173440 0.656037 0.092698
0.270697 0.655235 0.091896
0.380994 0.654326 0.090987
0.502469 0.653324 0.089986
0.627373 0.652294 0.088956
0.751273 0.651273 0.087934
0.866734 0.650321 0.086982
0.965248 0.649509 0.086170
0.965248 0.649509 0.086170
0.170479 0.760705 0.089738
0.267736 0.759903 0.088936
0.378034 0.758994 0.088026
0.499509 0.757992 0.087025
0.624412 0.756963 0.085995
0.748312 0.755941 0.084974
0.863773 0.754989 0.084022
0.962288 0.754177 0.083210
0.962288 0.754177 0.083210
0.167722 0.858195 0.086980
0.264978 0.857393 0.086178
0.375276 0.856484 0.085269
0.496751 0.855482 0.084267
0.621654 0.854453 0.083238
0.745555 0.853431 0.082216
0.861015 0.852479 0.081264
0.959530 0.851667 0.080452
0.959530 0.851667 0.080452
0.165816 0.925563 0.085074
0.263073 0.924762 0.084273
0.373371 0.923852 0.083363
0.494845 0.922851 0.082362
0.619749 0.921821 0.081332
0.743649 0.920800 0.080311
0.859110 0.919848 0.079359
0.957625 0.919036 0.078546
0.957625 0.919036 0.078546
0.187729 0.141199 0.202603
0.284986 0.140397 0.201801
0.395284 0.139488 0.200892
0.516759 0.138486 0.199891
0.641662 0.137456 0.198861
0.765562 0.136435 0.197839
0.881023 0.135483 0.196888
0.979538 0.134671 0.196075
0.979538 0.134671 0.196075
0.185056 0.235729 0.199929
0.282312 0.234927 0.199128
0.392610 0.234018 0.198218
0.514085 0.233017 0.197217
0.638988 0.231987 0.196187
0.762889 0.230965 0.195166
0.878349 0.230014 0.194214
0.976864 0.229201 0.193401
0.976864 0.229201 0.193401
0.182318 0.332516 0.197192
0.279575 0.331714 0.196390
0.389872 0.330805 0.195481
0.511347 0.329803 0.194479
0.636251 0.328774 0.193449
0.760151 0.327752 0.192428
0.875612 0.326800 0.191476
0.974126 0.325988 0.190664
0.974126 0.325988 0.190664
0.179310 0.438860 0.194184
0.276567 0.438058 0.193382
0.386864 0.437149 0.192473
0.508339 0.436148 0.191471
0.633243 0.435118 0.190441
0.757143 0.434096 0.189420
0.872604 0.433144 0.188468
0.971118 0.432332 0.187656
0.971118 0.432332 0.187656
0.176250 0.547042 0.191124
0.273507 0.546240 0.190322
0.383804 0.545330 0.189413
0.505279 0.544329 0.188411
0.630183 0.543299 0.187381
0.754083 0.542278 0.186360
0.869544 0.541326 0.185408
0.968058 0.540514 0.184596
0.968058 0.540514 0.184596
0.173174 0.655771 0.188048
0.270431 0.654969 0.187246
0.380729 0.654060 0.186337
0.502204 0.653059 0.185336
0.627107 0.652029 0.184306
0.751007 0.651007 0.183284
0.866468 0.650055 0.182332
0.964983 0.649243 0.181520
0.964983 0.649243 0.181520
0.170214 0.760440 0.185088
0.267471 0.759638 0.184286
0.377768 0.758728 0.183376
0.499243 0.757727 0.182375
0.624146 0.756697 0.181345
0.748047 0.755676 0.180324
0.863507 0.754724 0.179372
0.962022 0.753912 0.178560
0.962022 0.753912 0.178560
0.167456 0.857929 0.182330
0.264713 0.857128 0.181528
0.375011 0.856218 0.180619
0.496485 0.855217 0.179617
0.621389 0.854187 0.178588
0.745289 0.853166 0.177566
0.860750 0.852214 0.176614
0.959265 0.851402 0.175802
0.959265 0.851402 0.175802
0.165551 0.925298 0.180424
0.262807 0.924496 0.179623
0.373105 0.923587 0.178713
0.494580 0.922585 0.177712
0.619483 0.921556 0.176682
0.743384 0.920534 0.175661
0.858844 0.919582 0.174709
0.957359 0.918770 0.173897
0.957359 0.918770 0.173897
0.187487 0.140957 0.289563
0.284744 0.140155 0.288762
0.395042 0.139245 0.287852
0.516517 0.138244 0.286851
0.641420 0.137214 0.285821
0.765320 0.136193 0.284800
0.880781 0.135241 0.283848
0.979296 0.134429 0.283035
0.979296 0.134429 0.283035
0.184813 0.235487 0.286890
0.282070 0.234685 0.286088
0.392368 0.233776 0.285178
0.513843 0.232775 0.284177
0.638746 0.231745 0.283147
0.762646 0.230723 0.282126
0.878107 0.229771 0.281174
0.976622 0.228959 0.280362
0.976622 0.228959 0.280362
0.182076 0.332274 0.284152
0.279333 0.331472 0.283350
0.389630 0.330563 0.282441
0.511105 0.329561 0.281439
0.636008 0.328531 0.280409
0.759909 0.327510 0.279388
0.875369 0.326558 0.278436
0.973884 0.325746 0.277624
0.973884 0.325746 0.277624
0.179068 0.438618 0.281144
0.276324 0.437816 0.280342
0.386622 0.436907 0.279433
0.508097 0.435905 0.278431
0.633000 0.434876 0.277401
0.756901 0.433854 0.276380
0.872361 0.432902 0.275428
0.970876 0.432090 0.274616
0.970876 0.432090 0.274616
0.176008 0.546799 0.278084
0.273265 0.545998 0.277282
0.383562 0.545088 0.276373
0.505037 0.544087 0.275371
0.629940 0.543057 0.274341
0.753841 0.542036 0.273320
0.869301 0.541084 0.272368
0.967816 0.540271 0.271556
0.967816 0.540271 0.271556
0.172932 0.655529 0.275008
0.270189 0.654727 0.274207
0.380487 0.653818 0.273297
0.501962 0.652816 0.272296
0.626865 0.651787 0.271266
0.750765 0.650765 0.270244
0.866226 0.649813 0.269293
0.964741 0.649001 0.268480
0.964741 0.649001 0.268480
0.169972 0.760197 0.272048
0.267228 0.759396 0.271246
0.377526 0.758486 0.270337
0.499001 0.757485 0.269335
0.623904 0.756455 0.268305
0.747805 0.755434 0.267284
0.863265 0.754482 0.266332
0.961780 0.753669 0.265520
0.961780 0.753669 0.265520
0.167214 0.857687 0.269290
0.264471 0.856885 0.268488
0.374769 0.855976 0.267579
0.496243 0.854975 0.266578
0.621147 0.853945 0.265548
0.745047 0.852923 0.264526
0.860508 0.851972 0.263574
0.959023 0.851159 0.262762
0.959023 0.851159 0.262762
0.165308 0.925056 0.267385
0.262565 0.924254 0.266583
0.372863 0.923345 0.265673
0.494338 0.922343 0.264672
0.619241 0.921313 0.263642
0.743141 0.920292 0.262621
0.858602 0.919340 0.261669
0.957117 0.918528 0.260857
0.957117 0.918528 0.260857
0.187247 0.140717 0.375692
0.284504 0.139915 0.374891
0.394802 0.139006 0.373981
0.516277 0.138004 0.372980
0.641180 0.136974 0.371950
0.765080 0.135953 0.370929
0.880541 0.135001 0.369977
0.979056 0.134189 0.369165
0.979056 0.134189 0.369165
0.184574 0.235247 0.373019
0.281830 0.234445 0.372217
0.392128 0.233536 0.371307
0.513603 0.232535 0.370306
0.638506 0.231505 0.369276
0.762407 0.230483 0.368255
0.877867 0.229532 0.367303
0.976382 0.228719 0.366491
0.976382 0.228719 0.366491
0.181836 0.332034 0.370281
0.279093 0.331232 0.369479
0.389390 0.330323 0.368570
0.510865 0.329321 0.367568
0.635769 0.328292 0.366539
0.759669 0.327270 0.365517
0.875130 0.326318 0.364565
0.973644 0.325506 0.363753
0.973644 0.325506 0.363753
0.178828 0.438378 0.367273
0.276085 0.437576 0.366471
0.386382 0.436667 0.365562
0.507857 0.435666 0.364560
0.632761 0.434636 0.363531
0.756661 0.433614 0.362509
0.872122 0.432662 0.361557
0.970636 0.431850 0.360745
0.970636 0.431850 0.360745
0.175768 0.546560 0.364213
0.273025 0.545758 0.363411
0.383322 0.544848 0.362502
0.504797 0.543847 0.361500
0.629701 0.542817 0.360471
0.753601 0.541796 0.359449
0.869062 0.540844 0.358497
0.967576 0.540032 0.357685
0.967576 0.540032 0.357685
0.172692 0.655289 0.361137
0.269949 0.654487 0.360336
0.380247 0.653578 0.359426
0.501722 0.652577 0.358425
0.626625 0.651547 0.357395
0.750525 0.650525 0.356374
0.865986 0.649573 0.355422
0.964501 0.648761 0.354609
0.964501 0.648761 0.354609
0.169732 0.759958 0.358177
0.266989 0.759156 0.357375
0.377286 0.758246 0.356466
0.498761 0.757245 0.355464
0.623664 0.756215 0.354434
0.747565 0.755194 0.353413
0.863025 0.754242 0.352461
0.961540 0.753430 0.351649
0.961540 0.753430 0.351649
0.166974 0.857447 0.355419
0.264231 0.856646 0.354617
0.374529 0.855736 0.353708
0.496003 0.854735 0.352707
0.620907 0.853705 0.351677
0.744807 0.852684 0.350655
0.860268 0.851732 0.349703
0.958783 0.850920 0.348891
0.958783 0.850920 0.348891
0.165069 0.924816 0.353514
0.262325 0.924014 0.352712
0.372623 0.923105 0.351802
0.494098 0.922103 0.350801
0.619001 0.921074 0.349771
0.742902 0.920052 0.348750
0.858362 0.919100 0.347798
0.956877 0.918288 0.346986
0.956877 0.918288 0.346986
0.186998 0.140467 0.465453
0.284254 0.139665 0.464651
0.394552 0.138756 0.463742
0.516027 0.137754 0.462740
0.640930 0.136724 0.461711
0.764831 0.135703 0.460689
0.880291 0.134751 0.459737
0.978806 0.133939 0.458925
0.978806 0.133939 0.458925
0.184324 0.234997 0.462779
0.281580 0.234196 0.461977
0.391878 0.233286 0.461068
0.513353 0.232285 0.460066
0.638256 0.231255 0.459037
0.762157 0.230234 0.458015
0.877617 0.229282 0.457063
0.976132 0.228469 0.456251
0.976132 0.228469 0.456251
0.181586 0.331784 0.460041
0.278843 0.330982 0.459240
0.389141 0.330073 0.458330
0.510615 0.329071 0.457329
0.635519 0.328042 0.456299
0.759419 0.327020 0.455278
0.874880 0.326068 0.454326
0.973394 0.325256 0.453514
0.973394 0.325256 0.453514
0.178578 0.438128 0.457033
0.275835 0.437326 0.456232
0.386133 0.436417 0.455322
0.507607 0.435416 0.454321
0.632511 0.434386 0.453291
0.756411 0.433364 0.452270
0.871872 0.432413 0.451318
0.970386 0.431600 0.450505
0.970386 0.431600 0.450505
0.175518 0.546310 0.453973
0.272775 0.545508 0.453172
0.383073 0.544598 0.452262
0.504547 0.543597 0.451261
0.629451 0.542567 0.450231
0.753351 0.541546 0.449210
0.868812 0.540594 0.448258
0.967326 0.539782 0.447445
0.967326 0.539782 0.447445
0.172442 0.655039 0.450898
0.269699 0.654237 0.450096
0.379997 0.653328 0.449187
0.501472 0.652327 0.448185
0.626375 0.651297 0.447156
0.750275 0.650275 0.446134
0.865736 0.649324 0.445182
0.964251 0.648511 0.444370
0.964251 0.648511 0.444370
0.169482 0.759708 0.447937
0.266739 0.758906 0.447135
0.377036 0.757996 0.446226
0.498511 0.756995 0.445225
0.623414 0.755965 0.444195
0.747315 0.754944 0.443173
0.862776 0.753992 0.442222
0.961290 0.753180 0.441409
0.961290 0.753180 0.441409
0.166724 0.857198 0.445180
0.263981 0.856396 0.444378
0.374279 0.855486 0.443469
0.495754 0.854485 0.442467
0.620657 0.853455 0.441437
0.744557 0.852434 0.440416
0.860018 0.851482 0.439464
0.958533 0.850670 0.438652
0.958533 0.850670 0.438652
0.164819 0.924566 0.443274
0.262075 0.923764 0.442472
0.372373 0.922855 0.441563
0.493848 0.921853 0.440562
0.618751 0.920824 0.439532
0.742652 0.919802 0.438510
0.858112 0.918850 0.437558
0.956627 0.918038 0.436746
0.956627 0.918038 0.436746
0.186752 0.140221 0.553568
0.284009 0.139420 0.552766
0.394307 0.138510 0.551857
0.515781 0.137509 0.550856
0.640685 0.136479 0.549826
0.764585 0.135458 0.548804
0.880046 0.134506 0.547853
0.978561 0.133693 0.547040
0.978561 0.133693 0.547040
0.184078 0.234752 0.550894
0.281335 0.233950 0.550093
0.391633 0.233041 0.549183
0.513108 0.232039 0.548182
0.638011 0.231010 0.547152
0.761911 0.229988 0.546131
0.877372 0.229036 0.545179
0.975887 0.228224 0.544366
0.975887 0.228224 0.544366
0.181341 0.331539 0.548157
0.278597 0.330737 0.547355
0.388895 0.329827 0.546446
0.510370 0.328826 0.545444
0.635273 0.327796 0.544414
0.759174 0.326775 0.543393
0.874634 0.325823 0.542441
0.973149 0.325011 0.541629
0.973149 0.325011 0.541629
0.178333 0.437883 0.545149
0.275589 0.437081 0.544347
0.385887 0.436172 0.543438
0.507362 0.435170 0.542436
0.632265 0.434141 0.541406
0.756166 0.433119 0.540385
0.871626 0.432167 0.539433
0.970141 0.431355 0.538621
0.970141 0.431355 0.538621
0.175273 0.546064 0.542089
0.272529 0.545262 0.541287
0.382827 0.544353 0.540378
0.504302 0.543352 0.539376
0.629205 0.542322 0.538346
0.753106 0.541300 0.537325
0.868566 0.540348 0.536373
0.967081 0.539536 0.535561
0.967081 0.539536 0.535561
0.172197 0.654794 0.539013
0.269454 0.653992 0.538211
0.379752 0.653083 0.537302
0.501226 0.652081 0.536301
0.626130 0.651052 0.535271
0.750030 0.650030 0.534249
0.865491 0.649078 0.533297
0.964006 0.648266 0.532485
0.964006 0.648266 0.532485
0.169236 0.759462 0.536053
0.266493 0.758660 0.535251
0.376791 0.757751 0.534341
0.498266 0.756750 0.533340
0.623169 0.755720 0.532310
0.747069 0.754698 0.531289
0.862530 0.753746 0.530337
0.961045 0.752934 0.529525
0.961045 0.752934 0.529525
0.166479 0.856952 0.533295
0.263736 0.856150 0.532493
0.374033 0.855241 0.531584
0.495508 0.854240 0.530582
0.620412 0.853210 0.529553
0.744312 0.852188 0.528531
0.859773 0.851236 0.527579
0.958287 0.850424 0.526767
0.958287 0.850424 0.526767
0.164573 0.924321 0.531389
0.261830 0.923519 0.530588
0.372128 0.922609 0.529678
0.493603 0.921608 0.528677
0.618506 0.920578 0.527647
0.742406 0.919557 0.526626
0.857867 0.918605 0.525674
0.956382 0.917793 0.524862
0.956382 0.917793 0.524862
0.186510 0.139980 0.640391
0.283767 0.139178 0.639589
0.394065 0.138268 0.638680
0.515540 0.137267 0.637679
0.640443 0.136237 0.636649
0.764343 0.135216 0.635627
0.879804 0.134264 0.634675
0.978319 0.133452 0.633863
0.978319 0.133452 0.633863
0.183836 0.234510 0.637717
0.281093 0.233708 0.636915
0.391391 0.232799 0.636006
0.512866 0.231798 0.635005
0.637769 0.230768 0.633975
0.761669 0.229746 0.632953
0.877130 0.228794 0.632002
0.975645 0.227982 0.631189
0.975645 0.227982 0.631189
0.181099 0.331297 0.634980
0.278356 0.330495 0.634178
0.388653 0.329586 0.633268
0.510128 0.328584 0.632267
0.635031 0.327554 0.631237
0.758932 0.326533 0.630216
0.874393 0.325581 0.629264
0.972907 0.324769 0.628452
0.972907 0.324769 0.628452
0.178091 0.437641 0.631972
0.275348 0.436839 0.631170
0.385645 0.435930 0.630260
0.507120 0.434929 0.629259
0.632023 0.433899 0.628229
0.755924 0.432877 0.627208
0.871385 0.431925 0.626256
0.969899 0.431113 0.625444
0.969899 0.431113 0.625444
0.175031 0.545822 0.628912
0.272288 0.545021 0.628110
0.382585 0.544111 0.627200
0.504060 0.543110 0.626199
0.628963 0.542080 0.625169
0.752864 0.541059 0.624148
0.868325 0.540107 0.623196
0.966839 0.539295 0.622384
0.966839 0.539295 0.622384
0.171955 0.654552 0.625836
0.269212 0.653750 0.625034
0.379510 0.652841 0.624125
0.500985 0.651839 0.623123
0.625888 0.650810 0.622094
0.749788 0.649788 0.621072
0.865249 0.648836 0.620120
0.963764 0.648024 0.619308
0.963764 0.648024 0.619308
0.168995 0.759220 0.622875
0.266251 0.758419 0.622074
0.376549 0.757509 0.621164
0.498024 0.756508 0.620163
0.622927 0.755478 0.619133
0.746828 0.754457 0.618112
0.862288 0.753505 0.617160
0.960803 0.752692 0.616348
0.960803 0.752692 0.616348
0.166237 0.856710 0.620118
0.263494 0.855909 0.619316
0.373792 0.854999 0.618407
0.495266 0.853998 0.617405
0.620170 0.852968 0.616376
0.744070 0.851947 0.615354
0.859531 0.850995 0.614402
0.958046 0.850182 0.613590
0.958046 0.850182 0.613590
0.164332 0.924079 0.618212
0.261588 0.923277 0.617410
0.371886 0.922368 0.616501
0.493361 0.921366 0.615500
0.618264 0.920336 0.614470
0.742165 0.919315 0.613448
0.857625 0.918363 0.612497
0.956140 0.917551 0.611684
0.956140 0.917551 0.611684
0.186272 0.139741 0.726152
0.283528 0.138939 0.725350
0.393826 0.138030 0.724441
0.515301 0.137028 0.723439
0.640204 0.135998 0.722410
0.764105 0.134977 0.721388
0.879565 0.134025 0.720436
0.978080 0.133213 0.719624
0.978080 0.133213 0.719624
0.183598 0.234271 0.723478
0.280854 0.233470 0.722676
0.391152 0.232560 0.721767
0.512627 0.231559 0.720766
0.637530 0.230529 0.719736
0.761431 0.229508 0.718714
0.876891 0.228556 0.717762
0.975406 0.227743 0.716950
0.975406 0.227743 0.716950
0.180860 0.331058 0.720740
0.278117 0.330256 0.719939
0.388415 0.329347 0.719029
0.509889 0.328345 0.718028
0.634793 0.327316 0.716998
0.758693 0.326294 0.715977
0.874154 0.325342 0.715025
0.972668 0.324530 0.714213
0.972668 0.324530 0.714213
0.177852 0.437402 0.717732
0.275109 0.436601 0.716931
0.385407 0.435691 0.716021
0.506881 0.434690 0.715020
0.631785 0.433660 0.713990
0.755685 0.432638 0.712969
0.871146 0.431687 0.712017
0.969660 0.430874 0.711205
0.969660 0.430874 0.711205
0.174792 0.545584 0.714672
0.272049 0.544782 0.713871
0.382347 0.543872 0.712961
0.503821 0.542871 0.711960
0.628725 0.541841 0.710930
0.752625 0.540820 0.709909
0.868086 0.539868 0.708957
0.966600 0.539056 0.708145
0.966600 0.539056 0.708145
0.171716 0.654313 0.711597
0.268973 0.653511 0.710795
0.379271 0.652602 0.709886
0.500746 0.651601 0.708884
0.625649 0.650571 0.707855
0.749549 0.649549 0.706833
0.865010 0.648598 0.705881
0.963525 0.647785 0.705069
0.963525 0.647785 0.705069
0.168756 0.758982 0.708636
0.266013 0.758180 0.707835
0.376310 0.757270 0.706925
0.497785 0.756269 0.705924
0.622689 0.755239 0.704894
0.746589 0.754218 0.703872
0.862050 0.753266 0.702921
0.960564 0.752454 0.702108
0.960564 0.752454 0.702108
0.165998 0.856472 0.705879
0.263255 0.855670 0.705077
0.373553 0.854760 0.704168
0.495028 0.853759 0.703166
0.619931 0.852729 0.702136
0.743831 0.851708 0.701115
0.859292 0.850756 0.700163
0.957807 0.849944 0.699351
0.957807 0.849944 0.699351
0.164093 0.923840 0.703973
0.261349 0.923038 0.703171
0.371647 0.922129 0.702262
0.493122 0.921127 0.701261
0.618025 0.920098 0.700231
0.741926 0.919076 0.699209
0.857386 0.918124 0.698257
0.955901 0.917312 0.697445
0.955901 0.917312 0.697445
0.186057 0.139527 0.803092
0.283314 0.138725 0.802290
0.393612 0.137815 0.801381
0.515087 0.136814 0.800380
0.639990 0.135784 0.799350
0.763890 0.134763 0.798328
0.879351 0.133811 0.797377
0.977866 0.132999 0.796564
0.977866 0.132999 0.796564
0.183383 0.234057 0.800418
0.280640 0.233255 0.799617
0.390938 0.232346 0.798707
0.512413 0.231345 0.797706
0.637316 0.230315 0.796676
0.761216 0.229293 0.795655
0.876677 0.228341 0.794703
0.975192 0.227529 0.793890
0.975192 0.227529 0.793890
0.180646 0.330844 0.797681
0.277903 0.330042 0.796879
0.388200 0.329133 0.795970
0.509675 0.328131 0.794968
0.634578 0.327101 0.793938
0.758479 0.326080 0.792917
0.873939 0.325128 0.791965
0.972454 0.324316 0.791153
0.972454 0.324316 0.791153
0.177638 0.437188 0.794673
0.274894 0.436386 0.793871
0.385192 0.435477 0.792962
0.506667 0.434475 0.791960
0.631570 0.433446 0.790930
0.755471 0.432424 0.789909
0.870931 0.431472 0.788957
0.969446 0.430660 0.788145
0.969446 0.430660 0.788145
0.174578 0.545369 0.791613
0.271835 0.544568 0.790811
0.382132 0.543658 0.789902
0.503607 0.542657 0.788900
0.628510 0.541627 0.787870
0.752411 0.540606 0.786849
0.867871 0.539654 0.785897
0.966386 0.538841 0.785085
0.966386 0.538841 0.785085
0.171502 0.654099 0.788537
0.268759 0.653297 0.787735
0.379057 0.652388 0.786826
0.500532 0.651386 0.785825
0.625435 0.650357 0.784795
0.749335 0.649335 0.783773
0.864796 0.648383 0.782821
0.963311 0.647571 0.782009
0.963311 0.647571 0.782009
0.168542 0.758767 0.785577
0.265798 0.757966 0.784775
0.376096 0.757056 0.783865
0.497571 0.756055 0.782864
0.622474 0.755025 0.781834
0.746375 0.754004 0.780813
0.861835 0.753052 0.779861
0.960350 0.752239 0.779049
0.960350 0.752239 0.779049
0.165784 0.856257 0.782819
0.263041 0.855455 0.782017
0.373339 0.854546 0.781108
0.494813 0.853545 0.780106
0.619717 0.852515 0.779077
0.743617 0.851493 0.778055
0.859078 0.850542 0.777103
0.957593 0.849729 0.776291
0.957593 0.849729 0.776291
0.163878 0.923626 0.780913
0.261135 0.922824 0.780112
0.371433 0.921915 0.779202
0.492908 0.920913 0.778201
0.617811 0.919883 0.777171
0.741711 0.918862 0.776150
0.857172 0.917910 0.775198
0.955687 0.917098 0.774385
0.955687 0.917098 0.774385
