flutter_app/assets/lut/cameras/inst_s.cube
TITLE "INST S - Portrait Soft"
LUT_3D_SIZE 5
0.076631 0.073563 0.073563
0.312638 0.063150 0.063150
0.540852 0.056012 0.056012
0.723290 0.053065 0.053065
0.873439 0.052597 0.052597
0.056283 0.297239 0.053271
0.293334 0.287192 0.042886
0.525516 0.277932 0.039331
0.710169 0.273123 0.039329
0.862300 0.271047 0.041279
0.042014 0.519578 0.039068
0.277407 0.512650 0.030273
0.515611 0.506779 0.021316
0.700013 0.501886 0.024440
0.850205 0.498336 0.028935
0.035951 0.701806 0.033065
0.270059 0.695864 0.025801
0.509961 0.690825 0.017997
0.692906 0.686567 0.012481
0.840418 0.681659 0.018905
0.034936 0.850084 0.032098
0.266282 0.846241 0.026135
0.503576 0.841223 0.019732
0.684088 0.836444 0.014821
0.832644 0.832644 0.010912
0.072655 0.069653 0.312265
0.308905 0.059231 0.302170
0.537877 0.052784 0.290182
0.720746 0.050407 0.283126
0.871279 0.050406 0.279201
0.052293 0.293498 0.292884
0.289687 0.283398 0.282769
0.526587 0.273047 0.272432
0.715181 0.267345 0.266741
0.870758 0.264538 0.263944
0.038669 0.516648 0.274098
0.269107 0.510946 0.262324
0.509000 0.501993 0.251833
0.700504 0.497200 0.248959
0.855031 0.494497 0.248579
0.033149 0.699338 0.263993
0.257501 0.696865 0.250841
0.496538 0.688871 0.241701
0.689286 0.683951 0.234452
0.842314 0.679661 0.236086
0.032571 0.848020 0.259569
0.251877 0.848322 0.245322
0.488347 0.842481 0.237450
0.678538 0.837236 0.231081
0.832218 0.832218 0.226124
0.069850 0.066920 0.544643
0.302174 0.058279 0.536664
0.534711 0.049345 0.528120
0.718037 0.047574 0.517004
0.868980 0.048072 0.509700
0.053056 0.288461 0.529281
0.285609 0.279462 0.526182
0.522797 0.269076 0.516067
0.711827 0.263949 0.506303
0.867798 0.261615 0.500098
0.035193 0.513471 0.512884
0.265007 0.507190 0.506590
0.503386 0.497132 0.496518
0.698944 0.489878 0.488035
0.858901 0.487480 0.482803
0.030291 0.696625 0.498848
0.253905 0.693604 0.491197
0.486502 0.686756 0.479745
0.682455 0.678953 0.471218
0.843043 0.674730 0.467971
0.030210 0.845712 0.491117
0.248689 0.845494 0.482358
0.476458 0.841423 0.469797
0.669642 0.835558 0.462145
0.830490 0.830356 0.455953
0.068641 0.065771 0.732834
0.297552 0.058678 0.726020
0.526934 0.051226 0.718882
0.715776 0.045207 0.712928
0.867060 0.046122 0.702232
0.054839 0.285334 0.719781
0.283287 0.277263 0.722325
0.517168 0.268360 0.713439
0.709012 0.261118 0.706100
0.865305 0.259183 0.696546
0.040159 0.508427 0.705766
0.265714 0.503026 0.705067
0.500033 0.493898 0.700586
0.694768 0.485501 0.691792
0.856080 0.481884 0.683378
0.027903 0.694361 0.694106
0.251048 0.690778 0.690518
0.483133 0.683403 0.683137
0.677378 0.674623 0.674352
0.843313 0.668298 0.666564
0.028237 0.843785 0.683010
0.246227 0.842987 0.678297
0.473397 0.838418 0.669748
0.663455 0.831821 0.659771
0.829465 0.826382 0.651553
0.068416 0.065596 0.883302
0.294557 0.059744 0.877513
0.521242 0.053598 0.871445
0.707582 0.048562 0.866485
0.865522 0.044557 0.862252
0.057014 0.283540 0.872278
0.282139 0.276215 0.879669
0.513265 0.268562 0.871791
0.702639 0.262290 0.865352
0.863307 0.257232 0.859958
0.044903 0.505065 0.860353
0.267006 0.500370 0.864481
0.498026 0.491989 0.864850
0.690332 0.484543 0.856851
0.854320 0.478484 0.849821
0.034785 0.689441 0.850432
0.254388 0.686591 0.851566
0.483060 0.679986 0.849016
0.675275 0.671841 0.843590
0.841832 0.664526 0.835211
0.026672 0.842233 0.842504
0.244264 0.840974 0.841251
0.471409 0.835921 0.835989
0.661945 0.828951 0.828149
0.828123 0.821348 0.819800
