flutter_app/assets/lut/cameras/inst_c_polaroid_warm.cube
TITLE "Instax Mini C - Polaroid Warm v12"
# DAZZ Camera LUT - Polaroid 600 Warm Tone
# v12 - Enhanced highlight warmth R/B warmth + exact G control
LUT_3D_SIZE 5
0.106769 0.043150 0.017218
0.333983 0.080489 0.015224
0.577243 0.113802 0.013407
0.815968 0.146505 0.011700
1.000000 0.175287 0.010495
0.096266 0.206682 0.017418
0.320707 0.237815 0.016815
0.563481 0.271117 0.015384
0.799163 0.303503 0.014397
1.000000 0.333652 0.012481
0.090107 0.374949 0.017310
0.311661 0.406136 0.016624
0.551106 0.439340 0.014707
0.779008 0.470329 0.011461
1.000000 0.500709 0.008269
0.088615 0.540371 0.011357
0.312979 0.571559 0.009735
0.549411 0.604875 0.008483
0.787969 0.637205 0.002485
1.000000 0.666172 0.000000
0.086166 0.699528 0.001389
0.319405 0.730390 0.000000
0.562449 0.763299 0.000000
0.800191 0.795791 0.000000
1.000000 0.822999 0.000000
0.103690 0.083677 0.249413
0.331123 0.113312 0.247074
0.574354 0.146625 0.245280
0.813042 0.179327 0.243603
1.000000 0.208215 0.242425
0.090635 0.239553 0.250247
0.317947 0.264631 0.249003
0.558869 0.342985 0.245912
0.795385 0.390060 0.244705
1.000000 0.425523 0.241508
0.081600 0.407789 0.250731
0.308681 0.351992 0.252695
0.550691 0.427156 0.247764
0.777659 0.499421 0.242912
1.000000 0.550130 0.238923
0.083761 0.573211 0.243560
0.308257 0.491603 0.247718
0.548562 0.552903 0.243034
0.789154 0.612441 0.234394
1.000000 0.673721 0.223947
0.085151 0.732269 0.230883
0.321340 0.638449 0.226575
0.562883 0.692133 0.216192
0.803481 0.744682 0.203393
1.000000 0.786017 0.188171
0.100646 0.126627 0.500574
0.328054 0.152098 0.496588
0.571251 0.181739 0.493353
0.809894 0.214440 0.491711
1.000000 0.243444 0.490570
0.087474 0.280060 0.500523
0.312970 0.346497 0.496113
0.553855 0.420138 0.492581
0.792089 0.453321 0.491230
1.000000 0.481699 0.488158
0.072958 0.444206 0.500811
0.304096 0.430007 0.499054
0.547883 0.501938 0.493680
0.785554 0.591329 0.488033
1.000000 0.646533 0.483907
0.071869 0.608344 0.494210
0.301367 0.554768 0.495043
0.547858 0.559223 0.490475
0.788434 0.645995 0.479921
1.000000 0.725146 0.468132
0.079776 0.767283 0.477643
0.314863 0.694385 0.472109
0.561470 0.665114 0.463804
0.805397 0.737967 0.448362
1.000000 0.794365 0.432018
0.097649 0.161513 0.744246
0.325030 0.192652 0.742549
0.568192 0.220456 0.738608
0.806785 0.248912 0.735308
1.000000 0.278035 0.734211
0.084350 0.318839 0.745854
0.309200 0.402241 0.741935
0.550399 0.458387 0.737741
0.788728 0.515358 0.733113
1.000000 0.536850 0.730307
0.070663 0.483909 0.745845
0.300155 0.511909 0.742316
0.543488 0.595061 0.735087
0.782291 0.681339 0.728818
1.000000 0.722277 0.725047
0.064248 0.645089 0.739836
0.296436 0.619602 0.738104
0.544221 0.649508 0.730236
0.786694 0.733800 0.718592
0.998112 0.816347 0.706063
0.069732 0.801645 0.721305
0.305412 0.749282 0.714020
0.558191 0.740508 0.702100
0.805861 0.771282 0.687113
0.997250 0.842174 0.669687
0.094751 0.194748 0.979003
0.322105 0.225886 0.977328
0.565228 0.259196 0.975620
0.803766 0.286329 0.971835
1.000000 0.311385 0.969120
0.081315 0.352071 0.980721
0.305810 0.443261 0.977143
0.546772 0.497547 0.975692
0.786801 0.545788 0.969429
1.000000 0.590017 0.963748
0.068451 0.520415 0.981359
0.297149 0.569728 0.977356
0.540232 0.661323 0.970670
0.779569 0.730465 0.963599
0.997949 0.795188 0.957171
0.062045 0.683363 0.976042
0.293470 0.691116 0.971750
0.540970 0.741590 0.962505
0.783756 0.829167 0.948588
0.993642 0.908190 0.935080
0.065306 0.837597 0.955419
0.302595 0.805608 0.946343
0.555856 0.815877 0.932483
0.804094 0.863988 0.914886
0.993087 0.926278 0.897156
