flutter_app/assets/lut/cameras/u300.cube
TITLE "U300"
# DAZZ Camera LUT - U300
# Generated for DAZZ retro camera app
LUT_3D_SIZE 5
DOMAIN_MIN 0.0 0.0 0.0
DOMAIN_MAX 1.0 1.0 1.0
0.011935 0.053485 0.078051
0.248133 0.048830 0.073396
0.471679 0.044424 0.068990
0.691876 0.040084 0.064651
0.904030 0.035903 0.060470
0.000000 0.300948 0.060843
0.230924 0.296293 0.056188
0.454470 0.291887 0.051782
0.674667 0.287548 0.047442
0.886821 0.283367 0.043261
0.000000 0.564783 0.042496
0.212577 0.560128 0.037841
0.436123 0.555722 0.033435
0.656320 0.551383 0.029095
0.868475 0.547202 0.024914
0.000000 0.829234 0.024106
0.194188 0.824578 0.019451
0.417734 0.820173 0.015045
0.637931 0.815833 0.010705
0.850085 0.811652 0.006524
0.000000 1.000000 0.011957
0.182039 0.999283 0.007302
0.405585 0.994877 0.002896
0.625782 0.990537 0.000000
0.837936 0.986356 0.000000
0.010138 0.051687 0.350082
0.246336 0.047032 0.345427
0.469881 0.042627 0.341021
0.690079 0.038287 0.336682
0.902233 0.034106 0.332501
0.000000 0.299151 0.332874
0.229127 0.294496 0.328219
0.452673 0.290090 0.323813
0.672870 0.285750 0.319473
0.885024 0.281569 0.315292
0.000000 0.562986 0.314527
0.210780 0.558331 0.309872
0.434326 0.553925 0.305466
0.654523 0.549585 0.301126
0.866677 0.545404 0.296945
0.000000 0.827436 0.296137
0.192390 0.822781 0.291482
0.415936 0.818376 0.287076
0.636133 0.814036 0.282737
0.848287 0.809855 0.278555
0.000000 1.000000 0.283988
0.180241 0.997485 0.279333
0.403787 0.993080 0.274927
0.623985 0.988740 0.270588
0.836139 0.984559 0.266407
0.008127 0.049676 0.654470
0.244324 0.045021 0.649815
0.467870 0.040616 0.645409
0.688068 0.036276 0.641070
0.900222 0.032095 0.636889
0.000000 0.297140 0.637262
0.227116 0.292485 0.632607
0.450662 0.288079 0.628201
0.670859 0.283739 0.623861
0.883013 0.279558 0.619680
0.000000 0.560975 0.618915
0.208769 0.556320 0.614260
0.432315 0.551914 0.609854
0.652512 0.547574 0.605514
0.864666 0.543393 0.601333
0.000000 0.825425 0.600525
0.190379 0.820770 0.595870
0.413925 0.816364 0.591464
0.634122 0.812025 0.587125
0.846276 0.807844 0.582943
0.000000 1.000000 0.588376
0.178230 0.995474 0.583721
0.401776 0.991069 0.579315
0.621973 0.986729 0.574976
0.834128 0.982548 0.570795
0.006084 0.047633 0.963682
0.242281 0.042978 0.959026
0.465827 0.038573 0.954621
0.686025 0.034233 0.950281
0.898179 0.030052 0.946100
0.000000 0.295097 0.946473
0.225073 0.290442 0.941818
0.448619 0.286036 0.937412
0.668816 0.281696 0.933073
0.880970 0.277515 0.928891
0.000000 0.558932 0.928126
0.206726 0.554277 0.923471
0.430272 0.549871 0.919065
0.650469 0.545531 0.914726
0.862623 0.541350 0.910545
0.000000 0.823382 0.909736
0.188336 0.818727 0.905081
0.411882 0.814321 0.900676
0.632079 0.809982 0.896336
0.844233 0.805801 0.892155
0.000000 0.998086 0.897587
0.176187 0.993431 0.892932
0.399733 0.989026 0.888527
0.619931 0.984686 0.884187
0.832085 0.980505 0.880006
0.005304 0.046853 1.000000
0.241501 0.042198 1.000000
0.465047 0.037792 1.000000
0.685244 0.033453 1.000000
0.897398 0.029272 1.000000
0.000000 0.294317 1.000000
0.224293 0.289661 1.000000
0.447839 0.285256 1.000000
0.668036 0.280916 1.000000
0.880190 0.276735 1.000000
0.000000 0.558151 1.000000
0.205946 0.553496 1.000000
0.429492 0.549091 1.000000
0.649689 0.544751 1.000000
0.861843 0.540570 1.000000
0.000000 0.822602 1.000000
0.187556 0.817947 1.000000
0.411102 0.813541 1.000000
0.631299 0.809202 1.000000
0.843453 0.805020 1.000000
0.000000 0.997306 1.000000
0.175407 0.992651 1.000000
0.398953 0.988245 1.000000
0.619150 0.983906 1.000000
0.831304 0.979724 0.998102
