flutter_app/assets/lut/cameras/u300.cube
TITLE "U300"
# DAZZ Camera LUT - U300
# Generated for DAZZ retro camera app
LUT_3D_SIZE 33
DOMAIN_MIN 0.0 0.0 0.0
DOMAIN_MAX 1.0 1.0 1.0
0.011935 0.053485 0.078051
0.045399 0.052825 0.077392
0.076018 0.052222 0.076788
0.105742 0.051636 0.076202
0.134900 0.051061 0.075628
0.163643 0.050495 0.075061
0.192061 0.049935 0.074501
0.220211 0.049380 0.073946
0.248133 0.048830 0.073396
0.275858 0.048283 0.072850
0.303408 0.047740 0.072307
0.330968 0.047197 0.071764
0.359357 0.046638 0.071204
0.387613 0.046081 0.070647
0.415746 0.045526 0.070093
0.443765 0.044974 0.069540
0.471679 0.044424 0.068990
0.499494 0.043876 0.068442
0.527216 0.043329 0.067896
0.554852 0.042785 0.067351
0.582405 0.042242 0.066808
0.609880 0.041700 0.066267
0.637281 0.041160 0.065727
0.664612 0.040622 0.065188
0.691876 0.040084 0.064651
0.719075 0.039548 0.064115
0.746213 0.039013 0.063580
0.772811 0.038489 0.063056
0.799157 0.037970 0.062536
0.825450 0.037452 0.062018
0.851693 0.036935 0.061501
0.877885 0.036418 0.060985
0.904030 0.035903 0.060470
0.009851 0.083457 0.075967
0.043315 0.082797 0.075307
0.073934 0.082194 0.074704
0.103658 0.081608 0.074118
0.132816 0.081033 0.073543
0.161559 0.080467 0.072977
0.189977 0.079907 0.072417
0.218126 0.079352 0.071862
0.246049 0.078802 0.071312
0.273773 0.078255 0.070765
0.301324 0.077712 0.070222
0.328883 0.077169 0.069679
0.357273 0.076610 0.069120
0.385529 0.076053 0.068563
0.413662 0.075498 0.068008
0.441681 0.074946 0.067456
0.469594 0.074396 0.066906
0.497410 0.073848 0.066358
0.525132 0.073301 0.065812
0.552767 0.072757 0.065267
0.580321 0.072214 0.064724
0.607796 0.071672 0.064182
0.635197 0.071132 0.063642
0.662528 0.070594 0.063104
0.689792 0.070056 0.062566
0.716991 0.069520 0.062030
0.744129 0.068985 0.061496
0.770726 0.068461 0.060971
0.797073 0.067942 0.060452
0.823366 0.067424 0.059934
0.849608 0.066907 0.059417
0.875801 0.066390 0.058901
0.901946 0.065875 0.058385
0.007729 0.113968 0.073845
0.041193 0.113309 0.073186
0.071812 0.112705 0.072582
0.101536 0.112119 0.071996
0.130694 0.111545 0.071422
0.159437 0.110978 0.070855
0.187855 0.110418 0.070295
0.216005 0.109863 0.069740
0.243927 0.109313 0.069190
0.271652 0.108767 0.068644
0.299202 0.108224 0.068101
0.326762 0.107680 0.067558
0.355151 0.107121 0.066998
0.383407 0.106564 0.066441
0.411540 0.106010 0.065887
0.439559 0.105457 0.065335
0.467473 0.104907 0.064784
0.495288 0.104359 0.064236
0.523010 0.103813 0.063690
0.550646 0.103268 0.063145
0.578199 0.102725 0.062602
0.605674 0.102184 0.062061
0.633075 0.101644 0.061521
0.660406 0.101105 0.060982
0.687670 0.100568 0.060445
0.714869 0.100032 0.059909
0.742007 0.099497 0.059374
0.768605 0.098973 0.058850
0.794951 0.098453 0.058330
0.821245 0.097935 0.057812
0.847487 0.097418 0.057295
0.873679 0.096902 0.056779
0.899824 0.096386 0.056264
0.005588 0.144761 0.071704
0.039051 0.144102 0.071044
0.069671 0.143498 0.070441
0.099395 0.142912 0.069855
0.128553 0.142338 0.069280
0.157296 0.141771 0.068714
0.185714 0.141211 0.068154
0.213863 0.140656 0.067599
0.241786 0.140106 0.067049
0.269510 0.139560 0.066502
0.297061 0.139017 0.065959
0.324620 0.138474 0.065416
0.353010 0.137914 0.064857
0.381266 0.137357 0.064300
0.409398 0.136803 0.063745
0.437418 0.136251 0.063193
0.465331 0.135700 0.062643
0.493146 0.135152 0.062095
0.520869 0.134606 0.061548
0.548504 0.134061 0.061004
0.576058 0.133518 0.060461
0.603533 0.132977 0.059919
0.630934 0.132437 0.059379
0.658265 0.131898 0.058841
0.685529 0.131361 0.058303
0.712728 0.130825 0.057767
0.739866 0.130290 0.057232
0.766463 0.129766 0.056708
0.792810 0.129246 0.056189
0.819103 0.128728 0.055671
0.845345 0.128211 0.055154
0.871538 0.127695 0.054637
0.897683 0.127180 0.054122
0.003433 0.175748 0.069549
0.036897 0.175089 0.068889
0.067516 0.174486 0.068286
0.097240 0.173900 0.067700
0.126398 0.173325 0.067125
0.155141 0.172759 0.066559
0.183559 0.172199 0.065999
0.211709 0.171644 0.065444
0.239631 0.171093 0.064894
0.267355 0.170547 0.064347
0.294906 0.170004 0.063805
0.322465 0.169461 0.063261
0.350855 0.168901 0.062702
0.379111 0.168345 0.062145
0.407244 0.167790 0.061591
0.435263 0.167238 0.061038
0.463177 0.166688 0.060488
0.490992 0.166140 0.059940
0.518714 0.165593 0.059394
0.546350 0.165049 0.058849
0.573903 0.164506 0.058306
0.601378 0.163964 0.057765
0.628779 0.163424 0.057224
0.656110 0.162885 0.056686
0.683374 0.162348 0.056149
0.710573 0.161812 0.055612
0.737711 0.161277 0.055078
0.764308 0.160753 0.054553
0.790655 0.160234 0.054034
0.816948 0.159716 0.053516
0.843190 0.159198 0.052999
0.869383 0.158682 0.052483
0.895528 0.158167 0.051967
0.001268 0.206885 0.067384
0.034731 0.206225 0.066724
0.065350 0.205622 0.066121
0.095075 0.205036 0.065535
0.124232 0.204461 0.064960
0.152976 0.203895 0.064394
0.181394 0.203335 0.063834
0.209543 0.202780 0.063279
0.237465 0.202230 0.062729
0.265190 0.201683 0.062182
0.292741 0.201140 0.061639
0.320300 0.200597 0.061096
0.348690 0.200038 0.060537
0.376946 0.199481 0.059980
0.405078 0.198926 0.059425
0.433098 0.198374 0.058873
0.461011 0.197824 0.058323
0.488826 0.197276 0.057775
0.516549 0.196729 0.057228
0.544184 0.196185 0.056684
0.571738 0.195642 0.056141
0.599213 0.195100 0.055599
0.626614 0.194560 0.055059
0.653945 0.194022 0.054521
0.681209 0.193484 0.053983
0.708408 0.192948 0.053447
0.735546 0.192413 0.052912
0.762143 0.191889 0.052388
0.788490 0.191370 0.051869
0.814783 0.190852 0.051351
0.841025 0.190335 0.050834
0.867218 0.189818 0.050317
0.893363 0.189303 0.049802
0.000000 0.238142 0.065210
0.032558 0.237482 0.064551
0.063177 0.236879 0.063947
0.092901 0.236293 0.063361
0.122059 0.235718 0.062787
0.150802 0.235152 0.062220
0.179220 0.234592 0.061660
0.207370 0.234037 0.061105
0.235292 0.233487 0.060555
0.263017 0.232940 0.060009
0.290567 0.232397 0.059466
0.318127 0.231854 0.058923
0.346516 0.231295 0.058363
0.374772 0.230738 0.057806
0.402905 0.230184 0.057252
0.430924 0.229631 0.056700
0.458838 0.229081 0.056149
0.486653 0.228533 0.055601
0.514375 0.227987 0.055055
0.542011 0.227442 0.054510
0.569564 0.226899 0.053967
0.597039 0.226357 0.053426
0.624440 0.225817 0.052886
0.651771 0.225279 0.052347
0.679035 0.224741 0.051810
0.706234 0.224205 0.051274
0.733372 0.223671 0.050739
0.759970 0.223146 0.050215
0.786316 0.222627 0.049695
0.812610 0.222109 0.049177
0.838852 0.221592 0.048660
0.865044 0.221076 0.048144
0.891189 0.220560 0.047629
0.000000 0.269501 0.063029
0.030377 0.268841 0.062370
0.060996 0.268238 0.061766
0.090720 0.267652 0.061181
0.119878 0.267078 0.060606
0.148622 0.266511 0.060040
0.177039 0.265951 0.059479
0.205189 0.265396 0.058925
0.233111 0.264846 0.058374
0.260836 0.264300 0.057828
0.288386 0.263757 0.057285
0.315946 0.263213 0.056742
0.344335 0.262654 0.056182
0.372591 0.262097 0.055625
0.400724 0.261543 0.055071
0.428743 0.260990 0.054519
0.456657 0.260440 0.053969
0.484472 0.259892 0.053421
0.512195 0.259346 0.052874
0.539830 0.258801 0.052330
0.567383 0.258258 0.051786
0.594858 0.257717 0.051245
0.622260 0.257177 0.050705
0.649591 0.256638 0.050166
0.676854 0.256101 0.049629
0.704054 0.255565 0.049093
0.731192 0.255030 0.048558
0.757789 0.254505 0.048034
0.784135 0.253986 0.047515
0.810429 0.253468 0.046996
0.836671 0.252951 0.046479
0.862863 0.252435 0.045963
0.889008 0.251919 0.045448
0.000000 0.300948 0.060843
0.028190 0.300289 0.060183
0.058809 0.299685 0.059580
0.088534 0.299099 0.058994
0.117691 0.298525 0.058419
0.146435 0.297958 0.057853
0.174853 0.297398 0.057293
0.203002 0.296843 0.056738
0.230924 0.296293 0.056188
0.258649 0.295747 0.055641
0.286200 0.295204 0.055098
0.313759 0.294661 0.054555
0.342149 0.294101 0.053996
0.370404 0.293544 0.053439
0.398537 0.292990 0.052884
0.426557 0.292438 0.052332
0.454470 0.291887 0.051782
0.482285 0.291339 0.051234
0.510008 0.290793 0.050687
0.537643 0.290248 0.050143
0.565196 0.289705 0.049600
0.592672 0.289164 0.049058
0.620073 0.288624 0.048518
0.647404 0.288085 0.047980
0.674667 0.287548 0.047442
0.701867 0.287012 0.046906
0.729005 0.286477 0.046371
0.755602 0.285953 0.045847
0.781949 0.285433 0.045328
0.808242 0.284915 0.044810
0.834484 0.284398 0.044292
0.860677 0.283882 0.043776
0.886821 0.283367 0.043261
0.000000 0.333206 0.058599
0.025947 0.332547 0.057940
0.056566 0.331943 0.057336
0.086290 0.331357 0.056751
0.115448 0.330783 0.056176
0.144192 0.330216 0.055609
0.172609 0.329656 0.055049
0.200759 0.329101 0.054495
0.228681 0.328551 0.053944
0.256406 0.328005 0.053398
0.283956 0.327462 0.052855
0.311516 0.326918 0.052312
0.339905 0.326359 0.051752
0.368161 0.325802 0.051195
0.396294 0.325248 0.050641
0.424313 0.324695 0.050089
0.452227 0.324145 0.049539
0.480042 0.323597 0.048990
0.507765 0.323051 0.048444
0.535400 0.322506 0.047899
0.562953 0.321963 0.047356
0.590428 0.321422 0.046815
0.617830 0.320882 0.046275
0.645161 0.320343 0.045736
0.672424 0.319806 0.045199
0.699624 0.319270 0.044663
0.726762 0.318735 0.044128
0.753359 0.318211 0.043604
0.779705 0.317691 0.043085
0.805999 0.317173 0.042566
0.832241 0.316656 0.042049
0.858433 0.316140 0.041533
0.884578 0.315624 0.041018
0.000000 0.366117 0.056311
0.023658 0.365457 0.055651
0.054278 0.364854 0.055048
0.084002 0.364268 0.054462
0.113160 0.363693 0.053887
0.141903 0.363127 0.053321
0.170321 0.362567 0.052761
0.198470 0.362012 0.052206
0.226393 0.361462 0.051656
0.254117 0.360915 0.051109
0.281668 0.360372 0.050566
0.309227 0.359829 0.050023
0.337617 0.359270 0.049464
0.365873 0.358713 0.048907
0.394005 0.358158 0.048352
0.422025 0.357606 0.047800
0.449938 0.357056 0.047250
0.477753 0.356508 0.046702
0.505476 0.355961 0.046156
0.533111 0.355417 0.045611
0.560665 0.354874 0.045068
0.588140 0.354332 0.044526
0.615541 0.353792 0.043986
0.642872 0.353254 0.043448
0.670136 0.352716 0.042910
0.697335 0.352180 0.042374
0.724473 0.351645 0.041840
0.751070 0.351121 0.041315
0.777417 0.350602 0.040796
0.803710 0.350084 0.040278
0.829952 0.349567 0.039761
0.856145 0.349050 0.039244
0.882290 0.348535 0.038729
0.000000 0.399093 0.054018
0.021365 0.398433 0.053358
0.051984 0.397830 0.052755
0.081709 0.397244 0.052169
0.110866 0.396669 0.051594
0.139610 0.396103 0.051028
0.168028 0.395543 0.050468
0.196177 0.394988 0.049913
0.224099 0.394438 0.049363
0.251824 0.393891 0.048816
0.279375 0.393348 0.048273
0.306934 0.392805 0.047730
0.335324 0.392246 0.047171
0.363579 0.391689 0.046614
0.391712 0.391134 0.046059
0.419732 0.390582 0.045507
0.447645 0.390032 0.044957
0.475460 0.389484 0.044409
0.503183 0.388938 0.043862
0.530818 0.388393 0.043318
0.558371 0.387850 0.042775
0.585847 0.387308 0.042233
0.613248 0.386768 0.041693
0.640579 0.386230 0.041155
0.667843 0.385692 0.040617
0.695042 0.385156 0.040081
0.722180 0.384621 0.039546
0.748777 0.384097 0.039022
0.775124 0.383578 0.038503
0.801417 0.383060 0.037985
0.827659 0.382543 0.037468
0.853852 0.382026 0.036951
0.879997 0.381511 0.036436
0.000000 0.432129 0.051720
0.019068 0.431469 0.051061
0.049687 0.430866 0.050457
0.079411 0.430280 0.049872
0.108569 0.429705 0.049297
0.137313 0.429139 0.048730
0.165730 0.428579 0.048170
0.193880 0.428024 0.047616
0.221802 0.427474 0.047065
0.249527 0.426927 0.046519
0.277077 0.426384 0.045976
0.304637 0.425841 0.045433
0.333026 0.425281 0.044873
0.361282 0.424725 0.044316
0.389415 0.424170 0.043762
0.417434 0.423618 0.043210
0.445348 0.423068 0.042660
0.473163 0.422520 0.042111
0.500886 0.421973 0.041565
0.528521 0.421429 0.041020
0.556074 0.420886 0.040477
0.583549 0.420344 0.039936
0.610951 0.419804 0.039396
0.638282 0.419265 0.038857
0.665545 0.418728 0.038320
0.692745 0.418192 0.037784
0.719883 0.417657 0.037249
0.746480 0.417133 0.036725
0.772826 0.416614 0.036206
0.799120 0.416096 0.035687
0.825362 0.415578 0.035170
0.851554 0.415062 0.034654
0.877699 0.414547 0.034139
0.000000 0.465219 0.049419
0.016767 0.464560 0.048760
0.047386 0.463956 0.048156
0.077110 0.463370 0.047570
0.106268 0.462796 0.046996
0.135012 0.462229 0.046429
0.163429 0.461669 0.045869
0.191579 0.461115 0.045315
0.219501 0.460564 0.044764
0.247226 0.460018 0.044218
0.274776 0.459475 0.043675
0.302336 0.458932 0.043132
0.330725 0.458372 0.042572
0.358981 0.457815 0.042015
0.387114 0.457261 0.041461
0.415133 0.456709 0.040909
0.443047 0.456159 0.040359
0.470862 0.455610 0.039810
0.498584 0.455064 0.039264
0.526220 0.454519 0.038719
0.553773 0.453976 0.038176
0.581248 0.453435 0.037635
0.608650 0.452895 0.037095
0.635980 0.452356 0.036556
0.663244 0.451819 0.036019
0.690444 0.451283 0.035483
0.717581 0.450748 0.034948
0.744179 0.450224 0.034424
0.770525 0.449705 0.033905
0.796819 0.449186 0.033386
0.823061 0.448669 0.032869
0.849253 0.448153 0.032353
0.875398 0.447638 0.031838
0.000000 0.498361 0.047115
0.014462 0.497701 0.046455
0.045081 0.497098 0.045852
0.074806 0.496512 0.045266
0.103963 0.495937 0.044691
0.132707 0.495371 0.044125
0.161125 0.494811 0.043565
0.189274 0.494256 0.043010
0.217196 0.493706 0.042460
0.244921 0.493159 0.041913
0.272472 0.492616 0.041370
0.300031 0.492073 0.040827
0.328421 0.491514 0.040268
0.356676 0.490957 0.039711
0.384809 0.490402 0.039156
0.412829 0.489850 0.038604
0.440742 0.489300 0.038054
0.468557 0.488752 0.037506
0.496280 0.488206 0.036959
0.523915 0.487661 0.036415
0.551468 0.487118 0.035872
0.578944 0.486576 0.035330
0.606345 0.486036 0.034790
0.633676 0.485498 0.034252
0.660939 0.484960 0.033714
0.688139 0.484424 0.033178
0.715277 0.483890 0.032643
0.741874 0.483365 0.032119
0.768221 0.482846 0.031600
0.794514 0.482328 0.031082
0.820756 0.481811 0.030565
0.846949 0.481295 0.030048
0.873093 0.480779 0.029533
0.000000 0.531550 0.044807
0.012154 0.530890 0.044147
0.042773 0.530287 0.043544
0.072498 0.529701 0.042958
0.101655 0.529126 0.042383
0.130399 0.528560 0.041817
0.158817 0.528000 0.041257
0.186966 0.527445 0.040702
0.214888 0.526895 0.040152
0.242613 0.526348 0.039605
0.270164 0.525805 0.039062
0.297723 0.525262 0.038519
0.326113 0.524703 0.037960
0.354368 0.524146 0.037403
0.382501 0.523591 0.036848
0.410521 0.523039 0.036296
0.438434 0.522489 0.035746
0.466249 0.521941 0.035198
0.493972 0.521395 0.034651
0.521607 0.520850 0.034107
0.549160 0.520307 0.033564
0.576636 0.519765 0.033022
0.604037 0.519225 0.032482
0.631368 0.518687 0.031944
0.658632 0.518149 0.031406
0.685831 0.517613 0.030870
0.712969 0.517079 0.030335
0.739566 0.516554 0.029811
0.765913 0.516035 0.029292
0.792206 0.515517 0.028774
0.818448 0.515000 0.028257
0.844641 0.514483 0.027740
0.870786 0.513968 0.027225
0.000000 0.564783 0.042496
0.009843 0.564124 0.041836
0.040462 0.563520 0.041233
0.070187 0.562934 0.040647
0.099344 0.562360 0.040072
0.128088 0.561793 0.039506
0.156506 0.561233 0.038946
0.184655 0.560678 0.038391
0.212577 0.560128 0.037841
0.240302 0.559582 0.037294
0.267853 0.559039 0.036751
0.295412 0.558496 0.036208
0.323802 0.557936 0.035649
0.352057 0.557379 0.035092
0.380190 0.556825 0.034537
0.408210 0.556273 0.033985
0.436123 0.555722 0.033435
0.463938 0.555174 0.032887
0.491661 0.554628 0.032340
0.519296 0.554083 0.031796
0.546849 0.553540 0.031253
0.574325 0.552999 0.030711
0.601726 0.552459 0.030171
0.629057 0.551920 0.029633
0.656320 0.551383 0.029095
0.683520 0.550847 0.028559
0.710658 0.550312 0.028024
0.737255 0.549788 0.027500
0.763602 0.549268 0.026981
0.789895 0.548750 0.026463
0.816137 0.548233 0.025946
0.842330 0.547717 0.025429
0.868475 0.547202 0.024914
0.000000 0.598058 0.040182
0.007529 0.597399 0.039522
0.038148 0.596795 0.038919
0.067873 0.596209 0.038333
0.097030 0.595635 0.037758
0.125774 0.595068 0.037192
0.154192 0.594508 0.036632
0.182341 0.593953 0.036077
0.210263 0.593403 0.035527
0.237988 0.592857 0.034980
0.265539 0.592314 0.034437
0.293098 0.591771 0.033894
0.321488 0.591211 0.033335
0.349743 0.590654 0.032778
0.377876 0.590100 0.032223
0.405896 0.589548 0.031671
0.433809 0.588997 0.031121
0.461624 0.588449 0.030573
0.489347 0.587903 0.030026
0.516982 0.587358 0.029482
0.544535 0.586815 0.028939
0.572011 0.586274 0.028397
0.599412 0.585734 0.027857
0.626743 0.585195 0.027319
0.654007 0.584658 0.026781
0.681206 0.584122 0.026245
0.708344 0.583587 0.025710
0.734941 0.583063 0.025186
0.761288 0.582543 0.024667
0.787581 0.582025 0.024149
0.813823 0.581508 0.023632
0.840016 0.580992 0.023115
0.866161 0.580477 0.022600
0.000000 0.631372 0.037865
0.005213 0.630713 0.037206
0.035832 0.630109 0.036602
0.065556 0.629524 0.036016
0.094714 0.628949 0.035442
0.123457 0.628382 0.034875
0.151875 0.627822 0.034315
0.180025 0.627268 0.033760
0.207947 0.626717 0.033210
0.235672 0.626171 0.032664
0.263222 0.625628 0.032121
0.290782 0.625085 0.031577
0.319171 0.624525 0.031018
0.347427 0.623968 0.030461
0.375560 0.623414 0.029907
0.403579 0.622862 0.029354
0.431493 0.622312 0.028804
0.459308 0.621763 0.028256
0.487030 0.621217 0.027710
0.514666 0.620672 0.027165
0.542219 0.620129 0.026622
0.569694 0.619588 0.026081
0.597095 0.619048 0.025541
0.624426 0.618509 0.025002
0.651690 0.617972 0.024465
0.678889 0.617436 0.023929
0.706027 0.616901 0.023394
0.732625 0.616377 0.022870
0.758971 0.615858 0.022350
0.785264 0.615339 0.021832
0.811507 0.614822 0.021315
0.837699 0.614306 0.020799
0.863844 0.613791 0.020283
0.000000 0.664724 0.035546
0.002893 0.664064 0.034886
0.033513 0.663461 0.034283
0.063237 0.662875 0.033697
0.092395 0.662300 0.033122
0.121138 0.661734 0.032556
0.149556 0.661174 0.031996
0.177705 0.660619 0.031441
0.205628 0.660069 0.030891
0.233352 0.659522 0.030344
0.260903 0.658979 0.029801
0.288462 0.658436 0.029258
0.316852 0.657877 0.028699
0.345108 0.657320 0.028142
0.373240 0.656765 0.027587
0.401260 0.656213 0.027035
0.429173 0.655663 0.026485
0.456988 0.655115 0.025937
0.484711 0.654569 0.025391
0.512346 0.654024 0.024846
0.539900 0.653481 0.024303
0.567375 0.652939 0.023761
0.594776 0.652399 0.023221
0.622107 0.651861 0.022683
0.649371 0.651323 0.022145
0.676570 0.650787 0.021609
0.703708 0.650253 0.021075
0.730305 0.649728 0.020550
0.756652 0.649209 0.020031
0.782945 0.648691 0.019513
0.809187 0.648174 0.018996
0.835380 0.647658 0.018479
0.861525 0.647142 0.017964
0.000000 0.698111 0.033224
0.000572 0.697451 0.032565
0.031191 0.696848 0.031961
0.060915 0.696262 0.031375
0.090073 0.695687 0.030801
0.118816 0.695121 0.030234
0.147234 0.694561 0.029674
0.175384 0.694006 0.029119
0.203306 0.693456 0.028569
0.231031 0.692909 0.028023
0.258581 0.692366 0.027480
0.286141 0.691823 0.026937
0.314530 0.691264 0.026377
0.342786 0.690707 0.025820
0.370919 0.690152 0.025266
0.398938 0.689600 0.024714
0.426852 0.689050 0.024163
0.454667 0.688502 0.023615
0.482389 0.687955 0.023069
0.510025 0.687411 0.022524
0.537578 0.686868 0.021981
0.565053 0.686326 0.021440
0.592454 0.685786 0.020900
0.619785 0.685248 0.020361
0.647049 0.684710 0.019824
0.674248 0.684174 0.019288
0.701386 0.683639 0.018753
0.727984 0.683115 0.018229
0.754330 0.682596 0.017709
0.780624 0.682078 0.017191
0.806866 0.681561 0.016674
0.833058 0.681044 0.016158
0.859203 0.680529 0.015643
0.000000 0.731297 0.030916
0.000000 0.730637 0.030257
0.028883 0.730034 0.029653
0.058607 0.729448 0.029068
0.087765 0.728873 0.028493
0.116509 0.728307 0.027926
0.144926 0.727747 0.027366
0.173076 0.727192 0.026812
0.200998 0.726642 0.026261
0.228723 0.726095 0.025715
0.256273 0.725552 0.025172
0.283833 0.725009 0.024629
0.312222 0.724450 0.024069
0.340478 0.723893 0.023512
0.368611 0.723338 0.022958
0.396630 0.722786 0.022406
0.424544 0.722236 0.021856
0.452359 0.721688 0.021307
0.480082 0.721141 0.020761
0.507717 0.720597 0.020216
0.535270 0.720054 0.019673
0.562745 0.719512 0.019132
0.590147 0.718972 0.018592
0.617478 0.718434 0.018053
0.644741 0.717896 0.017516
0.671941 0.717360 0.016980
0.699079 0.716825 0.016445
0.725676 0.716301 0.015921
0.752022 0.715782 0.015402
0.778316 0.715264 0.014883
0.804558 0.714747 0.014366
0.830750 0.714230 0.013850
0.856895 0.713715 0.013335
0.000000 0.763913 0.028648
0.000000 0.763253 0.027989
0.026615 0.762650 0.027385
0.056339 0.762064 0.026799
0.085497 0.761489 0.026225
0.114241 0.760923 0.025658
0.142658 0.760363 0.025098
0.170808 0.759808 0.024544
0.198730 0.759258 0.023993
0.226455 0.758711 0.023447
0.254005 0.758168 0.022904
0.281565 0.757625 0.022361
0.309954 0.757066 0.021801
0.338210 0.756509 0.021244
0.366343 0.755955 0.020690
0.394362 0.755402 0.020138
0.422276 0.754852 0.019588
0.450091 0.754304 0.019039
0.477813 0.753758 0.018493
0.505449 0.753213 0.017948
0.533002 0.752670 0.017405
0.560477 0.752128 0.016864
0.587879 0.751588 0.016324
0.615209 0.751050 0.015785
0.642473 0.750512 0.015248
0.669673 0.749976 0.014712
0.696810 0.749442 0.014177
0.723408 0.748917 0.013653
0.749754 0.748398 0.013134
0.776048 0.747880 0.012615
0.802290 0.747363 0.012098
0.828482 0.746847 0.011582
0.854627 0.746331 0.011067
0.000000 0.796559 0.026378
0.000000 0.795899 0.025719
0.024345 0.795296 0.025115
0.054069 0.794710 0.024529
0.083227 0.794135 0.023955
0.111970 0.793569 0.023388
0.140388 0.793009 0.022828
0.168538 0.792454 0.022273
0.196460 0.791904 0.021723
0.224185 0.791357 0.021177
0.251735 0.790814 0.020634
0.279295 0.790271 0.020091
0.307684 0.789712 0.019531
0.335940 0.789155 0.018974
0.364073 0.788601 0.018420
0.392092 0.788048 0.017867
0.420006 0.787498 0.017317
0.447821 0.786950 0.016769
0.475543 0.786404 0.016223
0.503179 0.785859 0.015678
0.530732 0.785316 0.015135
0.558207 0.784774 0.014594
0.585608 0.784234 0.014054
0.612939 0.783696 0.013515
0.640203 0.783158 0.012978
0.667402 0.782622 0.012442
0.694540 0.782088 0.011907
0.721138 0.781563 0.011383
0.747484 0.781044 0.010863
0.773777 0.780526 0.010345
0.800020 0.780009 0.009828
0.826212 0.779493 0.009312
0.852357 0.778977 0.008796
0.000000 0.829234 0.024106
0.000000 0.828574 0.023446
0.022073 0.827971 0.022843
0.051797 0.827385 0.022257
0.080955 0.826810 0.021682
0.109698 0.826244 0.021116
0.138116 0.825684 0.020556
0.166266 0.825129 0.020001
0.194188 0.824578 0.019451
0.221912 0.824032 0.018904
0.249463 0.823489 0.018361
0.277022 0.822946 0.017818
0.305412 0.822386 0.017259
0.333668 0.821830 0.016702
0.361801 0.821275 0.016148
0.389820 0.820723 0.015595
0.417734 0.820173 0.015045
0.445549 0.819625 0.014497
0.473271 0.819078 0.013951
0.500906 0.818534 0.013406
0.528460 0.817991 0.012863
0.555935 0.817449 0.012321
0.583336 0.816909 0.011781
0.610667 0.816370 0.011243
0.637931 0.815833 0.010705
0.665130 0.815297 0.010169
0.692268 0.814762 0.009635
0.718865 0.814238 0.009110
0.745212 0.813719 0.008591
0.771505 0.813201 0.008073
0.797747 0.812683 0.007556
0.823940 0.812167 0.007040
0.850085 0.811652 0.006524
0.000000 0.861936 0.021832
0.000000 0.861276 0.021172
0.019799 0.860673 0.020569
0.049523 0.860087 0.019983
0.078681 0.859512 0.019408
0.107424 0.858946 0.018842
0.135842 0.858386 0.018282
0.163991 0.857831 0.017727
0.191914 0.857281 0.017177
0.219638 0.856734 0.016630
0.247189 0.856191 0.016087
0.274748 0.855648 0.015544
0.303138 0.855089 0.014985
0.331394 0.854532 0.014428
0.359526 0.853977 0.013873
0.387546 0.853425 0.013321
0.415459 0.852875 0.012771
0.443274 0.852327 0.012223
0.470997 0.851780 0.011677
0.498632 0.851236 0.011132
0.526186 0.850693 0.010589
0.553661 0.850151 0.010047
0.581062 0.849611 0.009507
0.608393 0.849073 0.008969
0.635657 0.848535 0.008431
0.662856 0.847999 0.007895
0.689994 0.847464 0.007361
0.716591 0.846940 0.006836
0.742938 0.846421 0.006317
0.769231 0.845903 0.005799
0.795473 0.845386 0.005282
0.821666 0.844869 0.004765
0.847811 0.844354 0.004250
0.000000 0.894664 0.019556
0.000000 0.894005 0.018896
0.017523 0.893401 0.018293
0.047247 0.892815 0.017707
0.076405 0.892241 0.017132
0.105148 0.891674 0.016566
0.133566 0.891114 0.016006
0.161716 0.890559 0.015451
0.189638 0.890009 0.014901
0.217362 0.889463 0.014354
0.244913 0.888920 0.013811
0.272472 0.888377 0.013268
0.300862 0.887817 0.012709
0.329118 0.887260 0.012152
0.357251 0.886706 0.011597
0.385270 0.886154 0.011045
0.413184 0.885603 0.010495
0.440999 0.885055 0.009947
0.468721 0.884509 0.009401
0.496356 0.883964 0.008856
0.523910 0.883421 0.008313
0.551385 0.882880 0.007771
0.578786 0.882340 0.007231
0.606117 0.881801 0.006693
0.633381 0.881264 0.006155
