flutter_app/assets/lut/cameras/u300_color.cube
TITLE "U300 Color 400"
LUT_3D_SIZE 9
0.019736 0.019736 0.019736
0.154169 0.015973 0.015973
0.298695 0.011892 0.011892
0.443543 0.007738 0.007738
0.583998 0.003630 0.003630
0.722254 0.001357 0.000000
0.867741 0.007784 0.000000
1.000000 0.014141 0.000000
1.000000 0.018833 0.000000
0.013268 0.134312 0.013268
0.147730 0.130562 0.009505
0.292335 0.126495 0.005425
0.439336 0.124385 0.001090
0.586360 0.131209 0.000000
0.724974 0.138221 0.000000
0.870707 0.144972 0.000000
1.000000 0.147148 0.000000
1.000000 0.146473 0.000000
0.005746 0.266661 0.005746
0.140239 0.262949 0.001983
0.286388 0.260373 0.000000
0.442272 0.267298 0.000000
0.588087 0.274445 0.000000
0.727539 0.281714 0.000000
0.869816 0.284770 0.000000
1.000000 0.280633 0.000000
1.000000 0.279965 0.000000
0.000000 0.400418 0.000000
0.133376 0.397575 0.000000
0.289244 0.404405 0.000000
0.445063 0.411186 0.000000
0.589719 0.418213 0.000000
0.726942 0.422027 0.000000
0.862783 0.418033 0.000000
0.999855 0.413963 0.000000
1.000000 0.413306 0.000000
0.000000 0.532124 0.000000
0.135968 0.538179 0.000000
0.292252 0.543564 0.000000
0.448073 0.548944 0.000000
0.589312 0.552318 0.000000
0.720043 0.548609 0.000000
0.855978 0.544688 0.000000
0.993085 0.540692 0.000000
1.000000 0.540047 0.000000
0.000000 0.656911 0.000000
0.139369 0.662924 0.000000
0.295937 0.668952 0.000000
0.449564 0.673286 0.000000
0.582674 0.669650 0.000000
0.713524 0.666004 0.000000
0.849549 0.662149 0.000000
0.986692 0.658221 0.000000
1.000000 0.657587 0.000000
0.000000 0.789485 0.000000
0.142153 0.796113 0.000000
0.297556 0.801264 0.000000
0.442273 0.797448 0.000000
0.575525 0.793865 0.000000
0.706504 0.790274 0.000000
0.842629 0.786477 0.000000
0.979814 0.782608 0.000000
1.000000 0.781984 0.000000
0.000000 0.924567 0.000000
0.143915 0.930540 0.000000
0.289948 0.926786 0.000000
0.434803 0.923004 0.000000
0.568199 0.919453 0.000000
0.699313 0.915895 0.000000
0.835541 0.912133 0.000000
0.972773 0.908302 0.000000
0.994859 0.907683 0.000000
0.000000 1.000000 0.000000
0.138828 1.000000 0.000000
0.284922 1.000000 0.000000
0.429866 1.000000 0.000000
0.563358 1.000000 0.000000
0.694561 0.998405 0.000000
0.830859 0.994651 0.000000
0.968124 0.990828 0.000000
0.990211 0.990211 0.000000
0.018587 0.018587 0.129301
0.153025 0.014824 0.125550
0.297565 0.010744 0.121482
0.442434 0.006590 0.117340
0.580274 0.002559 0.113320
0.711680 0.000000 0.109411
0.857420 0.000000 0.104828
1.000000 0.003525 0.099697
1.000000 0.007901 0.098236
0.012119 0.133167 0.122854
0.146586 0.129417 0.119102
0.291205 0.125350 0.115032
0.436189 0.121208 0.110889
0.576875 0.120343 0.106600
0.714804 0.127358 0.101850
0.860390 0.134097 0.096793
1.000000 0.140764 0.091636
1.000000 0.145329 0.090491
0.004597 0.265528 0.115353
0.139094 0.261816 0.111599
0.283802 0.257789 0.107529
0.431458 0.256274 0.103155
0.578575 0.263371 0.098200
0.717363 0.270649 0.093400
0.863202 0.277667 0.088312
1.000000 0.279501 0.083585
1.000000 0.278834 0.082908
0.000000 0.399303 0.107669
0.131419 0.395648 0.103914
0.278185 0.393606 0.099668
0.434230 0.400373 0.094548
0.580163 0.407356 0.089626
0.719813 0.414454 0.084799
0.861733 0.416921 0.080100
0.998810 0.412850 0.075903
1.000000 0.412193 0.075226
0.000000 0.530822 0.099978
0.125050 0.528561 0.096103
0.281104 0.534145 0.091118
0.437156 0.539481 0.086073
0.581996 0.545092 0.081257
0.718977 0.547518 0.076789
0.854927 0.543596 0.072669
0.992039 0.539599 0.068471
1.000000 0.538954 0.067794
0.000000 0.646983 0.093059
0.128448 0.653130 0.088359
0.284810 0.659019 0.083338
0.440732 0.665043 0.078244
0.581588 0.668577 0.073672
0.712458 0.664931 0.069772
0.848497 0.661075 0.065651
0.985647 0.657146 0.061453
1.000000 0.656512 0.060775
0.000000 0.779207 0.084911
0.131249 0.785832 0.079988
0.287905 0.792334 0.074910
0.441164 0.796392 0.070013
0.574437 0.792809 0.066121
0.705437 0.789217 0.062221
0.841576 0.785419 0.058099
0.978768 0.781550 0.053900
1.000000 0.780925 0.053222
0.000000 0.914205 0.076303
0.133817 0.920961 0.071354
0.288818 0.925739 0.066430
0.433693 0.921957 0.062284
0.567110 0.918406 0.058391
0.698244 0.914847 0.054491
0.834489 0.911086 0.050368
0.971728 0.907254 0.046168
0.993813 0.906635 0.045490
0.000000 1.000000 0.069707
0.137683 1.000000 0.065443
0.283791 1.000000 0.061326
0.428755 1.000000 0.057180
0.562268 1.000000 0.053287
0.693491 0.997360 0.049385
0.829806 0.993606 0.045262
0.967078 0.989782 0.041062
0.989165 0.989165 0.040384
0.017203 0.017203 0.260406
0.151648 0.013440 0.256692
0.296205 0.009360 0.252663
0.441099 0.005206 0.248559
0.578965 0.001175 0.244576
0.706449 0.000000 0.240820
0.846037 0.000000 0.236636
0.993524 0.000000 0.231960
1.000000 0.000000 0.230197
0.010735 0.131788 0.254021
0.145208 0.128038 0.250304
0.289843 0.123971 0.246273
0.434852 0.119829 0.242167
0.572844 0.115809 0.238182
0.703958 0.115777 0.234096
0.849385 0.122502 0.229094
0.996611 0.129150 0.223985
1.000000 0.133673 0.222519
0.003213 0.264163 0.246590
0.137716 0.260450 0.242871
0.282439 0.256423 0.238837
0.427581 0.252321 0.234728
0.568437 0.251562 0.230469
0.706510 0.258848 0.225738
0.852201 0.265856 0.220702
0.999534 0.272792 0.215565
1.000000 0.277471 0.214419
0.000000 0.397959 0.238976
0.130040 0.394304 0.235254
0.274851 0.390339 0.231217
0.422670 0.388835 0.226879
0.569977 0.395772 0.221966
0.708933 0.402882 0.217206
0.854899 0.409734 0.212158
0.997550 0.411509 0.207467
1.000000 0.410851 0.206795
0.000000 0.529504 0.231351
0.122357 0.525917 0.227627
0.269222 0.523967 0.223412
0.425506 0.529395 0.218402
0.571698 0.534930 0.213594
0.711582 0.540611 0.208878
0.853660 0.542280 0.204256
0.990780 0.538282 0.200089
1.000000 0.537637 0.199416
0.000000 0.645039 0.224528
0.116805 0.642688 0.220691
0.272935 0.648553 0.215722
0.429108 0.654392 0.210679
0.574075 0.660661 0.205852
0.711173 0.663638 0.201381
0.847231 0.659782 0.197288
0.984387 0.655852 0.193118
1.000000 0.655217 0.192445
0.000000 0.768090 0.217136
0.119623 0.774863 0.212428
0.276049 0.781362 0.207400
0.432109 0.787823 0.202310
0.573127 0.791535 0.197755
0.704151 0.787943 0.193881
0.840309 0.784145 0.189786
0.977509 0.780275 0.185613
0.999594 0.779651 0.184940
0.000000 0.903151 0.208772
0.122179 0.909910 0.203871
0.278935 0.916539 0.198817
0.432356 0.920695 0.193943
0.565799 0.917144 0.190076
0.696957 0.913586 0.186200
0.833220 0.909824 0.182103
0.970468 0.905992 0.177928
0.992554 0.905373 0.177254
0.000000 1.000000 0.201608
0.126699 1.000000 0.197348
0.282428 1.000000 0.192992
0.427417 1.000000 0.188872
0.560956 0.999653 0.185004
0.692203 0.996101 0.181127
0.828537 0.992347 0.177028
0.965819 0.988523 0.172851
0.987906 0.987906 0.172177
0.015780 0.015780 0.393548
0.150231 0.012017 0.389890
0.294805 0.007937 0.385923
0.439725 0.003782 0.381881
0.577619 0.000000 0.377958
0.705126 0.000000 0.374257
0.840104 0.000000 0.370272
0.982053 0.000000 0.366034
1.000000 0.000000 0.364290
0.009312 0.130370 0.387261
0.143791 0.126619 0.383600
0.288443 0.122552 0.379629
0.433477 0.118409 0.375585
0.571496 0.114389 0.371658
0.699112 0.110599 0.367954
0.838348 0.110886 0.363587
0.985493 0.117515 0.358558
1.000000 0.121709 0.356803
0.001790 0.262759 0.379942
0.136298 0.259046 0.376278
0.281038 0.255018 0.372304
0.426204 0.250915 0.368255
0.564368 0.246933 0.364325
0.695632 0.247018 0.360288
0.841169 0.254018 0.355335
0.988429 0.260939 0.350276
1.000000 0.265588 0.348820
0.000000 0.396577 0.372440
0.128622 0.392921 0.368773
0.273449 0.388955 0.364795
0.418749 0.384915 0.360742
0.559785 0.384153 0.356541
0.698028 0.391276 0.351876
0.843852 0.398123 0.346910
0.991238 0.404894 0.341843
1.000000 0.409472 0.340714
0.000000 0.528147 0.364927
0.120938 0.524560 0.361256
0.265850 0.520667 0.357274
0.413823 0.519263 0.352990
0.561391 0.524764 0.348218
0.700587 0.530426 0.343596
0.846749 0.535866 0.338689
0.989485 0.536928 0.334097
1.000000 0.536282 0.333434
0.000000 0.643705 0.358202
0.114064 0.640178 0.354528
0.261030 0.638074 0.350380
0.417440 0.643879 0.345409
0.563768 0.649913 0.340629
0.703764 0.656269 0.335929
0.845927 0.658451 0.331334
0.983092 0.654520 0.327218
1.000000 0.653886 0.326553
0.000000 0.766092 0.350954
0.107976 0.763866 0.347162
0.264164 0.770360 0.342216
0.420461 0.776807 0.337195
0.565579 0.783488 0.332400
0.702828 0.786633 0.327971
0.839005 0.782834 0.323929
0.976214 0.778964 0.319810
0.998299 0.778339 0.319145
0.000000 0.891911 0.343396
0.110520 0.898825 0.338736
0.267039 0.905458 0.333760
0.423258 0.912044 0.328723
0.564450 0.915847 0.324216
0.695633 0.912288 0.320389
0.831916 0.908526 0.316344
0.969173 0.904693 0.312221
0.991259 0.904075 0.311555
0.000000 1.000000 0.335885
0.114397 1.000000 0.331692
0.271892 1.000000 0.327348
0.426041 1.000000 0.323027
0.559606 0.998357 0.319208
0.690878 0.994805 0.315379
0.827232 0.991051 0.311331
0.964523 0.987228 0.307206
0.986611 0.986611 0.306540
0.014366 0.014366 0.523569
0.148823 0.010603 0.519979
0.293415 0.006522 0.516084
0.438359 0.002368 0.512116
0.576280 0.000000 0.508264
0.703812 0.000000 0.504630
0.838808 0.000000 0.500717
0.975474 0.000000 0.496711
1.000000 0.000000 0.494842
0.007898 0.128961 0.517397
0.142383 0.125210 0.513804
0.287051 0.121142 0.509905
0.432110 0.116999 0.505934
0.570157 0.112979 0.502078
0.697797 0.109188 0.498441
0.832881 0.105108 0.494525
0.974386 0.105908 0.490088
1.000000 0.109774 0.488060
0.000376 0.261364 0.510212
0.134889 0.257650 0.506615
0.279645 0.253621 0.502712
0.424836 0.249518 0.498736
0.563028 0.245535 0.494876
0.690796 0.241779 0.491235
0.830151 0.242200 0.486935
0.977335 0.249106 0.481972
1.000000 0.253432 0.480237
0.000000 0.395203 0.502846
0.127212 0.391547 0.499245
0.272055 0.387580 0.495338
0.417379 0.383540 0.491358
0.555719 0.379617 0.487494
0.687145 0.379683 0.483526
0.832818 0.386525 0.478659
0.980139 0.393287 0.473687
1.000000 0.397836 0.472257
0.000000 0.526799 0.495468
0.119528 0.523211 0.491863
0.264455 0.519318 0.487952
0.409911 0.515352 0.483968
0.551124 0.514642 0.479835
0.689610 0.520283 0.475325
0.835638 0.525687 0.470515
0.983148 0.531050 0.465605
1.000000 0.534936 0.464530
0.000000 0.642380 0.488863
0.112654 0.638851 0.485254
0.257653 0.635024 0.481339
0.405784 0.633399 0.477141
0.553490 0.639368 0.472416
0.692807 0.645525 0.467838
0.839048 0.651664 0.462966
0.981805 0.653197 0.458421
1.000000 0.652562 0.457768
0.000000 0.764787 0.481744
0.105249 0.761314 0.478131
0.252299 0.759373 0.474045
0.408827 0.765806 0.469114
0.555295 0.772444 0.464372
0.695430 0.779190 0.459720
0.837709 0.781532 0.455189
0.974926 0.777661 0.451140
0.997012 0.777036 0.450486
0.000000 0.889928 0.474360
0.098890 0.887752 0.470629
0.255164 0.894387 0.465751
0.411616 0.900967 0.460801
0.556908 0.907769 0.456073
0.694317 0.910998 0.451709
0.830619 0.907236 0.447732
0.967885 0.903403 0.443679
0.989972 0.902785 0.443025
0.000000 1.000000 0.467058
0.102122 1.000000 0.463111
0.259383 1.000000 0.458852
0.416384 1.000000 0.454533
0.558264 0.997070 0.450548
0.689561 0.993518 0.446784
0.825935 0.989764 0.442804
0.963236 0.985941 0.438748
0.985324 0.985324 0.438093
0.013062 0.013062 0.641307
0.147525 0.009299 0.637779
0.292132 0.005218 0.633950
0.437100 0.001064 0.630051
0.575046 0.000000 0.626265
0.702599 0.000000 0.622694
0.837613 0.000000 0.618849
0.974287 0.000000 0.614912
1.000000 0.000000 0.613076
0.006594 0.127661 0.635241
0.141084 0.123910 0.631710
0.285768 0.119841 0.627878
0.430850 0.115699 0.623975
0.568921 0.111678 0.620186
0.696584 0.107887 0.616612
0.831685 0.103807 0.612763
0.968400 0.099631 0.608823
1.000000 0.097967 0.606970
0.000000 0.260077 0.628180
0.133590 0.256363 0.624644
0.278361 0.252333 0.620809
0.423574 0.248230 0.616902
0.561791 0.244247 0.613109
0.689582 0.240490 0.609531
0.824787 0.236446 0.605679
0.966344 0.237395 0.601306
1.000000 0.241398 0.599302
0.000000 0.393936 0.620941
0.125912 0.390279 0.617402
0.270769 0.386312 0.613563
0.416116 0.382271 0.609652
0.554481 0.378347 0.605854
0.682404 0.374647 0.602273
0.821890 0.375041 0.598044
0.969141 0.381792 0.593165
1.000000 0.386026 0.591459
0.000000 0.525556 0.613691
0.118228 0.521967 0.610148
0.263168 0.518073 0.606304
0.408647 0.514106 0.602389
0.547160 0.510255 0.598588
0.678747 0.510282 0.594688
0.824630 0.515649 0.589975
0.972082 0.520970 0.585158
1.000000 0.524780 0.583787
0.000000 0.641157 0.607200
0.111353 0.637628 0.603654
0.256365 0.633800 0.599807
0.401960 0.629901 0.595888
0.543347 0.628949 0.591837
0.681953 0.635099 0.587367
0.828072 0.641002 0.582603
0.975592 0.647084 0.577728
1.000000 0.651341 0.576645
0.000000 0.763584 0.600204
0.103948 0.760110 0.596655
0.249035 0.756342 0.592804
0.397304 0.754914 0.588664
0.545147 0.761506 0.583975
0.684590 0.768264 0.579431
0.830936 0.774775 0.574612
0.973740 0.776459 0.570131
0.995825 0.775834 0.569489
0.000000 0.888737 0.592948
0.096273 0.885301 0.589395
0.243410 0.883420 0.585373
0.400086 0.889993 0.580510
0.546725 0.896759 0.575834
0.687020 0.903622 0.571247
0.829424 0.906046 0.566783
0.966698 0.902214 0.562800
0.988785 0.901595 0.562157
0.000000 1.000000 0.585773
0.089978 1.000000 0.582182
0.246993 1.000000 0.578007
0.404233 0.999932 0.573763
0.550316 0.996064 0.569737
0.688347 0.992332 0.565852
0.824739 0.988578 0.561941
0.962048 0.984754 0.557955
0.984137 0.984137 0.557311
0.011723 0.011723 0.760215
0.146192 0.007960 0.756741
0.290815 0.003879 0.752971
0.435807 0.000000 0.749132
0.573779 0.000000 0.745405
0.701354 0.000000 0.741890
0.836386 0.000000 0.738105
0.973069 0.000000 0.734231
1.000000 0.000000 0.732424
0.005255 0.126326 0.754242
0.139750 0.122575 0.750765
0.284450 0.118506 0.746993
0.429556 0.114363 0.743151
0.567653 0.110343 0.739421
0.695338 0.106551 0.735904
0.830458 0.102471 0.732117
0.967182 0.098294 0.728239
1.000000 0.096347 0.726431
0.000000 0.258755 0.747290
0.132256 0.255041 0.743810
0.277042 0.251011 0.740035
0.422279 0.246907 0.736190
0.560521 0.242923 0.732457
0.688335 0.239166 0.728936
0.823559 0.235122 0.725146
0.960334 0.230981 0.721265
1.000000 0.229341 0.719440
0.000000 0.392636 0.740164
0.124578 0.388978 0.736681
0.269449 0.385010 0.732903
0.414819 0.380968 0.729055
0.553210 0.377044 0.725319
0.681156 0.373343 0.721795
0.816490 0.369358 0.718002
0.958114 0.370269 0.713697
1.000000 0.374187 0.711725
0.000000 0.524279 0.733029
0.116893 0.520689 0.729543
0.261847 0.516795 0.725762
0.407348 0.512827 0.721910
0.545887 0.508976 0.718171
0.673967 0.505342 0.714644
0.813594 0.505612 0.710486
0.960985 0.510892 0.705757
1.000000 0.514377 0.704115
0.000000 0.639902 0.726642
0.110017 0.636373 0.723154
0.255043 0.632544 0.719369
0.400660 0.628643 0.715514
0.539331 0.624857 0.711772
0.671078 0.624663 0.707945
0.817056 0.630543 0.703272
0.964536 0.636365 0.698498
1.000000 0.640487 0.697128
0.000000 0.762348 0.719760
0.102612 0.758874 0.716269
0.247713 0.755105 0.712481
0.393452 0.751267 0.708623
0.534998 0.750543 0.704623
0.673729 0.757312 0.700182
0.819944 0.763818 0.695454
0.967503 0.770252 0.690630
0.994607 0.774600 0.689556
0.000000 0.887515 0.712623
0.094937 0.884079 0.709128
0.240112 0.880352 0.705337
0.388527 0.878990 0.701259
0.536542 0.885719 0.696632
0.676145 0.892601 0.692148
0.822619 0.899230 0.687395
0.965480 0.900992 0.682980
0.987567 0.900373 0.682348
0.000000 1.000000 0.705567
0.087353 1.000000 0.702069
0.234581 1.000000 0.698222
0.392054 0.998998 0.694049
0.539499 0.995100 0.690061
0.680544 0.991292 0.686163
0.823511 0.987359 0.682135
0.960830 0.983535 0.678218
0.982918 0.982918 0.677585
0.010315 0.010315 0.883566
0.144790 0.006552 0.880129
0.289430 0.002472 0.876401
0.434447 0.000000 0.872605
0.572446 0.000000 0.868921
0.700046 0.000000 0.865446
0.835097 0.000000 0.861707
0.971788 0.000000 0.857879
1.000000 0.000000 0.856094
0.003847 0.124923 0.877658
0.138348 0.121171 0.874219
0.283064 0.117103 0.870490
0.428195 0.112959 0.866693
0.566319 0.108938 0.863007
0.694028 0.105147 0.859531
0.829167 0.101066 0.855790
0.965900 0.096889 0.851960
1.000000 0.094942 0.850174
0.000000 0.257366 0.870784
0.130853 0.253651 0.867344
0.275655 0.249621 0.863613
0.420916 0.245516 0.859814
0.559186 0.241532 0.856126
0.687024 0.237774 0.852649
0.822268 0.233729 0.848905
0.959052 0.229588 0.845074
1.000000 0.227657 0.843287
0.000000 0.391268 0.863741
0.123174 0.387609 0.860300
0.268062 0.383641 0.856567
0.413456 0.379598 0.852766
0.551873 0.375673 0.849076
0.679844 0.371971 0.845597
0.815198 0.367986 0.841851
0.952039 0.363905 0.838017
1.000000 0.362286 0.836215
0.000000 0.522937 0.856691
0.115489 0.519346 0.853248
0.260458 0.515451 0.849513
0.405983 0.511483 0.845710
0.544549 0.507630 0.842018
0.672653 0.503996 0.838537
0.808120 0.500083 0.834790
0.949825 0.500785 0.830549
1.000000 0.503942 0.828639
0.000000 0.638582 0.850383
0.108613 0.635052 0.846938
0.253654 0.631222 0.843202
0.399294 0.627321 0.839396
0.537991 0.623534 0.835703
0.666216 0.619961 0.832220
0.805980 0.620042 0.828125
0.953405 0.625836 0.823422
1.000000 0.629562 0.821785
0.000000 0.761049 0.843588
0.101207 0.757574 0.840141
0.246322 0.753805 0.836402
0.392084 0.749966 0.832595
0.530924 0.746240 0.828899
0.662816 0.746303 0.825106
0.808894 0.752805 0.820453
0.956405 0.759229 0.815702
0.993868 0.763550 0.814336
0.000000 0.886230 0.836543
0.093532 0.882793 0.833094
0.238720 0.879066 0.829353
0.384607 0.875271 0.825543
0.526326 0.874618 0.821591
0.665218 0.881519 0.817196
0.811566 0.888150 0.812519
0.959184 0.894700 0.807749
0.986286 0.899089 0.806683
0.000000 1.000000 0.829580
0.085948 1.000000 0.826129
0.231205 1.000000 0.822386
0.379811 0.998002 0.818505
0.528647 0.994073 0.814543
0.669014 0.990290 0.810725
0.816211 0.986245 0.806642
0.959548 0.982254 0.802613
0.981637 0.981637 0.801989
0.008882 0.008882 1.000000
0.143363 0.005119 1.000000
0.288020 0.001039 1.000000
0.433062 0.000000 0.997316
0.571089 0.000000 0.993648
0.698713 0.000000 0.990190
0.833783 0.000000 0.986468
0.970483 0.000000 0.982660
1.000000 0.000000 0.980884
0.002414 0.123495 1.000000
0.136920 0.119743 0.998924
0.281653 0.115673 0.995211
0.426809 0.111530 0.991430
0.564961 0.107509 0.987762
0.692694 0.103717 0.984304
0.827853 0.099636 0.980582
0.964596 0.095459 0.976773
1.000000 0.093511 0.974997
0.000000 0.255951 0.995503
0.129425 0.252236 0.992079
0.274243 0.248205 0.988365
0.419529 0.244100 0.984585
0.557826 0.240115 0.980916
0.685688 0.236357 0.977458
0.820953 0.232311 0.973736
0.957748 0.228170 0.969926
1.000000 0.226238 0.968151
0.000000 0.389875 0.988493
0.121746 0.386216 0.985068
0.266648 0.382246 0.981355
0.412067 0.378203 0.977574
0.550512 0.374277 0.973905
0.678507 0.370575 0.970447
0.813883 0.366588 0.966724
0.950734 0.362507 0.962914
1.000000 0.360603 0.961138
0.000000 0.521570 0.981479
0.114060 0.517978 0.978054
0.259044 0.514082 0.974340
0.404593 0.510113 0.970559
0.543186 0.506260 0.966890
0.671316 0.502625 0.963431
0.806803 0.498711 0.959708
0.943715 0.494704 0.955897
1.000000 0.493122 0.954106
0.000000 0.637238 0.975205
0.107183 0.633707 0.971780
0.252238 0.629877 0.968066
0.397902 0.625975 0.964284
0.536627 0.622187 0.960615
0.664878 0.618614 0.957155
0.800468 0.614766 0.953432
0.942250 0.615306 0.949227
1.000000 0.618718 0.947314
0.000000 0.759726 0.968450
0.099777 0.756251 0.965024
0.244906 0.752481 0.961310
0.390691 0.748642 0.957528
0.529558 0.744914 0.953858
0.657939 0.741399 0.950397
0.797823 0.741774 0.946313
0.945285 0.748188 0.941604
0.993120 0.752211 0.939959
0.000000 0.884921 0.961449
0.092101 0.881484 0.958023
0.237303 0.877757 0.954308
0.383213 0.873961 0.950525
0.522226 0.870277 0.946855
0.654279 0.870415 0.943083
0.800494 0.877050 0.938452
0.948071 0.883598 0.933726
0.985533 0.887967 0.932364
0.000000 1.000000 0.954533
0.084517 1.000000 0.951107
0.229787 1.000000 0.947391
0.375818 0.996765 0.943608
0.517802 0.993022 0.939861
0.657471 0.989263 0.936098
0.804556 0.985227 0.932057
0.952837 0.981101 0.927927
0.980333 0.980333 0.927157
