flutter_app/assets/lut/cameras/u300_gold.cube
TITLE "U300 Gold 200"
LUT_3D_SIZE 33
0.029640 0.029640 0.029640
0.054027 0.028650 0.028650
0.089632 0.027204 0.027204
0.125479 0.025746 0.025746
0.161549 0.024276 0.024276
0.197822 0.022795 0.022795
0.234279 0.021302 0.021302
0.270901 0.019797 0.019797
0.307672 0.018281 0.018281
0.344573 0.016752 0.016752
0.381589 0.015212 0.015212
0.418123 0.013685 0.013685
0.454094 0.012174 0.012174
0.490139 0.010652 0.010652
0.526251 0.009119 0.009119
0.562427 0.007575 0.007575
0.596086 0.006131 0.006131
0.630051 0.004666 0.004666
0.664440 0.003176 0.003176
0.699217 0.001662 0.001662
0.735104 0.001626 0.000000
0.771422 0.002738 0.000000
0.807929 0.003836 0.000000
0.844598 0.004923 0.000000
0.881408 0.006002 0.000000
0.918339 0.007073 0.000000
0.955379 0.008138 0.000000
0.992515 0.009199 0.000000
1.000000 0.010258 0.000000
1.000000 0.011544 0.000000
1.000000 0.014275 0.000000
1.000000 0.014683 0.000000
1.000000 0.014683 0.000000
0.028198 0.047034 0.028198
0.052585 0.046045 0.027208
0.088192 0.044599 0.025762
0.124041 0.043141 0.024304
0.160114 0.041672 0.022834
0.196390 0.040191 0.021353
0.232851 0.038698 0.019859
0.269479 0.037193 0.018355
0.306255 0.035677 0.016838
0.343162 0.034149 0.015310
0.380185 0.032609 0.013770
0.416726 0.031082 0.012243
0.452703 0.029571 0.010731
0.488756 0.028050 0.009209
0.524876 0.026517 0.007676
0.563172 0.027075 0.005852
0.596495 0.028363 0.004187
0.630284 0.029626 0.002495
0.664498 0.030865 0.000777
0.699097 0.032082 0.000000
0.734996 0.033237 0.000000
0.771335 0.034368 0.000000
0.807861 0.035485 0.000000
0.844545 0.036592 0.000000
0.881368 0.037690 0.000000
0.918310 0.038781 0.000000
0.955358 0.039866 0.000000
0.992499 0.040947 0.000000
1.000000 0.042026 0.000000
1.000000 0.043439 0.000000
1.000000 0.044229 0.000000
1.000000 0.044229 0.000000
1.000000 0.044229 0.000000
0.025524 0.079265 0.025524
0.049912 0.078277 0.024534
0.085521 0.076832 0.023087
0.121375 0.075375 0.021629
0.157452 0.073907 0.020160
0.193736 0.072427 0.018678
0.230205 0.070935 0.017185
0.266842 0.069432 0.015680
0.303628 0.067917 0.014164
0.340546 0.066390 0.012635
0.377581 0.064851 0.011095
0.414135 0.063325 0.009568
0.450125 0.061815 0.008057
0.486191 0.060294 0.006535
0.524333 0.060730 0.004738
0.562759 0.061828 0.002861
0.596128 0.063136 0.001192
0.629959 0.064419 0.000000
0.664212 0.065678 0.000000
0.698848 0.066915 0.000000
0.734858 0.068087 0.000000
0.771221 0.069238 0.000000
0.807766 0.070376 0.000000
0.844468 0.071504 0.000000
0.881305 0.072623 0.000000
0.918258 0.073735 0.000000
0.955314 0.074841 0.000000
0.992461 0.075944 0.000000
1.000000 0.077044 0.000000
1.000000 0.076777 0.000000
1.000000 0.076777 0.000000
1.000000 0.076777 0.000000
1.000000 0.076777 0.000000
0.022829 0.111709 0.022829
0.047218 0.110722 0.021839
0.082830 0.109279 0.020393
0.118687 0.107824 0.018935
0.154771 0.106357 0.017465
0.191060 0.104879 0.015983
0.227538 0.103389 0.014490
0.264183 0.101887 0.012985
0.300980 0.100374 0.011469
0.337909 0.098849 0.009940
0.374957 0.097311 0.008400
0.411523 0.095787 0.006873
0.447527 0.094279 0.005362
0.485458 0.094592 0.003596
0.524286 0.095702 0.001709
0.562327 0.096837 0.000000
0.595741 0.098165 0.000000
0.629615 0.099466 0.000000
0.663907 0.100745 0.000000
0.698579 0.102001 0.000000
0.734700 0.103189 0.000000
0.771086 0.104361 0.000000
0.807651 0.105520 0.000000
0.844370 0.106668 0.000000
0.881220 0.107807 0.000000
0.918185 0.108939 0.000000
0.955249 0.110066 0.000000
0.992402 0.111190 0.000000
1.000000 0.110714 0.000000
1.000000 0.109539 0.000000
1.000000 0.109539 0.000000
1.000000 0.109539 0.000000
1.000000 0.109539 0.000000
0.020114 0.144351 0.020114
0.044504 0.143365 0.019124
0.080118 0.141925 0.017677
0.115979 0.140472 0.016219
0.152068 0.139008 0.014749
0.188364 0.137532 0.013268
0.224849 0.136045 0.011775
0.261504 0.134545 0.010270
0.298311 0.133034 0.008753
0.335252 0.131511 0.007225
0.372311 0.129976 0.005685
0.408891 0.128454 0.004158
0.446604 0.128642 0.002422
0.485370 0.129783 0.000545
0.524217 0.130913 0.000000
0.561875 0.132086 0.000000
0.595334 0.133431 0.000000
0.629250 0.134752 0.000000
0.663582 0.136049 0.000000
0.698321 0.137323 0.000000
0.734522 0.138528 0.000000
0.770931 0.139718 0.000000
0.807516 0.140897 0.000000
0.844251 0.142065 0.000000
0.881115 0.143224 0.000000
0.918091 0.144376 0.000000
0.955163 0.145523 0.000000
0.990932 0.145211 0.000000
1.000000 0.143671 0.000000
1.000000 0.142499 0.000000
1.000000 0.142499 0.000000
1.000000 0.142499 0.000000
1.000000 0.142499 0.000000
0.017378 0.177178 0.017378
0.041769 0.176194 0.016388
0.077386 0.174756 0.014942
0.113251 0.173307 0.013484
0.149344 0.171845 0.012014
0.185647 0.170373 0.010532
0.222140 0.168888 0.009039
0.258804 0.167391 0.007534
0.295621 0.165883 0.006017
0.332574 0.164363 0.004489
0.369645 0.162831 0.002949
0.407778 0.162865 0.001216
0.446474 0.164036 0.000000
0.485260 0.165196 0.000000
0.524127 0.166345 0.000000
0.561403 0.167554 0.000000
0.594908 0.168918 0.000000
0.628867 0.170256 0.000000
0.663237 0.171571 0.000000
0.698096 0.172859 0.000000
0.734324 0.174083 0.000000
0.770755 0.175292 0.000000
0.807360 0.176490 0.000000
0.844112 0.177677 0.000000
0.880990 0.178855 0.000000
0.917976 0.180026 0.000000
0.953815 0.179882 0.000000
0.988419 0.178349 0.000000
1.000000 0.176812 0.000000
1.000000 0.175642 0.000000
1.000000 0.175642 0.000000
1.000000 0.175642 0.000000
1.000000 0.175642 0.000000
0.014622 0.210173 0.014622
0.039013 0.209192 0.013632
0.074633 0.207758 0.012185
0.110501 0.206312 0.010727
0.146600 0.204854 0.009257
0.182910 0.203385 0.007776
0.219410 0.201904 0.006283
0.256084 0.200411 0.004778
0.292911 0.198906 0.003261
0.329874 0.197390 0.001733
0.368396 0.197269 0.000005
0.407607 0.198445 0.000000
0.446323 0.199635 0.000000
0.485129 0.200813 0.000000
0.524016 0.201981 0.000000
0.560913 0.203225 0.000000
0.594463 0.204605 0.000000
0.628463 0.205961 0.000000
0.662873 0.207293 0.000000
0.697851 0.208595 0.000000
0.734105 0.209837 0.000000
0.770559 0.211065 0.000000
0.807184 0.212280 0.000000
0.843952 0.213485 0.000000
0.880843 0.214682 0.000000
0.916746 0.214708 0.000000
0.951281 0.213183 0.000000
0.985887 0.211654 0.000000
1.000000 0.210122 0.000000
1.000000 0.208955 0.000000
1.000000 0.208955 0.000000
1.000000 0.208955 0.000000
1.000000 0.208955 0.000000
0.011845 0.243325 0.011845
0.036237 0.242346 0.010855
0.071859 0.240916 0.009409
0.107731 0.239474 0.007951
0.143835 0.238021 0.006481
0.180151 0.236556 0.004999
0.216660 0.235079 0.003506
0.253342 0.233590 0.002001
0.290179 0.232089 0.000484
0.328432 0.231839 0.000000
0.368275 0.233014 0.000000
0.407414 0.234212 0.000000
0.446150 0.235420 0.000000
0.484977 0.236616 0.000000
0.523884 0.237802 0.000000
0.560402 0.239080 0.000000
0.593998 0.240477 0.000000
0.628041 0.241848 0.000000
0.662489 0.243197 0.000000
0.697586 0.244513 0.000000
0.733866 0.245772 0.000000
0.770343 0.247017 0.000000
0.806987 0.248250 0.000000
0.843771 0.249473 0.000000
0.879729 0.249672 0.000000
0.914191 0.248158 0.000000
0.948729 0.246638 0.000000
0.983336 0.245113 0.000000
1.000000 0.243585 0.000000
1.000000 0.242421 0.000000
1.000000 0.242421 0.000000
1.000000 0.242421 0.000000
1.000000 0.242421 0.000000
0.009048 0.276617 0.009048
0.033441 0.275642 0.008058
0.069065 0.274217 0.006612
0.104940 0.272779 0.005153
0.141049 0.271331 0.003684
0.177372 0.269870 0.002202
0.213888 0.268398 0.000709
0.250579 0.266914 0.000000
0.288545 0.266532 0.000000
0.328267 0.267737 0.000000
0.368132 0.268929 0.000000
0.407199 0.270148 0.000000
0.445956 0.271373 0.000000
0.484803 0.272587 0.000000
0.523730 0.273790 0.000000
0.559873 0.275102 0.000000
0.593513 0.276514 0.000000
0.627598 0.277901 0.000000
0.662085 0.279266 0.000000
0.697301 0.280594 0.000000
0.733606 0.281869 0.000000
0.770106 0.283131 0.000000
0.806769 0.284381 0.000000
0.842770 0.284756 0.000000
0.877150 0.283254 0.000000
0.911616 0.281745 0.000000
0.946158 0.280230 0.000000
0.980767 0.278710 0.000000
1.000000 0.277187 0.000000
1.000000 0.276027 0.000000
1.000000 0.276027 0.000000
1.000000 0.276027 0.000000
1.000000 0.276027 0.000000
0.006231 0.310038 0.006231
0.030624 0.309066 0.005241
0.066250 0.307646 0.003794
0.102129 0.306214 0.002336
0.138243 0.304770 0.000866
0.174571 0.303315 0.000000
0.211095 0.301848 0.000000
0.248755 0.301334 0.000000
0.288336 0.302567 0.000000
0.328081 0.303788 0.000000
0.367968 0.304997 0.000000
0.406963 0.306237 0.000000
0.445740 0.307478 0.000000
0.484608 0.308708 0.000000
0.523555 0.309928 0.000000
0.559324 0.311273 0.000000
0.593010 0.312699 0.000000
0.627136 0.314102 0.000000
0.661662 0.315482 0.000000
0.696995 0.316821 0.000000
0.733327 0.318113 0.000000
0.769849 0.319391 0.000000
0.805877 0.319943 0.000000
0.840165 0.318456 0.000000
0.874552 0.316960 0.000000
0.909023 0.315457 0.000000
0.943568 0.313947 0.000000
0.978179 0.312433 0.000000
1.000000 0.310916 0.000000
1.000000 0.309760 0.000000
1.000000 0.309760 0.000000
1.000000 0.309760 0.000000
1.000000 0.309760 0.000000
0.003393 0.343575 0.003393
0.027786 0.342606 0.002403
0.063414 0.341192 0.000956
0.099297 0.339765 0.000000
0.135415 0.338327 0.000000
0.171750 0.336877 0.000000
0.209083 0.336230 0.000000
0.248502 0.337491 0.000000
0.288106 0.338740 0.000000
0.327873 0.339977 0.000000
0.367782 0.341202 0.000000
0.406705 0.342461 0.000000
0.445503 0.343718 0.000000
0.484391 0.344965 0.000000
0.523359 0.346200 0.000000
0.558755 0.347577 0.000000
0.592486 0.349018 0.000000
0.626654 0.350434 0.000000
0.661219 0.351829 0.000000
0.696669 0.353180 0.000000
0.733027 0.354486 0.000000
0.769062 0.355220 0.000000
0.803245 0.353748 0.000000
0.837541 0.352267 0.000000
0.871934 0.350777 0.000000
0.906411 0.349280 0.000000
0.940959 0.347776 0.000000
0.975572 0.346268 0.000000
1.000000 0.344757 0.000000
1.000000 0.343606 0.000000
1.000000 0.343606 0.000000
1.000000 0.343606 0.000000
1.000000 0.343606 0.000000
0.000534 0.377215 0.000534
0.024928 0.376250 0.000000
0.060558 0.374842 0.000000
0.096444 0.373421 0.000000
0.132567 0.371989 0.000000
0.169553 0.371207 0.000000
0.208786 0.372495 0.000000
0.248228 0.373771 0.000000
0.287854 0.375035 0.000000
0.327650 0.376206 0.000000
0.367589 0.377351 0.000000
0.406448 0.378534 0.000000
0.445275 0.379712 0.000000
0.484191 0.380878 0.000000
0.523187 0.382034 0.000000
0.558220 0.383346 0.000000
0.592003 0.384705 0.000000
0.626221 0.386040 0.000000
0.660831 0.387352 0.000000
0.696405 0.388618 0.000000
0.732429 0.389452 0.000000
0.766489 0.387999 0.000000
0.800681 0.386533 0.000000
0.834985 0.385058 0.000000
0.869385 0.383574 0.000000
0.903866 0.382083 0.000000
0.938419 0.380586 0.000000
0.973033 0.379084 0.000000
1.000000 0.377579 0.000000
1.000000 0.376433 0.000000
1.000000 0.376433 0.000000
1.000000 0.376433 0.000000
1.000000 0.376433 0.000000
0.000000 0.410148 0.000000
0.022118 0.409188 0.000000
0.057749 0.407786 0.000000
0.093638 0.406372 0.000000
0.130258 0.405436 0.000000
0.169289 0.406655 0.000000
0.208553 0.407862 0.000000
0.248025 0.409057 0.000000
0.287681 0.410241 0.000000
0.327500 0.411413 0.000000
0.367461 0.412573 0.000000
0.406247 0.413774 0.000000
0.445095 0.414965 0.000000
0.484031 0.416146 0.000000
0.523048 0.417315 0.000000
0.557712 0.418657 0.000000
0.591539 0.420028 0.000000
0.625798 0.421375 0.000000
0.660447 0.422700 0.000000
0.695913 0.423734 0.000000
0.729828 0.422300 0.000000
0.763898 0.420852 0.000000
0.798099 0.419394 0.000000
0.832412 0.417925 0.000000
0.866818 0.416448 0.000000
0.901305 0.414963 0.000000
0.935861 0.413473 0.000000
0.970478 0.411977 0.000000
1.000000 0.410479 0.000000
1.000000 0.409337 0.000000
1.000000 0.409337 0.000000
1.000000 0.409337 0.000000
1.000000 0.409337 0.000000
0.000000 0.442841 0.000000
0.019316 0.441885 0.000000
0.054949 0.440489 0.000000
0.091179 0.439422 0.000000
0.129977 0.440666 0.000000
0.169031 0.441899 0.000000
0.208316 0.443119 0.000000
0.247810 0.444328 0.000000
0.287489 0.445525 0.000000
0.327330 0.446711 0.000000
0.367260 0.447887 0.000000
0.406027 0.449103 0.000000
0.444895 0.450308 0.000000
0.483852 0.451502 0.000000
0.522889 0.452685 0.000000
0.557186 0.454056 0.000000
0.591057 0.455439 0.000000
0.625357 0.456798 0.000000
0.659964 0.458045 0.000000
0.693282 0.456649 0.000000
0.727208 0.455221 0.000000
0.761289 0.453780 0.000000
0.795500 0.452328 0.000000
0.829820 0.450866 0.000000
0.864234 0.449396 0.000000
0.898726 0.447918 0.000000
0.933286 0.446434 0.000000
0.967905 0.444946 0.000000
1.000000 0.443454 0.000000
1.000000 0.442318 0.000000
1.000000 0.442318 0.000000
1.000000 0.442318 0.000000
1.000000 0.442318 0.000000
0.000000 0.475604 0.000000
0.016495 0.474653 0.000000
0.052316 0.473454 0.000000
0.090855 0.474723 0.000000
0.129675 0.475980 0.000000
0.168751 0.477226 0.000000
0.208059 0.478460 0.000000
0.247576 0.479682 0.000000
0.287277 0.480892 0.000000
0.327140 0.482091 0.000000
0.366998 0.483284 0.000000
0.405786 0.484513 0.000000
0.444675 0.485732 0.000000
0.483653 0.486939 0.000000
0.522710 0.488136 0.000000
0.556641 0.489535 0.000000
0.590557 0.490928 0.000000
0.624898 0.492299 0.000000
0.657303 0.491019 0.000000
0.690633 0.489630 0.000000
0.724570 0.488209 0.000000
0.758661 0.486775 0.000000
0.792882 0.485330 0.000000
0.827211 0.483875 0.000000
0.861631 0.482411 0.000000
0.896129 0.480940 0.000000
0.930693 0.479464 0.000000
0.965314 0.477983 0.000000
0.999986 0.476498 0.000000
1.000000 0.475367 0.000000
1.000000 0.475367 0.000000
1.000000 0.475367 0.000000
1.000000 0.475367 0.000000
0.000000 0.508433 0.000000
0.013693 0.507526 0.000000
0.051949 0.508819 0.000000
0.090510 0.510101 0.000000
0.129353 0.511371 0.000000
0.168451 0.512629 0.000000
0.207782 0.513876 0.000000
0.247320 0.515111 0.000000
0.287044 0.516334 0.000000
0.326930 0.517546 0.000000
0.366716 0.518756 0.000000
0.405526 0.519998 0.000000
0.444436 0.521229 0.000000
0.483434 0.522450 0.000000
0.522518 0.523573 0.000000
0.556121 0.524584 0.000000
0.590114 0.525575 0.000000
0.622337 0.524441 0.000000
0.654700 0.523105 0.000000
0.688041 0.521723 0.000000
0.721990 0.520308 0.000000
0.756092 0.518881 0.000000
0.790322 0.517443 0.000000
0.824659 0.515995 0.000000
0.859086 0.514538 0.000000
0.893589 0.513074 0.000000
0.928157 0.511605 0.000000
0.962781 0.510130 0.000000
0.997454 0.508653 0.000000
1.000000 0.507527 0.000000
1.000000 0.507527 0.000000
1.000000 0.507527 0.000000
1.000000 0.507527 0.000000
0.000000 0.541322 0.000000
0.013283 0.542950 0.000000
0.051596 0.543865 0.000000
0.090215 0.544746 0.000000
0.129115 0.545617 0.000000
0.168272 0.546479 0.000000
0.207659 0.547332 0.000000
0.247255 0.548174 0.000000
0.287035 0.549008 0.000000
0.326976 0.549831 0.000000
0.366724 0.550658 0.000000
0.405587 0.551516 0.000000
0.444549 0.552365 0.000000
0.483599 0.553205 0.000000
0.522393 0.554050 0.000000
0.555963 0.555101 0.000000
0.587966 0.554128 0.000000
0.620013 0.552817 0.000000
0.652386 0.551487 0.000000
0.685738 0.550110 0.000000
0.719697 0.548702 0.000000
0.753808 0.547281 0.000000
0.788046 0.545849 0.000000
0.822391 0.544407 0.000000
0.856824 0.542956 0.000000
0.891333 0.541498 0.000000
0.925904 0.540035 0.000000
0.960530 0.538567 0.000000
0.995204 0.537095 0.000000
1.000000 0.535974 0.000000
1.000000 0.535974 0.000000
1.000000 0.535974 0.000000
1.000000 0.535974 0.000000
0.000000 0.572083 0.000000
0.013300 0.573346 0.000000
0.051634 0.574275 0.000000
0.090273 0.575195 0.000000
0.129193 0.576105 0.000000
0.168368 0.577006 0.000000
0.207776 0.577896 0.000000
0.247390 0.578777 0.000000
0.287189 0.579649 0.000000
0.327149 0.580510 0.000000
0.366822 0.581378 0.000000
0.405702 0.582273 0.000000
0.444681 0.583160 0.000000
0.483748 0.584037 0.000000
0.522151 0.584935 0.000000
0.553894 0.584126 0.000000
0.585592 0.582842 0.000000
0.617650 0.581537 0.000000
0.650034 0.580213 0.000000
0.683396 0.578842 0.000000
0.717366 0.577439 0.000000
0.751486 0.576024 0.000000
0.785733 0.574598 0.000000
0.820085 0.573162 0.000000
0.854525 0.571718 0.000000
0.889039 0.570266 0.000000
0.923614 0.568809 0.000000
0.958243 0.567347 0.000000
0.992918 0.565882 0.000000
1.000000 0.564766 0.000000
1.000000 0.564766 0.000000
1.000000 0.564766 0.000000
1.000000 0.564766 0.000000
0.000000 0.602928 0.000000
0.013273 0.604123 0.000000
0.051627 0.605089 0.000000
0.090286 0.606045 0.000000
0.129225 0.606991 0.000000
0.168420 0.607927 0.000000
0.207847 0.608853 0.000000
0.247481 0.609769 0.000000
0.287299 0.610675 0.000000
0.327278 0.611572 0.000000
0.366876 0.612479 0.000000
0.405774 0.613408 0.000000
0.444771 0.614329 0.000000
0.483855 0.615240 0.000000
0.520157 0.614406 0.000000
0.551471 0.613149 0.000000
0.583180 0.611871 0.000000
0.615249 0.610572 0.000000
0.647645 0.609253 0.000000
0.681018 0.607888 0.000000
0.714998 0.606492 0.000000
0.749128 0.605083 0.000000
0.783384 0.603662 0.000000
0.817744 0.602233 0.000000
0.852190 0.600795 0.000000
0.886709 0.599349 0.000000
0.921289 0.597898 0.000000
0.955920 0.596443 0.000000
0.990596 0.594984 0.000000
1.000000 0.593872 0.000000
1.000000 0.593872 0.000000
1.000000 0.593872 0.000000
1.000000 0.593872 0.000000
0.000000 0.634144 0.000000
0.013202 0.635271 0.000000
0.051577 0.636270 0.000000
0.090256 0.637259 0.000000
0.129215 0.638238 0.000000
0.168430 0.639207 0.000000
0.207877 0.640166 0.000000
0.247531 0.641115 0.000000
0.287368 0.642053 0.000000
0.327367 0.642982 0.000000
0.366890 0.643925 0.000000
0.405806 0.644886 0.000000
0.444821 0.645838 0.000000
0.482047 0.645128 0.000000
0.517687 0.643712 0.000000
0.549013 0.642461 0.000000
0.580734 0.641188 0.000000
0.612814 0.639895 0.000000
0.645221 0.638581 0.000000
0.678605 0.637222 0.000000
0.712596 0.635831 0.000000
0.746736 0.634428 0.000000
0.781001 0.633014 0.000000
0.815369 0.631591 0.000000
0.849822 0.630159 0.000000
0.884346 0.628719 0.000000
0.918930 0.627275 0.000000
0.953564 0.625825 0.000000
0.988241 0.624373 0.000000
1.000000 0.623266 0.000000
1.000000 0.623266 0.000000
1.000000 0.623266 0.000000
1.000000 0.623266 0.000000
0.000000 0.665700 0.000000
0.013091 0.666757 0.000000
0.051486 0.667786 0.000000
0.090185 0.668806 0.000000
0.129165 0.669815 0.000000
0.168401 0.670814 0.000000
0.207868 0.671804 0.000000
0.247540 0.672807 0.000000
0.287390 0.673861 0.000000
0.327401 0.674904 0.000000
0.366842 0.675964 0.000000
0.405769 0.677039 0.000000
0.443082 0.676519 0.000000
0.479497 0.675086 0.000000
0.515151 0.673676 0.000000
0.546488 0.672430 0.000000
0.578221 0.671163 0.000000
0.610313 0.669874 0.000000
0.642731 0.668567 0.000000
0.676127 0.667213 0.000000
0.710129 0.665828 0.000000
0.744279 0.664431 0.000000
0.778553 0.663023 0.000000
0.812929 0.661605 0.000000
0.847390 0.660179 0.000000
0.881920 0.658746 0.000000
0.916508 0.657307 0.000000
0.951145 0.655864 0.000000
0.985824 0.654418 0.000000
1.000000 0.653316 0.000000
1.000000 0.653316 0.000000
1.000000 0.653316 0.000000
1.000000 0.653316 0.000000
0.000000 0.697988 0.000000
0.012890 0.699139 0.000000
0.051298 0.700279 0.000000
0.090011 0.701408 0.000000
0.129004 0.702526 0.000000
0.168253 0.703634 0.000000
0.207734 0.704730 0.000000
0.247422 0.705816 0.000000
0.287293 0.706891 0.000000
0.327325 0.707955 0.000000
0.366694 0.709039 0.000000
0.404085 0.708682 0.000000
0.440439 0.707265 0.000000
0.476868 0.705839 0.000000
0.512535 0.704434 0.000000
0.543885 0.703194 0.000000
0.575630 0.701931 0.000000
0.607734 0.700648 0.000000
0.640164 0.699346 0.000000
0.673572 0.697997 0.000000
0.707585 0.696618 0.000000
0.741746 0.695227 0.000000
0.776030 0.693825 0.000000
0.810415 0.692413 0.000000
0.844883 0.690993 0.000000
0.879419 0.689566 0.000000
0.914012 0.688133 0.000000
0.948651 0.686696 0.000000
0.983332 0.685255 0.000000
1.000000 0.684158 0.000000
1.000000 0.684158 0.000000
1.000000 0.684158 0.000000
1.000000 0.684158 0.000000
0.000000 0.731044 0.000000
0.012616 0.732214 0.000000
0.051046 0.733373 0.000000
0.089780 0.734520 0.000000
0.128795 0.735657 0.000000
0.168066 0.736783 0.000000
0.207568 0.737898 0.000000
0.247278 0.739002 0.000000
0.287171 0.740095 0.000000
0.327225 0.741176 0.000000
0.365121 0.740965 0.000000
0.401405 0.739564 0.000000
0.437773 0.738153 0.000000
0.474215 0.736732 0.000000
0.509896 0.735333 0.000000
0.541258 0.734097 0.000000
0.573015 0.732840 0.000000
0.605132 0.731562 0.000000
0.637574 0.730264 0.000000
0.670994 0.728921 0.000000
0.705019 0.727548 0.000000
0.739191 0.726162 0.000000
0.773484 0.724765 0.000000
0.807878 0.723358 0.000000
0.842353 0.721944 0.000000
0.876896 0.720523 0.000000
0.911493 0.719096 0.000000
0.946136 0.717664 0.000000
0.980818 0.716229 0.000000
1.000000 0.715137 0.000000
1.000000 0.715137 0.000000
1.000000 0.715137 0.000000
1.000000 0.715137 0.000000
0.000000 0.764265 0.000000
0.012318 0.765452 0.000000
0.050769 0.766627 0.000000
0.089525 0.767791 0.000000
0.128561 0.768944 0.000000
0.167855 0.770086 0.000000
0.207379 0.771216 0.000000
0.247111 0.772336 0.000000
0.287025 0.773444 0.000000
0.325811 0.773363 0.000000
0.362407 0.771963 0.000000
0.398703 0.770567 0.000000
0.435085 0.769161 0.000000
0.471541 0.767745 0.000000
0.507236 0.766351 0.000000
0.538610 0.765120 0.000000
0.570380 0.763866 0.000000
0.602509 0.762593 0.000000
0.634964 0.761300 0.000000
0.668396 0.759962 0.000000
0.702432 0.758594 0.000000
0.736615 0.757213 0.000000
0.770919 0.755821 0.000000
0.805321 0.754420 0.000000
0.839804 0.753011 0.000000
0.874353 0.751595 0.000000
0.908956 0.750173 0.000000
0.943602 0.748747 0.000000
0.978286 0.747317 0.000000
1.000000 0.746229 0.000000
1.000000 0.746229 0.000000
1.000000 0.746229 0.000000
1.000000 0.746229 0.000000
0.000000 0.797627 0.000000
0.011997 0.798828 0.000000
0.050470 0.800017 0.000000
0.089248 0.801195 0.000000
0.128307 0.802362 0.000000
0.167623 0.803517 0.000000
0.207169 0.804661 0.000000
0.246923 0.805793 0.000000
0.285732 0.805876 0.000000
0.323066 0.804459 0.000000
0.359673 0.803063 0.000000
0.395983 0.801672 0.000000
0.432378 0.800270 0.000000
0.468848 0.798859 0.000000
0.504557 0.797469 0.000000
0.535944 0.796241 0.000000
0.567726 0.794992 0.000000
0.599868 0.793723 0.000000
0.632335 0.792435 0.000000
0.665779 0.791101 0.000000
0.699827 0.789737 0.000000
0.734021 0.788361 0.000000
0.768335 0.786974 0.000000
0.802747 0.785577 0.000000
0.837238 0.784173 0.000000
0.871793 0.782761 0.000000
0.906401 0.781345 0.000000
0.941051 0.779923 0.000000
0.975736 0.778499 0.000000
1.000000 0.777414 0.000000
1.000000 0.777414 0.000000
1.000000 0.777414 0.000000
1.000000 0.777414 0.000000
0.000000 0.831108 0.000000
0.011658 0.832320 0.000000
0.050153 0.833521 0.000000
0.088953 0.834711 0.000000
0.128035 0.835889 0.000000
0.167373 0.837055 0.000000
0.206942 0.838211 0.000000
0.245750 0.838456 0.000000
0.282958 0.837053 0.000000
0.320304 0.835640 0.000000
0.356923 0.834248 0.000000
0.393246 0.832861 0.000000
0.429655 0.831463 0.000000
0.466139 0.830056 0.000000
0.501862 0.828670 0.000000
0.533261 0.827446 0.000000
0.565056 0.826201 0.000000
0.597211 0.824935 0.000000
0.629690 0.823650 0.000000
0.663147 0.822321 0.000000
0.697207 0.820961 0.000000
0.731412 0.819588 0.000000
0.765736 0.818206 0.000000
0.800157 0.816813 0.000000
0.834656 0.815413 0.000000
0.869218 0.814006 0.000000
0.903831 0.812594 0.000000
0.938485 0.811177 0.000000
0.973172 0.809757 0.000000
0.999577 0.808675 0.000000
0.999577 0.808675 0.000000
0.999577 0.808675 0.000000
0.999577 0.808675 0.000000
0.000000 0.864688 0.000000
0.011303 0.865910 0.000000
0.049820 0.867121 0.000000
0.088643 0.868320 0.000000
0.127748 0.869508 0.000000
0.167108 0.870684 0.000000
0.205891 0.871091 0.000000
0.242952 0.869703 0.000000
0.280170 0.868304 0.000000
0.317527 0.866893 0.000000
0.354159 0.865505 0.000000
0.390495 0.864121 0.000000
0.426917 0.862727 0.000000
0.463415 0.861323 0.000000
0.499153 0.859940 0.000000
0.530564 0.858719 0.000000
0.562372 0.857477 0.000000
0.594539 0.856215 0.000000
0.627031 0.854933 0.000000
0.660500 0.853607 0.000000
0.694572 0.852250 0.000000
0.728789 0.850882 0.000000
0.763124 0.849502 0.000000
0.797554 0.848114 0.000000
0.832061 0.846717 0.000000
0.866630 0.845314 0.000000
0.901248 0.843905 0.000000
0.935905 0.842492 0.000000
0.970595 0.841076 0.000000
