flutter_app/assets/lut/cameras/u300_portra.cube
TITLE "U300 Portra"
LUT_3D_SIZE 9
0.039569 0.039569 0.039569
0.165965 0.037739 0.037739
0.300291 0.035778 0.035778
0.434824 0.033785 0.033785
0.565255 0.031817 0.031817
0.693736 0.031695 0.029787
0.828917 0.039828 0.027374
0.965519 0.047939 0.024913
0.989615 0.052681 0.024381
0.036476 0.146929 0.036476
0.162889 0.145107 0.034647
0.297250 0.143154 0.032686
0.433826 0.143157 0.030604
0.570464 0.151578 0.028234
0.699421 0.160099 0.025942
0.834782 0.168507 0.023515
0.967309 0.172538 0.021238
0.986478 0.172236 0.020934
0.032862 0.271535 0.032862
0.159292 0.269731 0.031032
0.295132 0.269229 0.029007
0.440068 0.277783 0.026544
0.575513 0.286454 0.024181
0.705177 0.295192 0.021866
0.837149 0.299989 0.019597
0.963988 0.298016 0.017590
0.983157 0.297717 0.017286
0.029165 0.397397 0.029165
0.156437 0.396441 0.027298
0.301454 0.404832 0.024867
0.446251 0.413208 0.022405
0.580536 0.421711 0.020060
0.707929 0.427083 0.017877
0.833767 0.425177 0.015906
0.960628 0.423235 0.013899
0.979798 0.422941 0.013595
0.025463 0.521341 0.025463
0.162550 0.528898 0.023190
0.307857 0.535889 0.020792
0.452546 0.542901 0.018367
0.583451 0.547840 0.016176
0.704613 0.546065 0.014309
0.830496 0.544192 0.012339
0.957380 0.542283 0.010331
0.976551 0.541993 0.010027
0.026954 0.638742 0.021819
0.169070 0.646218 0.019469
0.314603 0.653752 0.017045
0.457111 0.659665 0.014682
0.580276 0.657922 0.012819
0.701492 0.656175 0.010951
0.827417 0.654331 0.008981
0.954322 0.652453 0.006974
0.973495 0.652168 0.006669
0.032913 0.763331 0.017821
0.175310 0.771353 0.015445
0.319626 0.777989 0.013063
0.453634 0.776154 0.011073
0.576861 0.774436 0.009209
0.698135 0.772715 0.007342
0.824107 0.770898 0.005371
0.951036 0.769047 0.003364
0.970209 0.768766 0.003060
0.038772 0.890201 0.013698
0.180631 0.897535 0.011349
0.316003 0.895728 0.009370
0.450073 0.893912 0.007379
0.573364 0.892210 0.005515
0.694698 0.890506 0.003648
0.820718 0.888707 0.001677
0.947672 0.886874 0.000000
0.966847 0.886596 0.000000
0.045640 0.977261 0.010808
0.178186 0.975514 0.008888
0.313588 0.973712 0.006908
0.447700 0.971901 0.004918
0.571034 0.970204 0.003054
0.692407 0.968504 0.001187
0.818459 0.966711 0.000000
0.945430 0.964883 0.000000
0.964606 0.964606 0.000000
0.039024 0.039024 0.139226
0.165423 0.037195 0.137403
0.299755 0.035234 0.135449
0.434297 0.033240 0.133462
0.562196 0.031311 0.131540
0.684480 0.029432 0.129667
0.819716 0.030346 0.127472
0.956262 0.038438 0.125022
0.989358 0.043026 0.124349
0.035932 0.146387 0.136144
0.162347 0.144564 0.134321
0.296714 0.142611 0.132367
0.431308 0.140625 0.130380
0.562012 0.141880 0.128321
0.690348 0.150395 0.126048
0.825581 0.158790 0.123633
0.962205 0.167160 0.121171
0.985982 0.171694 0.120651
0.032317 0.270998 0.132542
0.158750 0.269193 0.130719
0.293159 0.267259 0.128764
0.430402 0.267931 0.126659
0.567034 0.276574 0.124289
0.696095 0.285310 0.121994
0.831514 0.293931 0.119564
0.963492 0.297480 0.117316
0.982661 0.297181 0.117013
0.028620 0.396868 0.128857
0.155070 0.395091 0.127033
0.291572 0.395186 0.124987
0.436572 0.403552 0.122533
0.572023 0.412031 0.120179
0.701802 0.420569 0.117872
0.833268 0.424650 0.115637
0.960132 0.422708 0.113635
0.979302 0.422413 0.113332
0.024926 0.520578 0.125174
0.152816 0.520263 0.123285
0.297928 0.527519 0.120891
0.442825 0.534493 0.118473
0.577149 0.541624 0.116172
0.704107 0.545547 0.114044
0.829997 0.543674 0.112078
0.956884 0.541764 0.110076
0.976055 0.541475 0.109773
0.021602 0.629995 0.121860
0.159325 0.637504 0.119582
0.304678 0.644925 0.117173
0.449404 0.652482 0.114734
0.579760 0.657412 0.112557
0.700985 0.655665 0.110695
0.826918 0.653821 0.108729
0.953826 0.651943 0.106726
0.972999 0.651658 0.106423
0.023430 0.754170 0.117952
0.165565 0.762186 0.115588
0.311148 0.770151 0.113153
0.453109 0.775652 0.110816
0.576345 0.773934 0.108956
0.697628 0.772213 0.107093
0.823607 0.770396 0.105127
0.950540 0.768544 0.103124
0.969713 0.768264 0.102821
0.029272 0.880966 0.113846
0.171704 0.889087 0.111470
0.315468 0.895231 0.109117
0.449548 0.893414 0.107131
0.572849 0.891713 0.105271
0.694191 0.890008 0.103408
0.820218 0.888209 0.101441
0.947176 0.886376 0.099438
0.966351 0.886099 0.099134
0.035961 0.976886 0.110683
0.177644 0.975018 0.108636
0.313053 0.973216 0.106661
0.447175 0.971405 0.104675
0.570518 0.969708 0.102815
0.691900 0.968008 0.100952
0.817959 0.966215 0.098985
0.944934 0.964387 0.096982
0.964110 0.964110 0.096678
0.038359 0.038359 0.260067
0.164762 0.036530 0.258261
0.299101 0.034569 0.256325
0.433655 0.032576 0.254357
0.561565 0.030646 0.252451
0.679985 0.028828 0.250654
0.809666 0.026803 0.248654
0.946323 0.028250 0.246416
0.989006 0.032675 0.245600
0.035267 0.145725 0.257014
0.161685 0.143902 0.255208
0.296061 0.141949 0.253271
0.430665 0.139963 0.251302
0.558631 0.138041 0.249396
0.680614 0.139986 0.247434
0.815704 0.148367 0.245046
0.952270 0.156720 0.242607
0.985629 0.161430 0.241932
0.031652 0.270342 0.253445
0.158088 0.268538 0.251638
0.292505 0.266603 0.249700
0.427169 0.264637 0.247731
0.557949 0.265973 0.245686
0.686351 0.274707 0.243424
0.821636 0.283318 0.241021
0.958281 0.291902 0.238570
0.982056 0.296527 0.238050
0.027955 0.396222 0.249792
0.154408 0.394445 0.247985
0.288867 0.392539 0.246046
0.426183 0.393186 0.243960
0.562900 0.401639 0.241612
0.692038 0.410179 0.239337
0.827519 0.418605 0.236929
0.959527 0.422064 0.234700
0.978697 0.421770 0.234400
0.024261 0.519943 0.246142
0.150731 0.518197 0.244333
0.287281 0.518343 0.242303
0.432390 0.525486 0.239901
0.567958 0.532563 0.237604
0.697845 0.539728 0.235353
0.829387 0.543041 0.233157
0.956278 0.541132 0.231170
0.975450 0.540843 0.230869
0.020960 0.628610 0.242879
0.148873 0.628162 0.241010
0.294025 0.635559 0.238628
0.438977 0.642960 0.236214
0.573357 0.650650 0.233911
0.700367 0.655043 0.231784
0.826308 0.653199 0.229834
0.953221 0.651320 0.227847
0.972394 0.651035 0.227546
0.017390 0.744283 0.239350
0.155114 0.752347 0.237070
0.300500 0.760306 0.234661
0.445288 0.768256 0.232226
0.575716 0.773321 0.230060
0.697009 0.771600 0.228212
0.822997 0.769782 0.226261
0.949934 0.767931 0.224274
0.969108 0.767650 0.223972
0.019087 0.871052 0.235343
0.161239 0.879171 0.232992
0.306872 0.887234 0.230571
0.448907 0.892807 0.228248
0.572219 0.891106 0.226403
0.693572 0.889401 0.224555
0.819607 0.887602 0.222603
0.946570 0.885769 0.220615
0.965746 0.885491 0.220314
0.025456 0.976410 0.231913
0.168219 0.974529 0.229868
0.312401 0.972611 0.227783
0.446533 0.970799 0.225812
0.569888 0.969103 0.223967
0.691280 0.967403 0.222118
0.817349 0.965609 0.220166
0.944329 0.963782 0.218178
0.963505 0.963505 0.217876
0.037676 0.037676 0.382771
0.164082 0.035847 0.380990
0.298430 0.033886 0.379081
0.432994 0.031893 0.377140
0.560917 0.029963 0.375261
0.679348 0.028144 0.373489
0.804531 0.026191 0.371585
0.936211 0.024111 0.369558
0.988612 0.023280 0.368748
0.034584 0.145044 0.379761
0.161005 0.143222 0.377979
0.295389 0.141268 0.376069
0.430004 0.139282 0.374127
0.557983 0.137360 0.372248
0.676463 0.135548 0.370475
0.805816 0.137942 0.368381
0.942321 0.146278 0.365979
0.985268 0.150828 0.365165
0.030969 0.269668 0.376241
0.157408 0.267864 0.374459
0.291833 0.265930 0.372548
0.426508 0.263963 0.370605
0.554551 0.262059 0.368724
0.676603 0.264097 0.366786
0.811746 0.272698 0.364420
0.948337 0.281269 0.362005
0.981694 0.286081 0.361334
0.027272 0.395559 0.372639
0.153728 0.393781 0.370856
0.288195 0.391875 0.368944
0.422931 0.389937 0.367001
0.553791 0.391235 0.364984
0.682270 0.399778 0.362753
0.817619 0.408197 0.360383
0.954298 0.416585 0.357966
0.978075 0.421108 0.357454
0.023578 0.519291 0.369038
0.150050 0.517544 0.367254
0.284559 0.515672 0.365342
0.421945 0.516376 0.363281
0.558779 0.523517 0.360997
0.688027 0.530656 0.358789
0.823602 0.537711 0.356449
0.955656 0.540482 0.354267
0.974828 0.540192 0.353970
0.020277 0.627969 0.365820
0.146764 0.626250 0.364035
0.283365 0.626200 0.362037
0.428534 0.633572 0.359657
0.564162 0.641073 0.357374
0.694099 0.648815 0.355130
0.825681 0.652559 0.352948
0.952599 0.650680 0.350987
0.971772 0.650396 0.350690
0.016732 0.742847 0.362362
0.144660 0.742499 0.360515
0.289843 0.750451 0.358143
0.434851 0.758389 0.355741
0.569297 0.766451 0.353452
0.696373 0.770969 0.351347
0.822370 0.769152 0.349422
0.949312 0.767301 0.347460
0.968486 0.767020 0.347163
0.013035 0.861069 0.358754
0.150772 0.869242 0.356498
0.296206 0.877305 0.354114
0.441067 0.885350 0.351705
0.571572 0.890482 0.349562
0.692936 0.888777 0.347737
0.818980 0.886978 0.345811
0.945948 0.885145 0.343849
0.965124 0.884868 0.343551
0.014955 0.975917 0.355138
0.157438 0.974040 0.353125
0.303425 0.972101 0.351043
0.445874 0.970177 0.348979
0.569241 0.968481 0.347157
0.690644 0.966781 0.345332
0.816721 0.964987 0.343405
0.943706 0.963160 0.341442
0.962883 0.962883 0.341144
0.036998 0.036998 0.502673
0.163408 0.035169 0.500922
0.297763 0.033208 0.499045
0.432339 0.031214 0.497136
0.560274 0.029285 0.495288
0.678715 0.027466 0.493546
0.803907 0.025513 0.491673
0.930479 0.023514 0.489757
0.987995 0.022601 0.488883
0.033906 0.144369 0.499713
0.160331 0.142546 0.497961
0.294722 0.140593 0.496083
0.429349 0.138607 0.494174
0.557339 0.136684 0.492325
0.675830 0.134872 0.490581
0.801064 0.132925 0.488708
0.932378 0.135857 0.486580
0.984912 0.140246 0.485634
0.030291 0.269000 0.496252
0.156734 0.267195 0.494499
0.291166 0.265261 0.492620
0.425852 0.263294 0.490710
0.553907 0.261390 0.488860
0.672456 0.259595 0.487116
0.801867 0.262094 0.485052
0.938399 0.270652 0.482680
0.981346 0.275307 0.481874
0.026594 0.394900 0.492710
0.153053 0.393122 0.490956
0.287528 0.391216 0.489076
0.422274 0.389278 0.487164
0.550395 0.387402 0.485314
0.672520 0.389387 0.483407
0.807729 0.397800 0.481080
0.944356 0.406180 0.478706
0.977717 0.410887 0.478047
0.022899 0.518644 0.489168
0.149375 0.516897 0.487414
0.283891 0.515024 0.485533
0.418697 0.513120 0.483620
0.549635 0.514480 0.481633
0.678225 0.521621 0.479474
0.813672 0.528642 0.477178
0.950416 0.535662 0.474835
0.974211 0.539547 0.474347
0.019599 0.627332 0.486003
0.146089 0.625612 0.484248
0.280641 0.623769 0.482366
0.418100 0.624212 0.480345
0.554997 0.631669 0.478085
0.684300 0.639231 0.475897
0.819911 0.646882 0.473573
0.951981 0.650045 0.471413
0.971154 0.649761 0.471120
0.016054 0.742220 0.482602
0.142559 0.740526 0.480846
0.279202 0.740609 0.478876
0.424425 0.748535 0.476513
0.560115 0.756571 0.474247
0.690112 0.764664 0.472026
0.821748 0.768527 0.469872
0.948694 0.766675 0.467942
0.967869 0.766394 0.467650
0.012382 0.859637 0.479078
0.140326 0.859321 0.477259
0.285555 0.867383 0.474919
0.430634 0.875423 0.472549
0.565157 0.883578 0.470291
0.692304 0.888158 0.468215
0.818358 0.886359 0.466320
0.945330 0.884526 0.464389
0.964506 0.884248 0.464097
0.008732 0.975373 0.475573
0.146678 0.973556 0.473656
0.292467 0.971621 0.471613
0.437701 0.969663 0.469545
0.568598 0.967864 0.467644
0.690013 0.966164 0.465848
0.816099 0.964370 0.463952
0.943089 0.962543 0.462021
0.962266 0.962266 0.461728
0.036373 0.036373 0.611406
0.162786 0.034543 0.609683
0.297148 0.032582 0.607835
0.431735 0.030589 0.605957
0.559681 0.028660 0.604138
0.678132 0.026841 0.602424
0.803333 0.024887 0.600581
0.929909 0.022888 0.598696
0.987426 0.021976 0.597835
0.033280 0.143746 0.608493
0.159709 0.141924 0.606769
0.294107 0.139970 0.604921
0.428744 0.137984 0.603042
0.556746 0.136061 0.601222
0.675246 0.134249 0.599507
0.800489 0.132302 0.597664
0.927091 0.130310 0.595778
0.984602 0.129735 0.594908
0.029666 0.268383 0.605087
0.156111 0.266578 0.603362
0.290551 0.264644 0.601513
0.425247 0.262677 0.599633
0.553314 0.260773 0.597813
0.671873 0.258978 0.596097
0.797165 0.257049 0.594253
0.928511 0.260099 0.592153
0.981045 0.264597 0.591217
0.025969 0.394292 0.601601
0.152431 0.392514 0.599876
0.286912 0.390608 0.598025
0.421669 0.388670 0.596145
0.549801 0.386794 0.594324
0.668420 0.385024 0.592606
0.797893 0.387461 0.590576
0.934463 0.395832 0.588242
0.977414 0.400387 0.587450
0.022274 0.518047 0.598117
0.148753 0.516300 0.596390
0.283275 0.514427 0.594539
0.418092 0.512522 0.592657
0.546290 0.510679 0.590835
0.668485 0.512671 0.588957
0.803794 0.519656 0.586703
0.940489 0.526640 0.584401
0.973870 0.530653 0.583769
0.018973 0.626744 0.595002
0.145466 0.625025 0.593275
0.280025 0.623181 0.591423
0.414894 0.621308 0.589540
0.545913 0.622338 0.587593
0.674557 0.629884 0.585453
0.810045 0.637329 0.583177
0.946800 0.644963 0.580849
0.970585 0.649175 0.580357
0.015429 0.741641 0.591656
0.141936 0.739948 0.589928
0.276533 0.738132 0.588075
0.414055 0.738738 0.586081
0.551013 0.746747 0.583836
0.680369 0.754841 0.581663
0.816029 0.762825 0.579361
0.948125 0.766098 0.577230
0.967300 0.765817 0.576942
0.011757 0.859065 0.588188
0.138278 0.857391 0.586459
0.274967 0.857512 0.584518
0.420258 0.865547 0.582186
0.556024 0.873683 0.579949
0.686092 0.881867 0.577757
0.817784 0.885788 0.575634
0.944761 0.883955 0.573734
0.963937 0.883677 0.573446
0.008107 0.974803 0.584739
0.135987 0.973120 0.582991
0.281572 0.971189 0.580984
0.427027 0.969230 0.578949
0.561932 0.967379 0.577024
0.689430 0.965595 0.575170
0.815525 0.963801 0.573304
0.942519 0.961973 0.571404
0.961696 0.961696 0.571115
0.035734 0.035734 0.720847
0.162150 0.033904 0.719150
0.296520 0.031943 0.717330
0.431117 0.029950 0.715479
0.559074 0.028021 0.713688
0.677536 0.026202 0.711999
0.802745 0.024248 0.710185
0.929327 0.022249 0.708328
0.986844 0.021337 0.707480
0.032641 0.143109 0.717977
0.159072 0.141287 0.716279
0.293478 0.139333 0.714459
0.428126 0.137347 0.712608
0.556139 0.135424 0.710816
0.674650 0.133612 0.709126
0.799902 0.131665 0.707311
0.926508 0.129673 0.705454
0.984029 0.128763 0.704606
0.029027 0.267753 0.714622
0.155475 0.265948 0.712923
0.289922 0.264013 0.711102
0.424629 0.262046 0.709251
0.552707 0.260142 0.707458
0.671276 0.258347 0.705768
0.796577 0.256418 0.703951
0.923213 0.254444 0.702093
0.980730 0.253884 0.701235
0.025329 0.393671 0.711189
0.151794 0.391893 0.709489
0.286283 0.389986 0.707667
0.421050 0.388048 0.705815
0.549194 0.386172 0.704021
0.667823 0.384402 0.702330
0.793176 0.382501 0.700513
0.924559 0.385478 0.698445
0.977099 0.389880 0.697525
0.021635 0.517437 0.707757
0.148116 0.515689 0.706057
0.282646 0.513816 0.704234
0.417473 0.511912 0.702380
0.545682 0.510068 0.700586
0.664371 0.508329 0.698894
0.793907 0.510691 0.696894
0.930550 0.517637 0.694631
0.973523 0.521487 0.693868
0.018334 0.626143 0.704689
0.144829 0.624424 0.702988
0.279395 0.622581 0.701165
0.414275 0.620706 0.699311
0.542543 0.618892 0.697516
0.664813 0.620547 0.695674
0.800165 0.627967 0.693438
0.936878 0.635375 0.691155
0.970253 0.639645 0.690524
0.014789 0.741049 0.701394
0.141299 0.739356 0.699692
0.275903 0.737541 0.697868
0.410839 0.735695 0.696013
0.541928 0.736918 0.694089
0.670626 0.745013 0.691961
0.806158 0.752990 0.689700
0.942934 0.760938 0.687395
0.966718 0.765227 0.686907
0.011117 0.858480 0.697979
0.137641 0.856806 0.696276
0.272284 0.855011 0.694451
0.409875 0.855661 0.692485
0.546908 0.863777 0.690268
0.676336 0.871968 0.688122
0.812053 0.880044 0.685850
0.944178 0.883371 0.683748
0.963355 0.883093 0.683465
0.007468 0.974222 0.694583
0.134005 0.972556 0.692880
0.270674 0.970744 0.691027
0.416345 0.968785 0.689022
0.552499 0.966919 0.687113
0.682916 0.965096 0.685247
0.814938 0.963219 0.683325
0.941937 0.961391 0.681454
0.961114 0.961114 0.681170
0.035062 0.035062 0.834321
0.161481 0.033232 0.832643
0.295859 0.031271 0.830845
0.430467 0.029278 0.829017
0.558437 0.027349 0.827248
0.676909 0.025530 0.825579
0.802127 0.023576 0.823787
0.928714 0.021577 0.821953
0.986233 0.020665 0.821116
0.031969 0.142440 0.831485
0.158404 0.140617 0.829807
0.292817 0.138663 0.828009
0.427476 0.136678 0.826181
0.555501 0.134755 0.824411
0.674023 0.132942 0.822742
0.799284 0.130995 0.820949
0.925896 0.129003 0.819115
0.983418 0.128093 0.818277
0.028355 0.267090 0.828171
0.154806 0.265285 0.826492
0.289261 0.263350 0.824693
0.423979 0.261383 0.822864
0.552068 0.259479 0.821094
0.670648 0.257683 0.819425
0.795959 0.255754 0.817631
0.922601 0.253781 0.815796
0.980127 0.252880 0.814959
0.024657 0.393018 0.824779
0.151126 0.391240 0.823100
0.285622 0.389333 0.821301
0.420400 0.387395 0.819471
0.548555 0.385518 0.817700
0.667195 0.383749 0.816031
0.792558 0.381847 0.814237
0.919230 0.379902 0.812401
0.976753 0.379348 0.811554
0.020963 0.516795 0.821389
0.147447 0.515048 0.819710
0.281984 0.513174 0.817910
0.416822 0.511270 0.816080
0.545043 0.509425 0.814309
0.663743 0.507686 0.812638
0.789158 0.505818 0.810844
0.920581 0.508638 0.808804
0.973145 0.512323 0.807913
0.017662 0.625512 0.818360
0.144160 0.623792 0.816680
0.278733 0.621949 0.814880
0.413624 0.620075 0.813049
0.541904 0.618260 0.811277
0.660657 0.616549 0.809607
0.790260 0.618599 0.807639
0.926922 0.625980 0.805389
0.969891 0.630037 0.804629
0.014117 0.740428 0.815106
0.140630 0.738734 0.813426
0.275241 0.736918 0.811625
0.410188 0.735073 0.809794
0.538531 0.733286 0.808021
0.660864 0.735161 0.806196
0.796262 0.743132 0.803969
0.932993 0.751071 0.801696
0.966363 0.755534 0.801066
0.010445 0.857865 0.811734
0.136972 0.856191 0.810054
0.271621 0.854396 0.808252
0.406627 0.852572 0.806420
0.537792 0.853843 0.804519
0.666561 0.862042 0.802412
0.802153 0.870118 0.800175
0.938959 0.878156 0.797894
0.962743 0.882479 0.797410
0.006796 0.973610 0.808382
0.133335 0.971944 0.806701
0.268023 0.970159 0.804899
0.405637 0.968310 0.803032
0.543066 0.966429 0.801132
0.672848 0.964617 0.799303
0.808906 0.962684 0.797350
0.941325 0.960780 0.795426
0.960503 0.960503 0.795146
0.034378 0.034378 0.948803
0.160800 0.032548 0.947136
0.295186 0.030587 0.945350
0.429805 0.028594 0.943534
0.557787 0.026664 0.941777
0.676270 0.024846 0.940120
0.801498 0.022892 0.938340
0.928091 0.020893 0.936519
0.985610 0.019981 0.935688
0.031285 0.141758 0.945986
0.157723 0.139936 0.944319
0.292144 0.137982 0.942533
0.426814 0.135996 0.940717
0.554851 0.134073 0.938959
0.673384 0.132260 0.937302
0.798655 0.130313 0.935522
0.925272 0.128321 0.933701
0.982795 0.127411 0.932870
0.027671 0.266415 0.942693
0.154125 0.264610 0.941027
0.288587 0.262675 0.939240
0.423316 0.260708 0.937424
0.551418 0.258803 0.935666
0.670009 0.257008 0.934009
0.795330 0.255079 0.932228
0.921977 0.253105 0.930407
0.979505 0.252204 0.929576
0.023973 0.392353 0.939325
0.150444 0.390575 0.937658
0.284948 0.388668 0.935871
0.419737 0.386729 0.934055
0.547905 0.384853 0.932297
0.666556 0.383083 0.930639
0.791928 0.381181 0.928859
0.918606 0.379236 0.927037
0.976139 0.378347 0.926206
0.020279 0.516142 0.935959
0.146766 0.514394 0.934292
0.281310 0.512520 0.932505
0.416159 0.510616 0.930689
0.544393 0.508771 0.928930
0.663103 0.507032 0.927273
0.788528 0.505164 0.925492
0.915238 0.503251 0.923670
0.972767 0.502716 0.922829
0.016978 0.624869 0.932952
0.143479 0.623149 0.931285
0.278059 0.621305 0.929497
0.412961 0.619431 0.927681
0.541253 0.617616 0.925922
0.660017 0.615905 0.924264
0.785489 0.614066 0.922483
0.916955 0.616597 0.920466
0.969516 0.620497 0.919574
0.013433 0.739794 0.929722
0.139948 0.738101 0.928054
0.274566 0.736285 0.926267
0.409524 0.734439 0.924450
0.537880 0.732652 0.922691
0.656702 0.730967 0.921033
0.786359 0.733270 0.919073
0.923041 0.741200 0.916822
0.966006 0.745518 0.916058
0.009761 0.857239 0.926376
0.136290 0.855565 0.924708
0.270947 0.853770 0.922920
0.405963 0.851946 0.921103
0.534384 0.850179 0.919344
0.656788 0.852107 0.917530
0.792246 0.860182 0.915316
0.929010 0.868218 0.913056
0.962382 0.872721 0.912428
0.006111 0.972987 0.923050
0.132653 0.971321 0.921382
0.267348 0.969536 0.919594
0.402422 0.967721 0.917776
0.533651 0.965927 0.915979
0.662780 0.964127 0.914176
0.798719 0.962198 0.912244
0.935842 0.960227 0.910269
0.959880 0.959880 0.909922
