flutter_app/assets/lut/cameras/u300_portra.cube
TITLE "U300 Portra"
LUT_3D_SIZE 33
0.039569 0.039569 0.039569
0.067111 0.039171 0.039171
0.099853 0.038697 0.038697
0.132809 0.038220 0.038220
0.165965 0.037739 0.037739
0.199306 0.037255 0.037255
0.232817 0.036766 0.036766
0.266483 0.036274 0.036274
0.300291 0.035778 0.035778
0.334226 0.035279 0.035279
0.368276 0.034775 0.034775
0.401715 0.034279 0.034279
0.434824 0.033785 0.033785
0.468012 0.033288 0.033288
0.501274 0.032787 0.032787
0.534328 0.032287 0.032287
0.565255 0.031817 0.031817
0.596605 0.031338 0.031338
0.628339 0.030852 0.030852
0.660421 0.030357 0.030357
0.693736 0.031695 0.029787
0.727323 0.033732 0.029190
0.761066 0.035766 0.028589
0.794939 0.037798 0.027983
0.828917 0.039828 0.027374
0.862980 0.041856 0.026762
0.897110 0.043884 0.026147
0.931294 0.045912 0.025531
0.965519 0.047939 0.024913
0.989682 0.050128 0.024455
0.989615 0.052681 0.024381
0.989615 0.052681 0.024381
0.989615 0.052681 0.024381
0.039118 0.055223 0.039118
0.066661 0.054825 0.038721
0.099403 0.054352 0.038247
0.132360 0.053875 0.037770
0.165517 0.053394 0.037289
0.198859 0.052910 0.036804
0.232371 0.052421 0.036316
0.266039 0.051929 0.035824
0.299848 0.051434 0.035328
0.333785 0.050934 0.034828
0.367837 0.050431 0.034325
0.401278 0.049935 0.033829
0.434389 0.049441 0.033335
0.467579 0.048944 0.032838
0.500843 0.048444 0.032337
0.535742 0.050333 0.031738
0.566628 0.052433 0.031194
0.597936 0.054525 0.030641
0.629626 0.056611 0.030079
0.661662 0.058691 0.029510
0.695044 0.060749 0.028918
0.728643 0.062804 0.028321
0.762398 0.064855 0.027718
0.796281 0.066904 0.027112
0.830266 0.068951 0.026502
0.864335 0.070996 0.025889
0.898471 0.073041 0.025274
0.932658 0.075085 0.024657
0.966886 0.077130 0.024038
0.988916 0.079369 0.023613
0.988906 0.079765 0.023602
0.988906 0.079765 0.023602
0.988906 0.079765 0.023602
0.038244 0.085601 0.038244
0.065788 0.085204 0.037846
0.098531 0.084731 0.037373
0.131489 0.084254 0.036896
0.164648 0.083774 0.036415
0.197992 0.083290 0.035930
0.231506 0.082802 0.035442
0.265176 0.082310 0.034950
0.298988 0.081815 0.034454
0.332929 0.081316 0.033954
0.366984 0.080813 0.033451
0.400429 0.080317 0.032954
0.433544 0.079824 0.032461
0.466738 0.079328 0.031963
0.502300 0.081080 0.031361
0.536991 0.083141 0.030761
0.567912 0.085259 0.030215
0.599251 0.087370 0.029661
0.630969 0.089474 0.029098
0.663078 0.091572 0.028527
0.696509 0.093648 0.027934
0.730123 0.095720 0.027335
0.763891 0.097790 0.026732
0.797784 0.099857 0.026125
0.831778 0.101922 0.025514
0.865854 0.103986 0.024900
0.899994 0.106049 0.024284
0.934186 0.108111 0.023667
0.968416 0.110174 0.023047
0.988102 0.110408 0.022719
0.988102 0.110408 0.022719
0.988102 0.110408 0.022719
0.988102 0.110408 0.022719
0.037364 0.116174 0.037364
0.064907 0.115777 0.036966
0.097651 0.115305 0.036492
0.130611 0.114829 0.036015
0.163771 0.114349 0.035534
0.197117 0.113865 0.035049
0.230634 0.113378 0.034561
0.264307 0.112887 0.034069
0.298123 0.112392 0.033573
0.332066 0.111894 0.033073
0.366125 0.111392 0.032570
0.399574 0.110896 0.032074
0.432692 0.110404 0.031580
0.468033 0.112030 0.030988
0.503903 0.114093 0.030371
0.538235 0.116178 0.029776
0.569190 0.118313 0.029229
0.600561 0.120441 0.028673
0.632308 0.122562 0.028109
0.664520 0.124676 0.027536
0.697968 0.126769 0.026942
0.731597 0.128859 0.026342
0.765377 0.130946 0.025738
0.799280 0.133030 0.025130
0.833283 0.135113 0.024518
0.867366 0.137194 0.023904
0.901512 0.139274 0.023287
0.935707 0.141354 0.022669
0.968125 0.141539 0.022134
0.987293 0.141236 0.021830
0.987293 0.141236 0.021830
0.987293 0.141236 0.021830
0.987293 0.141236 0.021830
0.036476 0.146929 0.036476
0.064021 0.146533 0.036078
0.096766 0.146061 0.035605
0.129727 0.145586 0.035128
0.162889 0.145107 0.034647
0.196237 0.144624 0.034162
0.229756 0.144138 0.033674
0.263432 0.143648 0.033182
0.297250 0.143154 0.032686
0.331197 0.142656 0.032186
0.365260 0.142155 0.031683
0.398712 0.141660 0.031186
0.433826 0.143157 0.030604
0.469620 0.145240 0.029991
0.505500 0.147320 0.029374
0.539475 0.149427 0.028783
0.570464 0.151578 0.028234
0.601866 0.153723 0.027678
0.633642 0.155860 0.027113
0.665956 0.157989 0.026537
0.699421 0.160099 0.025942
0.733066 0.162205 0.025341
0.766858 0.164308 0.024736
0.800771 0.166409 0.024127
0.834782 0.168507 0.023515
0.868872 0.170605 0.022900
0.903022 0.172701 0.022282
0.935548 0.173039 0.021742
0.967309 0.172538 0.021238
0.986478 0.172236 0.020934
0.986478 0.172236 0.020934
0.986478 0.172236 0.020934
0.986478 0.172236 0.020934
0.035583 0.177855 0.035583
0.063127 0.177459 0.035185
0.095873 0.176989 0.034711
0.128836 0.176514 0.034234
0.161999 0.176036 0.033753
0.195350 0.175554 0.033268
0.228871 0.175069 0.032780
0.262550 0.174580 0.032288
0.296371 0.174087 0.031792
0.330321 0.173590 0.031292
0.364388 0.173090 0.030789
0.399684 0.174449 0.030210
0.435396 0.176550 0.029600
0.471201 0.178649 0.028986
0.507091 0.180745 0.028368
0.540711 0.182874 0.027782
0.571734 0.185040 0.027232
0.603166 0.187200 0.026675
0.634970 0.189353 0.026109
0.667387 0.191495 0.025531
0.700869 0.193621 0.024934
0.734528 0.195742 0.024333
0.768332 0.197861 0.023727
0.802256 0.199977 0.023117
0.836275 0.202091 0.022504
0.870371 0.204203 0.021888
0.902995 0.204696 0.021342
0.934726 0.204197 0.020840
0.966488 0.203697 0.020336
0.985656 0.203396 0.020032
0.985656 0.203396 0.020032
0.985656 0.203396 0.020032
0.985656 0.203396 0.020032
0.034682 0.208939 0.034682
0.062228 0.208544 0.034284
0.094974 0.208075 0.033811
0.127938 0.207602 0.033334
0.161103 0.207125 0.032853
0.194456 0.206644 0.032368
0.227980 0.206159 0.031880
0.261661 0.205671 0.031387
0.295486 0.205180 0.030892
0.329439 0.204684 0.030392
0.365258 0.205899 0.029811
0.401237 0.208013 0.029200
0.436959 0.210129 0.028589
0.472775 0.212243 0.027974
0.508675 0.214354 0.027355
0.541942 0.216502 0.026774
0.572998 0.218683 0.026223
0.604461 0.220857 0.025664
0.636294 0.223025 0.025097
0.668812 0.225180 0.024517
0.702311 0.227320 0.023919
0.735984 0.229456 0.023317
0.769801 0.231589 0.022710
0.803734 0.233719 0.022099
0.837761 0.235848 0.021485
0.870474 0.236496 0.020935
0.902166 0.236000 0.020434
0.933898 0.235503 0.019931
0.965661 0.235005 0.019427
0.984829 0.234704 0.019123
0.984829 0.234704 0.019123
0.984829 0.234704 0.019123
0.984829 0.234704 0.019123
0.033775 0.240170 0.033775
0.061321 0.239776 0.033377
0.094069 0.239308 0.032904
0.127034 0.238836 0.032427
0.160201 0.238360 0.031946
0.193555 0.237881 0.031461
0.227082 0.237397 0.030973
0.260766 0.236911 0.030481
0.294594 0.236420 0.029985
0.330144 0.237500 0.029414
0.366879 0.239619 0.028793
0.402783 0.241748 0.028182
0.438517 0.243878 0.027570
0.474343 0.246006 0.026955
0.510253 0.248131 0.026335
0.543168 0.250299 0.025758
0.574258 0.252493 0.025206
0.605752 0.254680 0.024645
0.637613 0.256861 0.024077
0.670231 0.259029 0.023495
0.703747 0.261182 0.022897
0.737434 0.263331 0.022293
0.771263 0.265478 0.021686
0.805206 0.267622 0.021074
0.837994 0.268427 0.020519
0.869638 0.267935 0.020020
0.901331 0.267441 0.019518
0.933064 0.266945 0.019016
0.964827 0.266448 0.018512
0.983996 0.266148 0.018208
0.983996 0.266148 0.018208
0.983996 0.266148 0.018208
0.983996 0.266148 0.018208
0.032862 0.271535 0.032862
0.060408 0.271142 0.032464
0.093157 0.270675 0.031991
0.126123 0.270205 0.031513
0.159292 0.269731 0.031032
0.192649 0.269253 0.030548
0.226178 0.268771 0.030059
0.259865 0.268286 0.029567
0.295132 0.269229 0.029007
0.331745 0.271364 0.028389
0.368493 0.273495 0.027767
0.404323 0.275639 0.027156
0.440068 0.277783 0.026544
0.475904 0.279923 0.025927
0.511824 0.282061 0.025307
0.544390 0.284248 0.024734
0.575513 0.286454 0.024181
0.607037 0.288654 0.023619
0.638926 0.290847 0.023050
0.671645 0.293026 0.022466
0.705177 0.295192 0.021866
0.738879 0.297354 0.021262
0.772719 0.299513 0.020653
0.805567 0.300477 0.020094
0.837149 0.299989 0.019597
0.868795 0.299498 0.019098
0.900490 0.299005 0.018596
0.932224 0.298511 0.018094
0.963988 0.298016 0.017590
0.983157 0.297717 0.017286
0.983157 0.297717 0.017286
0.983157 0.297717 0.017286
0.983157 0.297717 0.017286
0.031942 0.303023 0.031942
0.059489 0.302632 0.031544
0.092238 0.302167 0.031071
0.125206 0.301698 0.030593
0.158377 0.301225 0.030112
0.191735 0.300749 0.029628
0.225267 0.300269 0.029139
0.260239 0.301074 0.028590
0.296714 0.303224 0.027975
0.333340 0.305371 0.027357
0.370101 0.307515 0.026734
0.405857 0.309673 0.026123
0.441613 0.311828 0.025510
0.477459 0.313981 0.024892
0.513389 0.316131 0.024271
0.545607 0.318335 0.023703
0.576763 0.320553 0.023148
0.608318 0.322764 0.022586
0.640234 0.324969 0.022015
0.673053 0.327158 0.021429
0.706602 0.329336 0.020828
0.740317 0.331509 0.020223
0.773205 0.332634 0.019660
0.804713 0.332150 0.019166
0.836299 0.331663 0.018669
0.867946 0.331174 0.018169
0.899643 0.330683 0.017668
0.931378 0.330191 0.017165
0.963143 0.329697 0.016662
0.982312 0.329399 0.016357
0.982312 0.329399 0.016357
0.982312 0.329399 0.016357
0.982312 0.329399 0.016357
0.031016 0.334625 0.031016
0.058563 0.334235 0.030618
0.091313 0.333771 0.030144
0.124282 0.333304 0.029667
0.157455 0.332833 0.029186
0.190815 0.332358 0.028701
0.225478 0.333024 0.028162
0.261800 0.335189 0.027551
0.298289 0.337351 0.026936
0.334929 0.339509 0.026316
0.371702 0.341665 0.025693
0.407385 0.343835 0.025082
0.443151 0.346002 0.024468
0.479008 0.348166 0.023850
0.514948 0.350328 0.023227
0.546819 0.352548 0.022664
0.578008 0.354776 0.022108
0.609594 0.356998 0.021544
0.641538 0.359213 0.020973
0.674456 0.361412 0.020384
0.708021 0.363601 0.019783
0.740927 0.364887 0.019217
0.772343 0.364407 0.018725
0.803854 0.363925 0.018231
0.835442 0.363440 0.017734
0.867091 0.362953 0.017234
0.898790 0.362464 0.016733
0.930526 0.361974 0.016230
0.962292 0.361482 0.015727
0.981461 0.361185 0.015422
0.981461 0.361185 0.015422
0.981461 0.361185 0.015422
0.981461 0.361185 0.015422
0.030083 0.366328 0.030083
0.057630 0.365940 0.029685
0.090382 0.365478 0.029211
0.123352 0.365013 0.028734
0.156526 0.364544 0.028253
0.190864 0.365068 0.027724
0.227017 0.367247 0.027117
0.263355 0.369423 0.026505
0.299858 0.371596 0.025889
0.336513 0.373702 0.025270
0.373233 0.375779 0.024649
0.408913 0.377871 0.024041
0.444692 0.379959 0.023428
0.480562 0.382044 0.022812
0.516515 0.384126 0.022191
0.548044 0.386272 0.021635
0.579268 0.388421 0.021081
0.610886 0.390563 0.020519
0.642860 0.392698 0.019949
0.675879 0.394816 0.019360
0.708780 0.396200 0.018793
0.740084 0.395726 0.018306
0.771503 0.395249 0.017814
0.803017 0.394768 0.017320
0.834607 0.394285 0.016823
0.866258 0.393800 0.016323
0.897958 0.393313 0.015822
0.929696 0.392824 0.015319
0.961462 0.392335 0.014816
0.980632 0.392039 0.014511
0.980632 0.392039 0.014511
0.980632 0.392039 0.014511
0.980632 0.392039 0.014511
0.029165 0.397397 0.029165
0.056713 0.397011 0.028767
0.089465 0.396551 0.028293
0.122437 0.396087 0.027816
0.156437 0.396441 0.027298
0.192407 0.398543 0.026697
0.228578 0.400643 0.026092
0.264933 0.402739 0.025482
0.301454 0.404832 0.024867
0.338122 0.406922 0.024249
0.374769 0.409010 0.023628
0.410460 0.411111 0.023019
0.446251 0.413208 0.022405
0.482131 0.415303 0.021788
0.518094 0.417394 0.021167
0.549279 0.419554 0.020615
0.580536 0.421711 0.020060
0.612184 0.423862 0.019496
0.644186 0.426006 0.018925
0.676760 0.427551 0.018361
0.707929 0.427083 0.017877
0.739236 0.426612 0.017389
0.770658 0.426136 0.016898
0.802175 0.425658 0.016404
0.833767 0.425177 0.015906
0.865421 0.424694 0.015407
0.897122 0.424209 0.014906
0.928861 0.423722 0.014403
0.960628 0.423235 0.013899
0.979798 0.422941 0.013595
0.979798 0.422941 0.013595
0.979798 0.422941 0.013595
0.979798 0.422941 0.013595
0.028250 0.428219 0.028250
0.055799 0.427834 0.027852
0.088552 0.427376 0.027379
0.122198 0.427591 0.026871
0.157965 0.429706 0.026274
0.193952 0.431818 0.025672
0.230140 0.433926 0.025065
0.266509 0.436031 0.024455
0.303044 0.438133 0.023839
0.339726 0.440232 0.023220
0.376300 0.442330 0.022599
0.412002 0.444439 0.021989
0.447803 0.446546 0.021375
0.483694 0.448649 0.020757
0.519649 0.450749 0.020135
0.550511 0.452922 0.019587
0.581800 0.455088 0.019031
0.613478 0.457246 0.018467
0.645117 0.458963 0.017914
0.675899 0.458505 0.017438
0.707072 0.458040 0.016955
0.738383 0.457570 0.016467
0.769808 0.457097 0.015976
0.801327 0.456621 0.015481
0.832922 0.456142 0.014984
0.864577 0.455661 0.014485
0.896280 0.455178 0.013983
0.928020 0.454693 0.013481
0.959788 0.454208 0.012977
0.978959 0.453915 0.012673
0.978959 0.453915 0.012673
0.978959 0.453915 0.012673
0.978959 0.453915 0.012673
0.027330 0.459113 0.027330
0.054879 0.458730 0.026932
0.088157 0.458805 0.026434
0.123704 0.460932 0.025840
0.159489 0.463056 0.025242
0.195492 0.465176 0.024639
0.231695 0.467293 0.024032
0.268080 0.469407 0.023420
0.304628 0.471517 0.022804
0.341324 0.473624 0.022184
0.377824 0.475732 0.021564
0.413538 0.477849 0.020953
0.449350 0.479964 0.020338
0.485251 0.482075 0.019719
0.520841 0.484189 0.019102
0.551738 0.486370 0.018553
0.583060 0.488543 0.017995
0.614511 0.490420 0.017443
0.644247 0.489982 0.016985
0.675033 0.489526 0.016510
0.706209 0.489062 0.016026
0.737523 0.488595 0.015539
0.768951 0.488124 0.015047
0.800473 0.487650 0.014553
0.832071 0.487173 0.014056
0.863728 0.486694 0.013556
0.895433 0.486213 0.013055
0.927174 0.485731 0.012552
0.958943 0.485248 0.012048
0.978114 0.484956 0.011744
0.978114 0.484956 0.011744
0.978114 0.484956 0.011744
0.978114 0.484956 0.011744
0.026403 0.490074 0.026403
0.054330 0.490079 0.025988
0.089639 0.492217 0.025397
0.125204 0.494352 0.024802
0.161006 0.496484 0.024203
0.197026 0.498612 0.023599
0.233244 0.500737 0.022991
0.269644 0.502858 0.022379
0.306207 0.504976 0.021762
0.342915 0.507091 0.021141
0.379343 0.509208 0.020521
0.415068 0.511334 0.019909
0.450891 0.513456 0.019294
0.486802 0.515576 0.018674
0.522030 0.517683 0.018062
0.552973 0.519479 0.017524
0.584213 0.521149 0.016982
0.613654 0.520719 0.016532
0.643394 0.520282 0.016074
0.674183 0.519828 0.015599
0.705363 0.519367 0.015115
0.736680 0.518901 0.014628
0.768111 0.518433 0.014136
0.799636 0.517961 0.013642
0.831235 0.517486 0.013145
0.862895 0.517009 0.012645
0.894602 0.516531 0.012144
0.926344 0.516051 0.011641
0.958114 0.515569 0.011137
0.977285 0.515279 0.010833
0.977285 0.515279 0.010833
0.977285 0.515279 0.010833
0.977285 0.515279 0.010833
0.025463 0.521341 0.025463
0.055787 0.523556 0.024944
0.091125 0.525394 0.024362
0.126719 0.527146 0.023778
0.162550 0.528898 0.023190
0.198598 0.530648 0.022597
0.234844 0.532396 0.022000
0.271269 0.534144 0.021398
0.307857 0.535889 0.020792
0.344590 0.537634 0.020181
0.380955 0.539384 0.019573
0.416702 0.541143 0.018972
0.452546 0.542901 0.018367
0.488478 0.544658 0.017757
0.523354 0.546429 0.017161
0.554330 0.548258 0.016621
0.583451 0.547840 0.016176
0.612895 0.547412 0.015726
0.642638 0.546977 0.015268
0.673431 0.546525 0.014793
0.704613 0.546065 0.014309
0.735934 0.545602 0.013822
0.767368 0.545135 0.013330
0.798894 0.544664 0.012836
0.830496 0.544192 0.012339
0.862158 0.543717 0.011839
0.893866 0.543240 0.011338
0.925610 0.542762 0.010835
0.957380 0.542283 0.010331
0.976551 0.541993 0.010027
0.976551 0.541993 0.010027
0.976551 0.541993 0.010027
0.976551 0.541993 0.010027
0.024582 0.550527 0.024582
0.057382 0.552347 0.024038
0.092740 0.554133 0.023457
0.128353 0.555919 0.022871
0.164200 0.557702 0.022281
0.200263 0.559485 0.021687
0.236523 0.561265 0.021088
0.272963 0.563044 0.020485
0.309563 0.564822 0.019877
0.346308 0.566598 0.019265
0.382599 0.568380 0.018657
0.418356 0.570170 0.018054
0.454209 0.571959 0.017447
0.490150 0.573747 0.016836
0.524665 0.575554 0.016244
0.553557 0.575274 0.015801
0.582677 0.574854 0.015358
0.612124 0.574427 0.014907
0.641870 0.573994 0.014449
0.672666 0.573544 0.013974
0.703852 0.573086 0.013490
0.735175 0.572624 0.013003
0.766612 0.572159 0.012511
0.798141 0.571691 0.012017
0.829745 0.571220 0.011520
0.861409 0.570747 0.011020
0.893118 0.570272 0.010519
0.924863 0.569796 0.010016
0.956634 0.569318 0.009512
0.975806 0.569030 0.009208
0.975806 0.569030 0.009208
0.975806 0.569030 0.009208
0.975806 0.569030 0.009208
0.023862 0.579614 0.023697
0.058966 0.581433 0.023119
0.094343 0.583250 0.022536
0.129972 0.585065 0.021949
0.165836 0.586879 0.021358
0.201914 0.588690 0.020762
0.238189 0.590501 0.020162
0.274643 0.592309 0.019557
0.311256 0.594115 0.018948
0.348013 0.595920 0.018334
0.384229 0.597733 0.017726
0.419996 0.599551 0.017122
0.455860 0.601368 0.016514
0.491810 0.603184 0.015901
0.524003 0.602993 0.015407
0.552767 0.602582 0.014970
0.581891 0.602163 0.014526
0.611342 0.601738 0.014075
0.641091 0.601307 0.013618
0.671890 0.600858 0.013142
0.703079 0.600402 0.012659
0.734406 0.599943 0.012171
0.765845 0.599479 0.011680
0.797377 0.599013 0.011185
0.828983 0.598544 0.010688
0.860648 0.598073 0.010189
0.892360 0.597600 0.009688
0.924105 0.597126 0.009185
0.955877 0.596650 0.008681
0.975049 0.596363 0.008377
0.975049 0.596363 0.008377
0.975049 0.596363 0.008377
0.975049 0.596363 0.008377
0.025414 0.609019 0.022765
0.060537 0.610866 0.022185
0.095932 0.612710 0.021601
0.131579 0.614553 0.021013
0.167459 0.616394 0.020420
0.203553 0.618233 0.019823
0.239843 0.620070 0.019221
0.276310 0.621905 0.018615
0.312937 0.623738 0.018004
0.349706 0.625570 0.017389
0.385847 0.627410 0.016781
0.421625 0.629254 0.016176
0.457498 0.631097 0.015566
0.491302 0.631023 0.015046
0.523198 0.630571 0.014564
0.551967 0.630161 0.014127
0.581093 0.629744 0.013683
0.610548 0.629321 0.013232
0.640301 0.628891 0.012775
0.671103 0.628445 0.012300
0.702296 0.627990 0.011816
0.733625 0.627532 0.011328
0.765067 0.627071 0.010837
0.796602 0.626606 0.010343
0.828210 0.626139 0.009845
0.859877 0.625670 0.009346
0.891590 0.625199 0.008845
0.923337 0.624727 0.008342
0.955110 0.624253 0.007838
0.974282 0.623967 0.007534
0.974282 0.623967 0.007534
0.974282 0.623967 0.007534
0.974282 0.623967 0.007534
0.026954 0.638742 0.021819
0.062096 0.640614 0.021238
0.097509 0.642484 0.020653
0.133173 0.644352 0.020063
0.169070 0.646218 0.019469
0.205180 0.648082 0.018870
0.241485 0.649944 0.018267
0.277965 0.651814 0.017660
0.314603 0.653752 0.017045
0.351382 0.655687 0.016427
0.387446 0.657632 0.015816
0.423232 0.659580 0.015207
0.457111 0.659665 0.014682
0.490473 0.659196 0.014181
0.522374 0.658745 0.013699
0.551145 0.658337 0.013263
0.580276 0.657922 0.012819
0.609734 0.657500 0.012368
0.639490 0.657072 0.011910
0.670296 0.656627 0.011435
0.701492 0.656175 0.010951
0.732824 0.655719 0.010464
0.764269 0.655259 0.009972
0.795806 0.654796 0.009478
0.827417 0.654331 0.008981
0.859086 0.653864 0.008481
0.890801 0.653395 0.007980
0.922549 0.652924 0.007477
0.954322 0.652453 0.006974
0.973495 0.652168 0.006669
0.973495 0.652168 0.006669
0.973495 0.652168 0.006669
0.973495 0.652168 0.006669
0.028468 0.669221 0.020846
0.063627 0.671194 0.020262
0.099056 0.673164 0.019673
0.134735 0.675132 0.019079
0.170646 0.677097 0.018481
0.206770 0.679059 0.017879
0.243087 0.681018 0.017273
0.279580 0.682975 0.016662
0.316231 0.684929 0.016046
0.353023 0.686880 0.015427
0.389013 0.688842 0.014816
0.422960 0.689072 0.014289
0.456252 0.688608 0.013791
0.489618 0.688141 0.013289
0.521523 0.687692 0.012807
0.550298 0.687285 0.012371
0.579432 0.686872 0.011927
0.608894 0.686451 0.011476
0.638654 0.686025 0.011019
0.669463 0.685582 0.010543
0.700662 0.685132 0.010059
0.731998 0.684677 0.009572
0.763446 0.684219 0.009081
0.794986 0.683759 0.008586
0.826599 0.683295 0.008089
0.858271 0.682830 0.007589
0.889987 0.682362 0.007088
0.921736 0.681894 0.006585
0.953510 0.681424 0.006082
0.972683 0.681141 0.005777
0.972683 0.681141 0.005777
0.972683 0.681141 0.005777
0.972683 0.681141 0.005777
0.029957 0.700448 0.019846
0.065135 0.702435 0.019260
0.100583 0.704420 0.018671
0.136280 0.706402 0.018076
0.172207 0.708381 0.017477
0.208347 0.710357 0.016874
0.244679 0.712330 0.016267
0.281187 0.714301 0.015655
0.317851 0.716268 0.015038
0.354656 0.718232 0.014418
0.388874 0.718605 0.013884
0.422089 0.718146 0.013389
0.455386 0.717684 0.012891
0.488756 0.717219 0.012390
0.520665 0.716772 0.011908
0.549444 0.716366 0.011471
0.578581 0.715954 0.011027
0.608047 0.715536 0.010577
0.637810 0.715111 0.010119
0.668623 0.714670 0.009644
0.699826 0.714221 0.009160
0.731165 0.713768 0.008672
0.762616 0.713312 0.008181
0.794159 0.712853 0.007687
0.825775 0.712392 0.007189
0.857448 0.711928 0.006690
0.889165 0.711462 0.006189
0.920916 0.710995 0.005686
0.952691 0.710528 0.005182
0.971864 0.710245 0.004878
0.971864 0.710245 0.004878
0.971864 0.710245 0.004878
0.971864 0.710245 0.004878
0.031438 0.731826 0.018837
0.066636 0.733826 0.018251
0.102102 0.735823 0.017660
0.137817 0.737817 0.017065
0.173762 0.739808 0.016465
0.209917 0.741796 0.015861
0.246265 0.743781 0.015252
0.282787 0.745762 0.014640
0.319465 0.747741 0.014022
0.354680 0.748247 0.013471
0.387993 0.747790 0.012978
0.421212 0.747333 0.012483
0.454513 0.746873 0.011985
0.487887 0.746409 0.011484
0.519800 0.745963 0.011002
0.548583 0.745560 0.010565
0.577724 0.745149 0.010121
0.607193 0.744732 0.009670
0.636960 0.744309 0.009213
0.667777 0.743869 0.008737
0.698983 0.743422 0.008254
0.730325 0.742971 0.007766
0.761780 0.742516 0.007275
0.793325 0.742059 0.006780
0.824943 0.741599 0.006283
0.856619 0.741137 0.005784
0.888338 0.740673 0.005283
0.920090 0.740208 0.004780
0.951866 0.739742 0.004276
0.971040 0.739460 0.003972
0.971040 0.739460 0.003972
0.971040 0.739460 0.003972
0.971040 0.739460 0.003972
0.032913 0.763331 0.017821
0.068131 0.765341 0.017234
0.103616 0.767348 0.016642
0.139348 0.769352 0.016046
0.175310 0.771353 0.015445
0.211482 0.773351 0.014840
0.247845 0.775345 0.014231
0.284381 0.777336 0.013617
0.319626 0.777989 0.013063
0.353789 0.777524 0.012559
0.387106 0.777069 0.012065
0.420329 0.776613 0.011571
0.453634 0.776154 0.011073
0.487013 0.775692 0.010571
0.518929 0.775248 0.010090
0.547716 0.774846 0.009653
0.576861 0.774436 0.009209
0.606334 0.774021 0.008758
0.636105 0.773599 0.008301
0.666925 0.773161 0.007825
0.698135 0.772715 0.007342
0.729480 0.772265 0.006854
0.760938 0.771812 0.006363
0.792486 0.771356 0.005868
0.824107 0.770898 0.005371
0.855784 0.770437 0.004872
0.887505 0.769975 0.004370
0.919259 0.769512 0.003868
0.951036 0.769047 0.003364
0.970209 0.768766 0.003060
0.970209 0.768766 0.003060
0.970209 0.768766 0.003060
0.970209 0.768766 0.003060
0.034383 0.794939 0.016798
0.069621 0.796958 0.016210
0.105124 0.798973 0.015617
0.140874 0.800986 0.015020
0.176853 0.802994 0.014419
0.213041 0.805000 0.013813
0.249419 0.807002 0.013203
0.284679 0.807802 0.012647
0.318726 0.807342 0.012146
0.352893 0.806879 0.011642
0.386214 0.806425 0.011148
0.419441 0.805970 0.010654
0.452750 0.805513 0.010155
0.486133 0.805052 0.009654
0.518054 0.804609 0.009172
0.546844 0.804208 0.008736
0.575993 0.803800 0.008292
0.605469 0.803386 0.007841
0.635244 0.802965 0.007383
0.666068 0.802528 0.006908
0.697281 0.802084 0.006424
0.728630 0.801635 0.005937
0.760091 0.801184 0.005445
0.791642 0.800729 0.004951
0.823265 0.800272 0.004454
0.854945 0.799813 0.003954
0.886668 0.799352 0.003453
0.918423 0.798890 0.002950
0.950200 0.798427 0.002446
0.969374 0.798147 0.002142
0.969374 0.798147 0.002142
0.969374 0.798147 0.002142
0.969374 0.798147 0.002142
0.035849 0.826631 0.015769
0.071106 0.828657 0.015180
0.106628 0.830679 0.014587
0.142396 0.832698 0.013990
0.178392 0.834713 0.013388
0.214596 0.836726 0.012781
0.249854 0.837671 0.012221
0.283772 0.837216 0.011725
0.317822 0.836757 0.011224
0.351993 0.836295 0.010720
0.385317 0.835843 0.010226
0.418548 0.835390 0.009732
0.451861 0.834933 0.009234
0.485249 0.834474 0.008732
0.517174 0.834032 0.008250
0.545967 0.833632 0.007814
0.575120 0.833225 0.007370
0.604600 0.832812 0.006919
0.634379 0.832392 0.006461
0.665207 0.831956 0.005986
0.696423 0.831513 0.005502
0.727776 0.831066 0.005015
0.759240 0.830616 0.004523
0.790793 0.830162 0.004029
0.822419 0.829707 0.003532
0.854101 0.829249 0.003032
0.885826 0.828789 0.002531
0.917582 0.828328 0.002028
0.949361 0.827866 0.001524
