flutter_app/assets/lut/cameras/u300_color.cube
TITLE "U300 Color 400"
LUT_3D_SIZE 33
0.019736 0.019736 0.019736
0.047933 0.018948 0.018948
0.083102 0.017964 0.017964
0.118520 0.016973 0.016973
0.154169 0.015973 0.015973
0.190029 0.014965 0.014965
0.226082 0.013949 0.013949
0.262310 0.012925 0.012925
0.298695 0.011892 0.011892
0.335220 0.010852 0.010852
0.371870 0.009804 0.009804
0.407909 0.008768 0.008768
0.443543 0.007738 0.007738
0.479260 0.006702 0.006702
0.515051 0.005657 0.005657
0.550730 0.004610 0.004610
0.583998 0.003630 0.003630
0.617737 0.002630 0.002630
0.651901 0.001612 0.001612
0.686451 0.000579 0.000579
0.722254 0.001357 0.000000
0.758383 0.002974 0.000000
0.794692 0.004584 0.000000
0.831153 0.006186 0.000000
0.867741 0.007784 0.000000
0.904438 0.009376 0.000000
0.941226 0.010966 0.000000
0.978092 0.012554 0.000000
1.000000 0.014141 0.000000
1.000000 0.016019 0.000000
1.000000 0.018748 0.000000
1.000000 0.018833 0.000000
1.000000 0.018833 0.000000
0.018760 0.037034 0.018760
0.046958 0.036246 0.017972
0.082128 0.035263 0.016989
0.117548 0.034272 0.015997
0.153198 0.033272 0.014998
0.189060 0.032264 0.013990
0.225116 0.031249 0.012974
0.261347 0.030225 0.011949
0.297736 0.029192 0.010917
0.334265 0.028152 0.009877
0.370920 0.027104 0.008828
0.406963 0.026068 0.007792
0.442602 0.025039 0.006763
0.478323 0.024002 0.005726
0.514120 0.022958 0.004682
0.551773 0.024362 0.003432
0.584933 0.026105 0.002296
0.618561 0.027830 0.001141
0.652613 0.029540 0.000000
0.687051 0.031235 0.000000
0.722907 0.032884 0.000000
0.759053 0.034522 0.000000
0.795378 0.036151 0.000000
0.831852 0.037774 0.000000
0.868452 0.039391 0.000000
0.905157 0.041004 0.000000
0.941951 0.042614 0.000000
0.978822 0.044223 0.000000
1.000000 0.045830 0.000000
1.000000 0.047801 0.000000
1.000000 0.048271 0.000000
1.000000 0.048271 0.000000
1.000000 0.048271 0.000000
0.016944 0.069242 0.016944
0.045142 0.068455 0.016156
0.080314 0.067473 0.015172
0.115736 0.066482 0.014181
0.151390 0.065483 0.013181
0.187256 0.064476 0.012173
0.223317 0.063461 0.011157
0.259554 0.062437 0.010133
0.295950 0.061406 0.009101
0.332487 0.060366 0.008060
0.369149 0.059318 0.007012
0.405201 0.058283 0.005976
0.440848 0.057254 0.004946
0.476579 0.056218 0.003910
0.514741 0.057478 0.002658
0.552220 0.059119 0.001400
0.585421 0.060882 0.000261
0.619088 0.062628 0.000000
0.653177 0.064359 0.000000
0.687651 0.066074 0.000000
0.723609 0.067742 0.000000
0.759776 0.069401 0.000000
0.796118 0.071052 0.000000
0.832606 0.072696 0.000000
0.869218 0.074334 0.000000
0.905932 0.075969 0.000000
0.942734 0.077600 0.000000
0.979610 0.079230 0.000000
1.000000 0.080859 0.000000
1.000000 0.080793 0.000000
1.000000 0.080793 0.000000
1.000000 0.080793 0.000000
1.000000 0.080793 0.000000
0.015113 0.101673 0.015113
0.043312 0.100887 0.014325
0.078486 0.099905 0.013341
0.113910 0.098915 0.012350
0.149567 0.097918 0.011350
0.185438 0.096912 0.010342
0.221504 0.095897 0.009326
0.257747 0.094875 0.008302
0.294149 0.093845 0.007270
0.330694 0.092806 0.006229
0.367364 0.091759 0.005181
0.403425 0.090725 0.004145
0.439081 0.089698 0.003115
0.477017 0.090831 0.001885
0.515557 0.092467 0.000600
0.552653 0.094140 0.000000
0.585897 0.095923 0.000000
0.619603 0.097689 0.000000
0.653727 0.099439 0.000000
0.688318 0.101172 0.000000
0.724298 0.102860 0.000000
0.760485 0.104540 0.000000
0.796844 0.106211 0.000000
0.833347 0.107875 0.000000
0.869969 0.109534 0.000000
0.906693 0.111189 0.000000
0.943502 0.112841 0.000000
0.980383 0.114491 0.000000
1.000000 0.114208 0.000000
1.000000 0.113532 0.000000
1.000000 0.113532 0.000000
1.000000 0.113532 0.000000
1.000000 0.113532 0.000000
0.013268 0.134312 0.013268
0.041468 0.133527 0.012480
0.076643 0.132547 0.011496
0.112070 0.131559 0.010505
0.147730 0.130562 0.009505
0.183605 0.129558 0.008497
0.219677 0.128545 0.007481
0.255926 0.127524 0.006457
0.292335 0.126495 0.005425
0.328887 0.125458 0.004384
0.365565 0.124413 0.003336
0.401634 0.123380 0.002300
0.439336 0.124385 0.001090
0.477803 0.126047 0.000000
0.516358 0.127703 0.000000
0.553075 0.129407 0.000000
0.586360 0.131209 0.000000
0.620105 0.132994 0.000000
0.654264 0.134763 0.000000
0.688970 0.136513 0.000000
0.724974 0.138221 0.000000
0.761180 0.139919 0.000000
0.797556 0.141610 0.000000
0.834072 0.143293 0.000000
0.870707 0.144972 0.000000
0.907439 0.146647 0.000000
0.944255 0.148318 0.000000
0.979427 0.148198 0.000000
1.000000 0.147148 0.000000
1.000000 0.146473 0.000000
1.000000 0.146473 0.000000
1.000000 0.146473 0.000000
1.000000 0.146473 0.000000
0.011409 0.167145 0.011409
0.039609 0.166361 0.010621
0.074786 0.165383 0.009637
0.110215 0.164397 0.008646
0.145879 0.163402 0.007646
0.181758 0.162400 0.006638
0.217835 0.161389 0.005622
0.254090 0.160370 0.004598
0.290506 0.159343 0.003565
0.327065 0.158308 0.002525
0.363752 0.157264 0.001476
0.401708 0.158123 0.000273
0.440092 0.159812 0.000000
0.478575 0.161494 0.000000
0.517146 0.163168 0.000000
0.553484 0.164903 0.000000
0.586811 0.166723 0.000000
0.620594 0.168526 0.000000
0.654789 0.170313 0.000000
0.689609 0.172078 0.000000
0.725636 0.173804 0.000000
0.761862 0.175521 0.000000
0.798254 0.177230 0.000000
0.834784 0.178933 0.000000
0.871430 0.180630 0.000000
0.908172 0.182323 0.000000
0.943431 0.182368 0.000000
0.977719 0.181322 0.000000
1.000000 0.180275 0.000000
1.000000 0.179601 0.000000
1.000000 0.179601 0.000000
1.000000 0.179601 0.000000
1.000000 0.179601 0.000000
0.009535 0.200157 0.009535
0.037736 0.199375 0.008747
0.072914 0.198399 0.007764
0.108346 0.197415 0.006772
0.144013 0.196423 0.005772
0.179897 0.195423 0.004764
0.215979 0.194414 0.003748
0.252240 0.193398 0.002724
0.288662 0.192373 0.001692
0.325229 0.191340 0.000651
0.363707 0.192043 0.000000
0.402433 0.193745 0.000000
0.440833 0.195452 0.000000
0.479332 0.197152 0.000000
0.517918 0.198845 0.000000
0.553880 0.200609 0.000000
0.587249 0.202445 0.000000
0.621070 0.204265 0.000000
0.655300 0.206070 0.000000
0.690235 0.207850 0.000000
0.726284 0.209593 0.000000
0.762529 0.211328 0.000000
0.798938 0.213054 0.000000
0.835482 0.214775 0.000000
0.872139 0.216490 0.000000
0.907476 0.216702 0.000000
0.941708 0.215662 0.000000
0.975997 0.214619 0.000000
1.000000 0.213574 0.000000
1.000000 0.212902 0.000000
1.000000 0.212902 0.000000
1.000000 0.212902 0.000000
1.000000 0.212902 0.000000
0.007648 0.233334 0.007648
0.035849 0.232554 0.006860
0.071028 0.231581 0.005876
0.106463 0.230600 0.004884
0.142133 0.229610 0.003885
0.178021 0.228613 0.002877
0.214108 0.227607 0.001861
0.250375 0.226593 0.000836
0.286805 0.225571 0.000000
0.324998 0.226139 0.000000
0.364492 0.227841 0.000000
0.403143 0.229563 0.000000
0.441560 0.231287 0.000000
0.480074 0.233004 0.000000
0.518677 0.234714 0.000000
0.554264 0.236506 0.000000
0.587674 0.238359 0.000000
0.621533 0.240195 0.000000
0.655799 0.242015 0.000000
0.690847 0.243809 0.000000
0.726919 0.245569 0.000000
0.763183 0.247320 0.000000
0.799608 0.249064 0.000000
0.836166 0.250801 0.000000
0.871571 0.251183 0.000000
0.905738 0.250150 0.000000
0.939972 0.249113 0.000000
0.974262 0.248074 0.000000
1.000000 0.247032 0.000000
1.000000 0.246362 0.000000
1.000000 0.246362 0.000000
1.000000 0.246362 0.000000
1.000000 0.246362 0.000000
0.005746 0.266661 0.005746
0.033948 0.265884 0.004958
0.069128 0.264914 0.003974
0.104565 0.263936 0.002982
0.140239 0.262949 0.001983
0.176131 0.261955 0.000975
0.212223 0.260952 0.000000
0.248497 0.259942 0.000000
0.286388 0.260373 0.000000
0.325750 0.262099 0.000000
0.365262 0.263817 0.000000
0.403838 0.265558 0.000000
0.442272 0.267298 0.000000
0.480802 0.269032 0.000000
0.519420 0.270758 0.000000
0.554635 0.272577 0.000000
0.588087 0.274445 0.000000
0.621984 0.276296 0.000000
0.656285 0.278132 0.000000
0.691446 0.279938 0.000000
0.727539 0.281714 0.000000
0.763823 0.283481 0.000000
0.800264 0.285240 0.000000
0.835722 0.285795 0.000000
0.869816 0.284770 0.000000
0.903987 0.283741 0.000000
0.938223 0.282707 0.000000
0.972515 0.281671 0.000000
1.000000 0.280633 0.000000
1.000000 0.279965 0.000000
1.000000 0.279965 0.000000
1.000000 0.279965 0.000000
1.000000 0.279965 0.000000
0.003830 0.300126 0.003830
0.032032 0.299351 0.003042
0.067214 0.298385 0.002058
0.102653 0.297410 0.001066
0.138330 0.296427 0.000066
0.174227 0.295436 0.000000
0.210324 0.294437 0.000000
0.247895 0.294730 0.000000
0.287106 0.296479 0.000000
0.326487 0.298221 0.000000
0.366018 0.299954 0.000000
0.404519 0.301713 0.000000
0.442969 0.303469 0.000000
0.481516 0.305218 0.000000
0.520150 0.306959 0.000000
0.554994 0.308805 0.000000
0.588487 0.310687 0.000000
0.622422 0.312552 0.000000
0.656757 0.314402 0.000000
0.692031 0.316221 0.000000
0.728147 0.318012 0.000000
0.764449 0.319793 0.000000
0.799942 0.320522 0.000000
0.833949 0.319507 0.000000
0.868047 0.318486 0.000000
0.902222 0.317460 0.000000
0.936461 0.316431 0.000000
0.970754 0.315399 0.000000
1.000000 0.314364 0.000000
1.000000 0.313699 0.000000
1.000000 0.313699 0.000000
1.000000 0.313699 0.000000
1.000000 0.313699 0.000000
0.001899 0.333715 0.001899
0.030102 0.332943 0.001111
0.065285 0.331980 0.000128
0.100727 0.331009 0.000000
0.136407 0.330030 0.000000
0.172308 0.329043 0.000000
0.209541 0.329195 0.000000
0.248580 0.330967 0.000000
0.287811 0.332731 0.000000
0.327210 0.334488 0.000000
0.366760 0.336236 0.000000
0.405186 0.338012 0.000000
0.443652 0.339783 0.000000
0.482215 0.341546 0.000000
0.520865 0.343302 0.000000
0.555340 0.345173 0.000000
0.588874 0.347068 0.000000
0.622847 0.348947 0.000000
0.657217 0.350810 0.000000
0.692603 0.352640 0.000000
0.728740 0.354445 0.000000
0.764246 0.355349 0.000000
0.798150 0.354345 0.000000
0.832163 0.353334 0.000000
0.866266 0.352318 0.000000
0.900444 0.351296 0.000000
0.934686 0.350271 0.000000
0.968981 0.349243 0.000000
1.000000 0.348212 0.000000
1.000000 0.347550 0.000000
1.000000 0.347550 0.000000
1.000000 0.347550 0.000000
1.000000 0.347550 0.000000
0.000000 0.367415 0.000000
0.028158 0.366647 0.000000
0.063342 0.365688 0.000000
0.098786 0.364721 0.000000
0.134470 0.363746 0.000000
0.171345 0.363757 0.000000
0.210191 0.365550 0.000000
0.249250 0.367337 0.000000
0.288500 0.369115 0.000000
0.327924 0.370794 0.000000
0.367472 0.372462 0.000000
0.405853 0.374159 0.000000
0.444341 0.375848 0.000000
0.482926 0.377530 0.000000
0.521597 0.379204 0.000000
0.555710 0.381004 0.000000
0.589290 0.382816 0.000000
0.623306 0.384611 0.000000
0.657716 0.386391 0.000000
0.693217 0.388137 0.000000
0.728712 0.389148 0.000000
0.762494 0.388156 0.000000
0.796405 0.387156 0.000000
0.830423 0.386149 0.000000
0.864531 0.385136 0.000000
0.898712 0.384119 0.000000
0.932956 0.383098 0.000000
0.967253 0.382074 0.000000
1.000000 0.381048 0.000000
1.000000 0.380388 0.000000
1.000000 0.380388 0.000000
1.000000 0.380388 0.000000
1.000000 0.380388 0.000000
0.000000 0.400418 0.000000
0.026246 0.399653 0.000000
0.061432 0.398698 0.000000
0.096877 0.397735 0.000000
0.133376 0.397575 0.000000
0.172013 0.399294 0.000000
0.210885 0.401006 0.000000
0.249969 0.402709 0.000000
0.289244 0.404405 0.000000
0.328687 0.406093 0.000000
0.368161 0.407776 0.000000
0.406559 0.409485 0.000000
0.445063 0.411186 0.000000
0.483664 0.412880 0.000000
0.522351 0.414567 0.000000
0.556099 0.416390 0.000000
0.589719 0.418213 0.000000
0.623772 0.420019 0.000000
0.658216 0.421811 0.000000
0.693306 0.423006 0.000000
0.726942 0.422027 0.000000
0.760730 0.421039 0.000000
0.794648 0.420043 0.000000
0.828671 0.419041 0.000000
0.862783 0.418033 0.000000
0.896969 0.417021 0.000000
0.931216 0.416004 0.000000
0.965514 0.414985 0.000000
0.999855 0.413963 0.000000
1.000000 0.413306 0.000000
1.000000 0.413306 0.000000
1.000000 0.413306 0.000000
1.000000 0.413306 0.000000
0.000000 0.433183 0.000000
0.024339 0.432421 0.000000
0.059526 0.431471 0.000000
0.095628 0.431172 0.000000
0.134026 0.432911 0.000000
0.172683 0.434643 0.000000
0.211576 0.436366 0.000000
0.250680 0.438082 0.000000
0.289974 0.439789 0.000000
0.329436 0.441489 0.000000
0.368836 0.443186 0.000000
0.407251 0.444907 0.000000
0.445772 0.446620 0.000000
0.484389 0.448326 0.000000
0.523092 0.450025 0.000000
0.556476 0.451870 0.000000
0.590136 0.453703 0.000000
0.624227 0.455520 0.000000
0.658343 0.456916 0.000000
0.691515 0.455959 0.000000
0.725158 0.454984 0.000000
0.758954 0.454001 0.000000
0.792878 0.453010 0.000000
0.826907 0.452012 0.000000
0.861024 0.451009 0.000000
0.895213 0.450001 0.000000
0.929463 0.448989 0.000000
0.963762 0.447974 0.000000
0.998104 0.446958 0.000000
1.000000 0.446304 0.000000
1.000000 0.446304 0.000000
1.000000 0.446304 0.000000
1.000000 0.446304 0.000000
0.000000 0.466025 0.000000
0.022419 0.465267 0.000000
0.058105 0.464829 0.000000
0.096243 0.466587 0.000000
0.134663 0.468338 0.000000
0.173341 0.470081 0.000000
0.212253 0.471816 0.000000
0.251378 0.473543 0.000000
0.290691 0.475262 0.000000
0.330172 0.476973 0.000000
0.369498 0.478684 0.000000
0.407929 0.480416 0.000000
0.446467 0.482141 0.000000
0.485100 0.483859 0.000000
0.523614 0.485574 0.000000
0.556842 0.487435 0.000000
0.590542 0.489278 0.000000
0.624447 0.490852 0.000000
0.656531 0.489936 0.000000
0.689711 0.488983 0.000000
0.723362 0.488013 0.000000
0.757165 0.487035 0.000000
0.791095 0.486048 0.000000
0.825130 0.485055 0.000000
0.859252 0.484057 0.000000
0.893445 0.483054 0.000000
0.927697 0.482047 0.000000
0.961999 0.481037 0.000000
0.996341 0.480025 0.000000
1.000000 0.479374 0.000000
1.000000 0.479374 0.000000
1.000000 0.479374 0.000000
1.000000 0.479374 0.000000
0.000000 0.498938 0.000000
0.020830 0.498539 0.000000
0.058685 0.500316 0.000000
0.096844 0.502086 0.000000
0.135285 0.503847 0.000000
0.173984 0.505601 0.000000
0.212917 0.507347 0.000000
0.252062 0.509085 0.000000
0.291394 0.510815 0.000000
0.330894 0.512537 0.000000
0.370146 0.514262 0.000000
0.408594 0.516005 0.000000
0.447149 0.517741 0.000000
0.485798 0.519470 0.000000
0.523932 0.521085 0.000000
0.557226 0.522539 0.000000
0.590902 0.523893 0.000000
0.622666 0.522995 0.000000
0.654758 0.522083 0.000000
0.687946 0.521135 0.000000
0.721605 0.520169 0.000000
0.755415 0.519195 0.000000
0.789351 0.518214 0.000000
0.823392 0.517226 0.000000
0.857518 0.516232 0.000000
0.891715 0.515233 0.000000
0.925970 0.514231 0.000000
0.960274 0.513226 0.000000
0.994617 0.512219 0.000000
1.000000 0.511571 0.000000
1.000000 0.511571 0.000000
1.000000 0.511571 0.000000
1.000000 0.511571 0.000000
0.000000 0.532124 0.000000
0.021374 0.534081 0.000000
0.059276 0.535453 0.000000
0.097481 0.536819 0.000000
0.135968 0.538179 0.000000
0.174712 0.539534 0.000000
0.213689 0.540883 0.000000
0.252876 0.542227 0.000000
0.292252 0.543564 0.000000
0.331793 0.544896 0.000000
0.370993 0.546236 0.000000
0.409480 0.547592 0.000000
0.448073 0.548944 0.000000
0.486759 0.550290 0.000000
0.524521 0.551660 0.000000
0.557856 0.553150 0.000000
0.589312 0.552318 0.000000
0.621083 0.551423 0.000000
0.653182 0.550515 0.000000
0.686378 0.549571 0.000000
0.720043 0.548609 0.000000
0.753860 0.547640 0.000000
0.787802 0.546662 0.000000
0.821847 0.545678 0.000000
0.855978 0.544688 0.000000
0.890178 0.543694 0.000000
0.924436 0.542696 0.000000
0.958741 0.541695 0.000000
0.993085 0.540692 0.000000
1.000000 0.540047 0.000000
1.000000 0.540047 0.000000
1.000000 0.540047 0.000000
1.000000 0.540047 0.000000
0.000000 0.563060 0.000000
0.022209 0.564579 0.000000
0.060131 0.565988 0.000000
0.098356 0.567392 0.000000
0.136862 0.568791 0.000000
0.175625 0.570183 0.000000
0.214621 0.571569 0.000000
0.253826 0.572950 0.000000
0.293218 0.574324 0.000000
0.332775 0.575693 0.000000
0.371899 0.577071 0.000000
0.410400 0.578464 0.000000
0.449007 0.579852 0.000000
0.487707 0.581234 0.000000
0.525083 0.582650 0.000000
0.556279 0.581972 0.000000
0.587695 0.581095 0.000000
0.619473 0.580204 0.000000
0.651580 0.579300 0.000000
0.684783 0.578360 0.000000
0.718455 0.577403 0.000000
0.752278 0.576437 0.000000
0.786226 0.575464 0.000000
0.820277 0.574484 0.000000
0.854412 0.573499 0.000000
0.888615 0.572509 0.000000
0.922876 0.571515 0.000000
0.957182 0.570518 0.000000
0.991527 0.569519 0.000000
1.000000 0.568877 0.000000
1.000000 0.568877 0.000000
1.000000 0.568877 0.000000
1.000000 0.568877 0.000000
0.000000 0.594009 0.000000
0.023012 0.595493 0.000000
0.060955 0.596938 0.000000
0.099200 0.598376 0.000000
0.137726 0.599809 0.000000
0.176508 0.601236 0.000000
0.215522 0.602657 0.000000
0.254745 0.604071 0.000000
0.294154 0.605480 0.000000
0.333728 0.606882 0.000000
0.372775 0.608296 0.000000
0.411291 0.609722 0.000000
0.449912 0.611143 0.000000
0.488626 0.612558 0.000000
0.523604 0.611927 0.000000
0.554629 0.611069 0.000000
0.586053 0.610196 0.000000
0.617838 0.609309 0.000000
0.649952 0.608409 0.000000
0.683163 0.607473 0.000000
0.716842 0.606520 0.000000
0.750671 0.605558 0.000000
0.784625 0.604589 0.000000
0.818681 0.603613 0.000000
0.852821 0.602632 0.000000
0.887028 0.601646 0.000000
0.921291 0.600657 0.000000
0.955600 0.599664 0.000000
0.989945 0.598670 0.000000
1.000000 0.598030 0.000000
1.000000 0.598030 0.000000
1.000000 0.598030 0.000000
1.000000 0.598030 0.000000
0.000000 0.625303 0.000000
0.023786 0.626786 0.000000
0.061749 0.628263 0.000000
0.100015 0.629734 0.000000
0.138561 0.631198 0.000000
0.177362 0.632657 0.000000
0.216394 0.634109 0.000000
0.255635 0.635555 0.000000
0.295062 0.636994 0.000000
0.334653 0.638428 0.000000
0.373623 0.639875 0.000000
0.412155 0.641332 0.000000
0.450790 0.642783 0.000000
0.487301 0.642264 0.000000
0.521922 0.641315 0.000000
0.552955 0.640461 0.000000
0.584386 0.639592 0.000000
0.616179 0.638709 0.000000
0.648301 0.637812 0.000000
0.681519 0.636880 0.000000
0.715205 0.635931 0.000000
0.749041 0.634974 0.000000
0.783001 0.634008 0.000000
0.817063 0.633037 0.000000
0.851207 0.632060 0.000000
0.885418 0.631078 0.000000
0.919684 0.630093 0.000000
0.953994 0.629105 0.000000
0.988340 0.628115 0.000000
1.000000 0.627478 0.000000
1.000000 0.627478 0.000000
1.000000 0.627478 0.000000
1.000000 0.627478 0.000000
0.000000 0.656911 0.000000
0.024532 0.658424 0.000000
0.062517 0.659930 0.000000
0.100803 0.661430 0.000000
0.139369 0.662924 0.000000
0.178189 0.664411 0.000000
0.217240 0.665892 0.000000
0.256498 0.667399 0.000000
0.295937 0.668952 0.000000
0.335540 0.670499 0.000000
0.374429 0.672062 0.000000
0.412971 0.673631 0.000000
0.449564 0.673286 0.000000
0.485565 0.672310 0.000000
0.520194 0.671366 0.000000
0.551235 0.670515 0.000000
0.582674 0.669650 0.000000
0.614476 0.668770 0.000000
0.646605 0.667877 0.000000
0.679831 0.666949 0.000000
0.713524 0.666004 0.000000
0.747367 0.665051 0.000000
0.781333 0.664090 0.000000
0.815400 0.663122 0.000000
0.849549 0.662149 0.000000
0.883764 0.661172 0.000000
0.918033 0.660191 0.000000
0.952345 0.659207 0.000000
0.986692 0.658221 0.000000
1.000000 0.657587 0.000000
1.000000 0.657587 0.000000
1.000000 0.657587 0.000000
1.000000 0.657587 0.000000
0.000000 0.689350 0.000000
0.025217 0.690973 0.000000
0.063217 0.692588 0.000000
0.101520 0.694197 0.000000
0.140100 0.695798 0.000000
0.178936 0.697393 0.000000
0.218002 0.698980 0.000000
0.257275 0.700560 0.000000
0.296733 0.702133 0.000000
0.336354 0.703699 0.000000
0.375167 0.705283 0.000000
0.411832 0.705097 0.000000
0.447764 0.704132 0.000000
0.483774 0.703160 0.000000
0.518412 0.702220 0.000000
0.549461 0.701373 0.000000
0.580909 0.700511 0.000000
0.612718 0.699635 0.000000
0.644856 0.698745 0.000000
0.678090 0.697821 0.000000
0.711791 0.696880 0.000000
0.745641 0.695930 0.000000
0.779614 0.694973 0.000000
0.813686 0.694010 0.000000
0.847840 0.693041 0.000000
0.882059 0.692067 0.000000
0.916331 0.691090 0.000000
0.950645 0.690111 0.000000
0.984993 0.689129 0.000000
1.000000 0.688497 0.000000
1.000000 0.688497 0.000000
1.000000 0.688497 0.000000
1.000000 0.688497 0.000000
0.000000 0.722570 0.000000
0.025852 0.724211 0.000000
0.063875 0.725844 0.000000
0.102198 0.727470 0.000000
0.140800 0.729089 0.000000
0.179656 0.730700 0.000000
0.218741 0.732304 0.000000
0.258034 0.733901 0.000000
0.297511 0.735490 0.000000
0.337150 0.737072 0.000000
0.374155 0.737038 0.000000
0.410007 0.736084 0.000000
0.445947 0.735123 0.000000
0.481967 0.734154 0.000000
0.516615 0.733217 0.000000
0.547672 0.732374 0.000000
0.579128 0.731515 0.000000
0.610946 0.730642 0.000000
0.643091 0.729756 0.000000
0.676333 0.728836 0.000000
0.710042 0.727898 0.000000
0.743899 0.726952 0.000000
0.777878 0.725999 0.000000
0.811957 0.725040 0.000000
0.846116 0.724075 0.000000
0.880339 0.723105 0.000000
0.914614 0.722132 0.000000
0.948930 0.721156 0.000000
0.983279 0.720178 0.000000
1.000000 0.719549 0.000000
1.000000 0.719549 0.000000
1.000000 0.719549 0.000000
1.000000 0.719549 0.000000
0.000000 0.755958 0.000000
0.026471 0.757613 0.000000
0.064516 0.759261 0.000000
0.102861 0.760902 0.000000
0.141483 0.762536 0.000000
0.180360 0.764161 0.000000
0.219466 0.765780 0.000000
0.258778 0.767391 0.000000
0.298274 0.768994 0.000000
0.336300 0.769094 0.000000
0.372306 0.768144 0.000000
0.408167 0.767193 0.000000
0.444117 0.766235 0.000000
0.480146 0.765270 0.000000
0.514803 0.764336 0.000000
0.545868 0.763496 0.000000
0.577332 0.762640 0.000000
0.609159 0.761771 0.000000
0.641312 0.760888 0.000000
0.674562 0.759971 0.000000
0.708279 0.759037 0.000000
0.742144 0.758094 0.000000
0.776130 0.757144 0.000000
0.810214 0.756188 0.000000
0.844378 0.755227 0.000000
0.878606 0.754261 0.000000
0.912884 0.753291 0.000000
0.947202 0.752319 0.000000
0.981552 0.751345 0.000000
1.000000 0.750718 0.000000
1.000000 0.750718 0.000000
1.000000 0.750718 0.000000
1.000000 0.750718 0.000000
0.000000 0.789485 0.000000
0.027076 0.791153 0.000000
0.065142 0.792814 0.000000
0.103509 0.794467 0.000000
0.142153 0.796113 0.000000
0.181050 0.797751 0.000000
0.220176 0.799381 0.000000
0.259508 0.801004 0.000000
0.297556 0.801264 0.000000
0.334430 0.800298 0.000000
0.370445 0.799351 0.000000
0.406314 0.798403 0.000000
0.442273 0.797448 0.000000
0.478312 0.796486 0.000000
0.512978 0.795556 0.000000
0.544052 0.794718 0.000000
0.575525 0.793865 0.000000
0.607359 0.792999 0.000000
0.639521 0.792119 0.000000
0.672779 0.791205 0.000000
0.706504 0.790274 0.000000
0.740376 0.789335 0.000000
0.774369 0.788388 0.000000
0.808460 0.787435 0.000000
0.842629 0.786477 0.000000
0.876860 0.785514 0.000000
0.911142 0.784548 0.000000
0.945462 0.783579 0.000000
0.979814 0.782608 0.000000
1.000000 0.781984 0.000000
1.000000 0.781984 0.000000
1.000000 0.781984 0.000000
1.000000 0.781984 0.000000
0.000000 0.823128 0.000000
0.027668 0.824807 0.000000
0.065757 0.826478 0.000000
0.104146 0.828142 0.000000
0.142811 0.829798 0.000000
0.181729 0.831446 0.000000
0.220876 0.833086 0.000000
0.258924 0.833506 0.000000
0.295667 0.832550 0.000000
0.332549 0.831588 0.000000
0.368572 0.830643 0.000000
0.404450 0.829698 0.000000
0.440418 0.828746 0.000000
0.476466 0.827787 0.000000
0.511142 0.826859 0.000000
0.542224 0.826024 0.000000
0.573706 0.825173 0.000000
0.605549 0.824309 0.000000
0.637719 0.823432 0.000000
0.670986 0.822521 0.000000
0.704719 0.821593 0.000000
0.738598 0.820656 0.000000
0.772598 0.819712 0.000000
0.806694 0.818762 0.000000
0.840869 0.817807 0.000000
0.875105 0.816847 0.000000
0.909390 0.815884 0.000000
0.943712 0.814918 0.000000
0.978065 0.813950 0.000000
1.000000 0.813327 0.000000
1.000000 0.813327 0.000000
1.000000 0.813327 0.000000
1.000000 0.813327 0.000000
0.000000 0.856867 0.000000
0.028250 0.858555 0.000000
0.066361 0.860235 0.000000
0.104772 0.861907 0.000000
0.143459 0.863571 0.000000
0.182398 0.865227 0.000000
0.220425 0.865806 0.000000
0.257018 0.864861 0.000000
0.293769 0.863908 0.000000
0.330658 0.862947 0.000000
0.366690 0.862005 0.000000
0.402577 0.861062 0.000000
0.438554 0.860112 0.000000
0.474612 0.859156 0.000000
0.509297 0.858230 0.000000
0.540388 0.857397 0.000000
0.571878 0.856549 0.000000
0.603729 0.855687 0.000000
0.635908 0.854812 0.000000
0.669183 0.853903 0.000000
0.702924 0.852977 0.000000
0.736811 0.852043 0.000000
0.770817 0.851102 0.000000
0.804920 0.850154 0.000000
0.839100 0.849201 0.000000
0.873340 0.848244 0.000000
0.907629 0.847283 0.000000
0.941954 0.846320 0.000000
0.976308 0.845354 0.000000
