flutter_app/assets/lut/cameras/u300_gold.cube
TITLE "U300 Gold 200"
LUT_3D_SIZE 9
0.029640 0.029640 0.029640
0.161549 0.024276 0.024276
0.307672 0.018281 0.018281
0.454094 0.012174 0.012174
0.596086 0.006131 0.006131
0.735104 0.001626 0.000000
0.881408 0.006002 0.000000
1.000000 0.010258 0.000000
1.000000 0.014683 0.000000
0.020114 0.144351 0.020114
0.152068 0.139008 0.014749
0.298311 0.133034 0.008753
0.446604 0.128642 0.002422
0.595334 0.133431 0.000000
0.734522 0.138528 0.000000
0.881115 0.143224 0.000000
1.000000 0.143671 0.000000
1.000000 0.142499 0.000000
0.009048 0.276617 0.009048
0.141049 0.271331 0.003684
0.288545 0.266532 0.000000
0.445956 0.271373 0.000000
0.593513 0.276514 0.000000
0.733606 0.281869 0.000000
0.877150 0.283254 0.000000
1.000000 0.277187 0.000000
1.000000 0.276027 0.000000
0.000000 0.410148 0.000000
0.130258 0.405436 0.000000
0.287681 0.410241 0.000000
0.445095 0.414965 0.000000
0.591539 0.420028 0.000000
0.729828 0.422300 0.000000
0.866818 0.416448 0.000000
1.000000 0.410479 0.000000
1.000000 0.409337 0.000000
0.000000 0.541322 0.000000
0.129115 0.545617 0.000000
0.287035 0.549008 0.000000
0.444549 0.552365 0.000000
0.587966 0.554128 0.000000
0.719697 0.548702 0.000000
0.856824 0.542956 0.000000
0.995204 0.537095 0.000000
1.000000 0.535974 0.000000
0.000000 0.665700 0.000000
0.129165 0.669815 0.000000
0.287390 0.673861 0.000000
0.443082 0.676519 0.000000
0.578221 0.671163 0.000000
0.710129 0.665828 0.000000
0.847390 0.660179 0.000000
0.985824 0.654418 0.000000
1.000000 0.653316 0.000000
0.000000 0.797627 0.000000
0.128307 0.802362 0.000000
0.285732 0.805876 0.000000
0.432378 0.800270 0.000000
0.567726 0.794992 0.000000
0.699827 0.789737 0.000000
0.837238 0.784173 0.000000
0.975736 0.778499 0.000000
1.000000 0.777414 0.000000
0.000000 0.932088 0.000000
0.126644 0.936492 0.000000
0.274560 0.930978 0.000000
0.421407 0.925420 0.000000
0.556970 0.920188 0.000000
0.689271 0.914981 0.000000
0.826840 0.909470 0.000000
0.965411 0.903851 0.000000
0.991818 0.902777 0.000000
0.000000 1.000000 0.000000
0.119182 1.000000 0.000000
0.267181 1.000000 0.000000
0.414158 1.000000 0.000000
0.549862 1.000000 0.000000
0.682297 0.997184 0.000000
0.819973 0.991684 0.000000
0.958598 0.986078 0.000000
0.985007 0.985007 0.000000
0.027875 0.027875 0.146391
0.159792 0.022511 0.141048
0.305938 0.016515 0.135075
0.452392 0.010409 0.128989
0.592059 0.004467 0.123066
0.723539 0.000000 0.117379
0.870330 0.000000 0.110724
1.000000 0.000000 0.103201
1.000000 0.002745 0.100816
0.018348 0.142593 0.136901
0.150311 0.137250 0.131556
0.296576 0.131275 0.125579
0.443204 0.125188 0.119491
0.585136 0.121697 0.113258
0.723611 0.126810 0.106306
0.870047 0.131497 0.098896
1.000000 0.136063 0.091334
1.000000 0.140643 0.089388
0.007283 0.274878 0.125873
0.139291 0.269590 0.120525
0.285690 0.263676 0.114545
0.434336 0.259506 0.108209
0.583291 0.264579 0.100908
0.722692 0.269953 0.093882
0.869428 0.274930 0.086424
1.000000 0.275448 0.079401
1.000000 0.274288 0.078225
0.000000 0.408437 0.114582
0.128007 0.403233 0.109231
0.275782 0.398627 0.103084
0.433447 0.403333 0.095558
0.581263 0.408334 0.088306
0.721606 0.413542 0.081241
0.865204 0.414737 0.074262
1.000000 0.408767 0.068108
1.000000 0.407625 0.066932
0.000000 0.539642 0.103285
0.117331 0.535155 0.097848
0.275005 0.538840 0.090517
0.432777 0.542151 0.083101
0.579576 0.545826 0.076006
0.718059 0.547024 0.069384
0.855209 0.541277 0.063345
0.993598 0.535415 0.057190
1.000000 0.534293 0.056013
0.000000 0.654781 0.093186
0.117378 0.659274 0.086477
0.275395 0.663189 0.079100
0.433076 0.667193 0.071616
0.576550 0.669515 0.064792
0.708489 0.664179 0.059084
0.845773 0.658528 0.053044
0.984217 0.652766 0.046887
1.000000 0.651663 0.045710
0.000000 0.786579 0.081425
0.116554 0.791322 0.074200
0.274887 0.795874 0.066741
0.430672 0.798647 0.059451
0.566053 0.793368 0.053716
0.698185 0.788112 0.048007
0.835620 0.782547 0.041965
0.974129 0.776872 0.035807
1.000000 0.775787 0.034630
0.000000 0.920961 0.068812
0.115377 0.925843 0.061538
0.272820 0.929369 0.054211
0.419698 0.923811 0.048115
0.555294 0.918579 0.042378
0.687626 0.913371 0.036667
0.825221 0.907859 0.030625
0.963804 0.902241 0.024466
0.990212 0.901166 0.023288
0.000000 1.000000 0.059077
0.117421 1.000000 0.052780
0.265440 1.000000 0.046730
0.412447 1.000000 0.040633
0.548185 1.000000 0.034895
0.680651 0.995578 0.029184
0.818353 0.990077 0.023141
0.956990 0.984472 0.016981
0.983400 0.983400 0.015804
0.025838 0.025838 0.280149
0.157765 0.020474 0.274865
0.303936 0.014478 0.268954
0.450428 0.008371 0.262931
0.590135 0.002429 0.257067
0.718368 0.000000 0.251576
0.858288 0.000000 0.245483
1.000000 0.000000 0.238690
1.000000 0.000000 0.235866
0.016311 0.140564 0.270761
0.148282 0.135220 0.265471
0.294572 0.129244 0.259555
0.441237 0.123157 0.253526
0.581131 0.117232 0.247657
0.712344 0.114714 0.241769
0.858616 0.119391 0.234442
1.000000 0.123941 0.226954
1.000000 0.128043 0.224563
0.005245 0.272870 0.259846
0.137261 0.267581 0.254551
0.283684 0.261666 0.248628
0.430548 0.255638 0.242593
0.572734 0.252256 0.236407
0.711420 0.257650 0.229485
0.858008 0.262620 0.222105
1.000000 0.267471 0.214573
1.000000 0.272180 0.212627
0.000000 0.406460 0.248664
0.125976 0.401255 0.243363
0.272528 0.395433 0.237434
0.421414 0.391317 0.231150
0.570652 0.396252 0.223913
0.710302 0.401483 0.216946
0.857224 0.406319 0.209548
1.000000 0.406791 0.202577
1.000000 0.405649 0.201409
0.000000 0.537703 0.237471
0.114685 0.532595 0.232164
0.262605 0.528108 0.226064
0.420615 0.531603 0.218693
0.568815 0.535185 0.211609
0.709505 0.539002 0.204706
0.853344 0.539338 0.197847
0.991743 0.533474 0.191734
1.000000 0.532353 0.190565
0.000000 0.652862 0.227460
0.105211 0.648388 0.222071
0.263002 0.652282 0.214773
0.420953 0.656118 0.207360
0.567942 0.660453 0.200250
0.706596 0.662274 0.193615
0.843907 0.656622 0.187615
0.982363 0.650858 0.181496
1.000000 0.649756 0.180327
0.000000 0.774782 0.216678
0.104422 0.779922 0.209955
0.262527 0.784472 0.202568
0.420405 0.788958 0.195085
0.564122 0.791494 0.188282
0.696290 0.786236 0.182609
0.833753 0.780670 0.176604
0.972275 0.774994 0.170481
0.998680 0.773909 0.169310
0.000000 0.909459 0.204597
0.103236 0.914359 0.197403
0.261706 0.919058 0.189976
0.417724 0.921953 0.182717
0.553359 0.916722 0.177014
0.685728 0.911513 0.171336
0.823351 0.906001 0.165326
0.961949 0.900382 0.159199
0.988357 0.899307 0.158027
0.000000 1.000000 0.194039
0.104994 1.000000 0.187772
0.263430 1.000000 0.181340
0.410472 1.000000 0.175279
0.546248 0.998921 0.169574
0.678751 0.993723 0.163893
0.816483 0.988223 0.157880
0.955135 0.982617 0.151750
0.981546 0.981546 0.150578
0.023746 0.023746 0.415588
0.155683 0.018382 0.410389
0.301881 0.012385 0.404574
0.448411 0.006279 0.398646
0.588159 0.000337 0.392875
0.716427 0.000000 0.387470
0.852414 0.000000 0.381641
0.994869 0.000000 0.375469
1.000000 0.000000 0.372704
0.014219 0.138480 0.406352
0.146199 0.133135 0.401147
0.292514 0.127159 0.395324
0.439218 0.121071 0.389390
0.579152 0.115146 0.383611
0.707580 0.109599 0.378199
0.847142 0.107249 0.371895
0.995301 0.111781 0.364528
1.000000 0.115406 0.361718
0.003153 0.270807 0.395611
0.135177 0.265518 0.390398
0.281624 0.259601 0.384567
0.428525 0.253573 0.378624
0.568676 0.247703 0.372838
0.700110 0.245302 0.367024
0.846542 0.250266 0.359769
0.994840 0.255103 0.352355
1.000000 0.259343 0.349981
0.000000 0.404431 0.384603
0.123890 0.399224 0.379382
0.270466 0.393400 0.373543
0.417566 0.387464 0.367592
0.560019 0.384119 0.361491
0.698957 0.389373 0.354667
0.845739 0.394207 0.347390
0.994196 0.398920 0.339960
1.000000 0.403522 0.338042
0.000000 0.535712 0.373579
0.112598 0.530602 0.368351
0.259296 0.524886 0.362504
0.408412 0.520896 0.356301
0.558029 0.524522 0.349262
0.698033 0.528331 0.342499
0.845246 0.531785 0.335306
0.989840 0.531481 0.328488
1.000000 0.530360 0.327335
0.000000 0.650904 0.363717
0.102504 0.645880 0.358483
0.250562 0.641346 0.352475
0.408765 0.645146 0.345170
0.557169 0.649249 0.338128
0.698026 0.653743 0.331249
0.841991 0.654665 0.324423
0.980458 0.648899 0.318384
1.000000 0.647796 0.317229
0.000000 0.772842 0.353091
0.092255 0.768477 0.347770
0.250123 0.773024 0.340504
0.408252 0.777494 0.333124
0.555466 0.782286 0.326057
0.694343 0.784310 0.319483
0.831835 0.778743 0.313553
0.970370 0.773066 0.307507
0.996776 0.771980 0.306350
0.000000 0.897529 0.342069
0.091060 0.902828 0.335413
0.249292 0.907533 0.328101
0.407399 0.912165 0.320693
0.551372 0.914814 0.313959
0.683778 0.909605 0.308352
0.821432 0.904092 0.302415
0.960045 0.898473 0.296361
0.986453 0.897398 0.295204
0.000000 1.000000 0.331174
0.091883 1.000000 0.325018
0.251431 1.000000 0.318630
0.408444 1.000000 0.312246
0.544259 0.997017 0.306611
0.676799 0.991819 0.301000
0.814562 0.986319 0.295058
0.953230 0.980713 0.288999
0.979642 0.979642 0.287841
0.021666 0.021666 0.547822
0.153613 0.016302 0.542721
0.299837 0.010306 0.537016
0.446405 0.004199 0.531200
0.586193 0.000000 0.525537
0.714496 0.000000 0.520233
0.850510 0.000000 0.514513
0.988348 0.000000 0.508652
1.000000 0.000000 0.505741
0.012139 0.136408 0.538761
0.144128 0.131062 0.533654
0.290468 0.125085 0.527940
0.437209 0.118997 0.522117
0.577184 0.113071 0.516446
0.705647 0.107524 0.511135
0.841786 0.101545 0.505407
0.983746 0.099652 0.498998
1.000000 0.102800 0.495795
0.001073 0.268757 0.528222
0.133104 0.263466 0.523107
0.279575 0.257548 0.517384
0.426513 0.251518 0.511552
0.566705 0.245648 0.505872
0.695356 0.240151 0.500552
0.835092 0.237934 0.494346
0.983304 0.242757 0.487076
1.000000 0.246527 0.484299
0.000000 0.402413 0.517419
0.121816 0.397205 0.512296
0.268415 0.391379 0.506565
0.415551 0.385441 0.500723
0.555964 0.379660 0.495034
0.687635 0.377278 0.489319
0.834268 0.382109 0.482191
0.982653 0.386812 0.474904
1.000000 0.390954 0.472573
0.000000 0.533731 0.506600
0.110523 0.528620 0.501469
0.257243 0.522903 0.495728
0.404573 0.517075 0.489877
0.547286 0.513859 0.483873
0.686580 0.517703 0.477272
0.833664 0.521124 0.470226
0.982304 0.524457 0.463026
1.000000 0.528293 0.461196
0.000000 0.648956 0.496919
0.100428 0.643931 0.491780
0.247250 0.638309 0.486031
0.396590 0.634206 0.479948
0.546422 0.638227 0.472988
0.686608 0.642553 0.466288
0.833941 0.646709 0.459148
0.978566 0.646951 0.452395
1.000000 0.645848 0.451260
0.000000 0.770924 0.486487
0.089562 0.765976 0.481340
0.237739 0.761594 0.475425
0.396113 0.766047 0.468179
0.544725 0.770779 0.461193
0.685789 0.775707 0.454382
0.829928 0.776826 0.447647
0.968477 0.771148 0.441704
0.994883 0.770062 0.440568
0.000000 0.895618 0.475664
0.078917 0.891310 0.470429
0.236901 0.896021 0.463263
0.395252 0.900645 0.455986
0.542722 0.905578 0.449016
0.681840 0.907708 0.442535
0.819523 0.902195 0.436700
0.958151 0.896575 0.430747
0.984561 0.895500 0.429609
0.000000 1.000000 0.464961
0.078804 1.000000 0.459344
0.238115 1.000000 0.453082
0.397364 1.000000 0.446728
0.542281 0.995125 0.440824
0.674859 0.989927 0.435308
0.812652 0.984426 0.429466
0.951336 0.978820 0.423508
0.977749 0.977749 0.422369
0.019760 0.019760 0.666825
0.151715 0.014395 0.661812
0.297963 0.008399 0.656204
0.444566 0.002292 0.650489
0.584391 0.000000 0.644924
0.712726 0.000000 0.639712
0.848764 0.000000 0.634091
0.986613 0.000000 0.628333
1.000000 0.000000 0.625473
0.010232 0.134508 0.657919
0.142229 0.129162 0.652900
0.288592 0.123185 0.647286
0.435367 0.117096 0.641563
0.575380 0.111169 0.635991
0.703875 0.105622 0.630772
0.840039 0.099643 0.625145
0.977942 0.093520 0.619379
1.000000 0.090481 0.616516
0.000000 0.266877 0.647562
0.131204 0.261585 0.642536
0.277697 0.255666 0.636913
0.424669 0.249635 0.631182
0.564898 0.243764 0.625602
0.693582 0.238266 0.620375
0.829898 0.232339 0.614739
0.971929 0.230593 0.608423
1.000000 0.233892 0.605257
0.000000 0.400562 0.636947
0.119915 0.395353 0.631913
0.266535 0.389526 0.626282
0.413704 0.383587 0.620543
0.554154 0.377804 0.614954
0.683034 0.372388 0.609719
0.822961 0.370183 0.603614
0.971269 0.374876 0.596465
1.000000 0.378557 0.593736
0.000000 0.531915 0.626317
0.108621 0.526803 0.621275
0.255360 0.521084 0.615636
0.402723 0.515254 0.609887
0.543394 0.509578 0.604290
0.675298 0.507273 0.598664
0.822241 0.510659 0.591761
0.970820 0.513952 0.584700
1.000000 0.517321 0.582464
0.000000 0.647171 0.616805
0.098525 0.642144 0.611757
0.245366 0.636521 0.606109
0.392898 0.630790 0.600353
0.535869 0.627388 0.594466
0.675344 0.631717 0.587926
0.822565 0.635660 0.580946
0.971227 0.639716 0.573798
1.000000 0.643971 0.571958
0.000000 0.769166 0.606557
0.087658 0.764216 0.601501
0.234602 0.758681 0.595844
0.384144 0.754765 0.589848
0.534179 0.759435 0.582941
0.674552 0.764384 0.576290
0.822044 0.768958 0.569224
0.966742 0.769390 0.562562
0.993148 0.768304 0.561446
0.000000 0.893878 0.595924
0.076397 0.888981 0.590860
0.224692 0.884670 0.585038
0.383277 0.889286 0.577891
0.532142 0.894166 0.571000
0.673443 0.899231 0.564281
0.817773 0.900455 0.557645
0.956415 0.894834 0.551797
0.982825 0.893760 0.550679
0.000000 1.000000 0.585410
0.065919 1.000000 0.580313
0.224979 1.000000 0.574177
0.384481 0.999376 0.567934
0.533100 0.993675 0.561995
0.673079 0.988192 0.556278
0.810901 0.982691 0.550539
0.949600 0.977085 0.544684
0.976013 0.976013 0.543565
0.017790 0.017790 0.787783
0.149755 0.012426 0.782843
0.296026 0.006429 0.777319
0.442665 0.000323 0.771690
0.582530 0.000000 0.766210
0.710897 0.000000 0.761078
0.846961 0.000000 0.755545
0.984820 0.000000 0.749877
1.000000 0.000000 0.747063
0.008263 0.132545 0.779009
0.140267 0.127199 0.774065
0.286654 0.121221 0.768535
0.433464 0.115131 0.762901
0.573515 0.109205 0.757415
0.702044 0.103656 0.752278
0.838235 0.097677 0.746740
0.976149 0.091554 0.741066
1.000000 0.088515 0.738249
0.000000 0.264934 0.768807
0.129241 0.259641 0.763858
0.275757 0.253721 0.758323
0.422763 0.247689 0.752682
0.563031 0.241817 0.747190
0.691748 0.236318 0.742047
0.828092 0.230390 0.736502
0.966077 0.224318 0.730821
1.000000 0.221304 0.728001
0.000000 0.398650 0.758356
0.117951 0.393439 0.753401
0.264592 0.387611 0.747859
0.411795 0.381670 0.742211
0.552284 0.375886 0.736713
0.681198 0.370468 0.731563
0.817702 0.364627 0.726011
0.959830 0.362883 0.719792
1.000000 0.366102 0.716677
0.000000 0.530038 0.747893
0.106656 0.524925 0.742932
0.253415 0.519204 0.737383
0.400811 0.513373 0.731729
0.541521 0.507695 0.726223
0.670633 0.502377 0.721067
0.810762 0.500168 0.715058
0.959278 0.503420 0.708128
1.000000 0.506319 0.705498
0.000000 0.645326 0.738534
0.096559 0.640298 0.733568
0.243420 0.634673 0.728013
0.390984 0.628941 0.722352
0.531889 0.623358 0.716839
0.664032 0.620843 0.711321
0.811118 0.624764 0.704477
0.959743 0.628582 0.697479
1.000000 0.632273 0.695247
0.000000 0.767349 0.728453
0.085691 0.762399 0.723480
0.232654 0.756862 0.717918
0.380395 0.751220 0.712250
0.523604 0.748037 0.706440
0.663266 0.753008 0.699942
0.810636 0.757579 0.693014
0.959358 0.762034 0.685940
0.991363 0.766394 0.684114
0.000000 0.892080 0.717996
0.074429 0.887183 0.713017
0.221491 0.881707 0.707448
0.371244 0.877870 0.701541
0.521532 0.882698 0.694724
0.662143 0.887791 0.688161
0.809832 0.892503 0.681191
0.954622 0.893037 0.674626
0.981033 0.891962 0.673527
0.000000 1.000000 0.707659
0.063306 1.000000 0.702673
0.211793 1.000000 0.697046
0.371539 0.998002 0.690910
0.521574 0.992257 0.685029
0.663992 0.986686 0.679322
0.809092 0.980898 0.673390
0.947806 0.975292 0.667639
0.974221 0.974221 0.666539
0.015724 0.015724 0.913092
0.147698 0.010360 0.908200
0.293995 0.004364 0.902730
0.440671 0.000000 0.897158
0.580576 0.000000 0.891735
0.708979 0.000000 0.886658
0.845070 0.000000 0.881186
0.982940 0.000000 0.875582
1.000000 0.000000 0.872801
0.006197 0.130487 0.904402
0.138209 0.125140 0.899508
0.284621 0.119161 0.894036
0.431468 0.113071 0.888461
0.571559 0.107144 0.883036
0.700123 0.101595 0.877956
0.836342 0.095615 0.872481
0.974269 0.089492 0.866874
1.000000 0.086452 0.864091
0.000000 0.262896 0.894305
0.127182 0.257602 0.889408
0.273721 0.251681 0.883933
0.420763 0.245648 0.878355
0.561071 0.239774 0.872926
0.689825 0.234275 0.867843
0.826197 0.228346 0.862365
0.964197 0.222273 0.856754
1.000000 0.219258 0.853968
0.000000 0.396644 0.883966
0.115891 0.391432 0.879066
0.262554 0.385602 0.873588
0.409792 0.379660 0.868006
0.550322 0.373874 0.862573
0.679272 0.368455 0.857487
0.815806 0.362612 0.852004
0.953887 0.356626 0.846389
1.000000 0.353654 0.843601
0.000000 0.528070 0.873621
0.104595 0.522954 0.868718
0.251375 0.517232 0.863236
0.398806 0.511400 0.857650
0.539555 0.505720 0.852213
0.668704 0.500400 0.847123
0.805406 0.494663 0.841636
0.947647 0.492829 0.835500
1.000000 0.495258 0.832481
0.000000 0.643390 0.864373
0.094497 0.638360 0.859466
0.241377 0.632735 0.853980
0.388976 0.627000 0.848391
0.529921 0.621417 0.842950
0.659249 0.616187 0.837856
0.799584 0.613800 0.831938
0.948155 0.617588 0.825047
1.000000 0.620752 0.822426
0.000000 0.765443 0.854415
0.083629 0.760492 0.849505
0.230610 0.754954 0.844015
0.378385 0.749311 0.838421
0.519540 0.743817 0.832976
0.651901 0.741547 0.827508
0.799141 0.746116 0.820693
0.947819 0.750562 0.813728
0.990301 0.754486 0.811501
0.000000 0.890195 0.844092
0.072366 0.885297 0.839178
0.219445 0.879820 0.833683
0.367399 0.874240 0.828085
0.510862 0.871142 0.822344
0.650764 0.876265 0.815912
0.798337 0.880982 0.809058
0.947157 0.885574 0.802062
0.979160 0.889983 0.800253
0.000000 1.000000 0.833891
0.061242 1.000000 0.828973
0.208412 1.000000 0.823474
0.358505 0.996540 0.817795
0.509984 0.990749 0.811953
0.651733 0.985214 0.806366
0.800494 0.979288 0.800381
0.945925 0.973412 0.794445
0.972341 0.972341 0.793362
0.013622 0.013622 1.000000
0.145605 0.008258 1.000000
0.291927 0.002261 1.000000
0.438641 0.000000 1.000000
0.578587 0.000000 1.000000
0.707025 0.000000 1.000000
0.843144 0.000000 1.000000
0.981027 0.000000 1.000000
1.000000 0.000000 0.999733
0.004095 0.128391 1.000000
0.136115 0.123044 1.000000
0.282551 0.117065 1.000000
0.429435 0.110974 1.000000
0.569568 0.105046 1.000000
0.698168 0.099497 1.000000
0.834415 0.093516 0.999415
0.972356 0.087393 0.993833
1.000000 0.084353 0.991063
0.000000 0.260822 1.000000
0.125086 0.255527 1.000000
0.271649 0.249605 1.000000
0.418728 0.243570 1.000000
0.559077 0.237695 0.999858
0.687867 0.232195 0.994797
0.824269 0.226265 0.989345
0.962283 0.220191 0.983763
1.000000 0.217175 0.980992
0.000000 0.394602 1.000000
0.113794 0.389388 1.000000
0.260480 0.383557 1.000000
0.407754 0.377613 0.994959
0.548324 0.371826 0.989552
0.677311 0.366405 0.984492
0.813876 0.360561 0.979039
0.951972 0.354573 0.973456
1.000000 0.351600 0.970685
0.000000 0.526065 1.000000
0.102497 0.520949 0.995668
0.249299 0.515225 0.990212
0.396764 0.509390 0.984654
0.537555 0.503709 0.979247
0.666740 0.498387 0.974186
0.803474 0.492649 0.968732
0.941660 0.486769 0.963148
1.000000 0.483849 0.960377
0.000000 0.641419 0.991343
0.092399 0.636389 0.986461
0.239299 0.630761 0.981004
0.386931 0.625025 0.975446
0.527918 0.619440 0.970038
0.657283 0.614209 0.964976
0.794171 0.608567 0.959522
0.936532 0.606582 0.953440
0.999979 0.609290 0.950415
0.000000 0.763503 0.981436
0.081529 0.758551 0.976554
0.228529 0.753012 0.971096
0.376338 0.747367 0.965537
0.517533 0.741872 0.960128
0.647093 0.736726 0.955066
0.787615 0.734624 0.949166
0.936246 0.739061 0.942264
0.989203 0.742546 0.939631
0.000000 0.888275 0.971173
0.070266 0.883377 0.966290
0.217363 0.877899 0.960831
0.365349 0.872319 0.955272
0.506760 0.866888 0.949861
0.639361 0.864706 0.944425
0.786810 0.869429 0.937641
0.935595 0.874021 0.930712
0.978078 0.878001 0.928494
0.000000 1.000000 0.961038
0.059141 1.000000 0.956154
0.206327 1.000000 0.950694
0.354483 0.994701 0.945133
0.498388 0.989206 0.939633
0.639448 0.983707 0.934129
0.788114 0.977794 0.928208
0.937917 0.971746 0.922152
0.970427 0.970427 0.920832
