flutter_app/assets/lut/cameras/u300_portra.cube
TITLE "U300 Portra"
LUT_3D_SIZE 5
0.039569 0.039569 0.039569
0.300291 0.035778 0.035778
0.565255 0.031817 0.031817
0.828917 0.039828 0.027374
0.989615 0.052681 0.024381
0.032862 0.271535 0.032862
0.295132 0.269229 0.029007
0.575513 0.286454 0.024181
0.837149 0.299989 0.019597
0.983157 0.297717 0.017286
0.025463 0.521341 0.025463
0.307857 0.535889 0.020792
0.583451 0.547840 0.016176
0.830496 0.544192 0.012339
0.976551 0.541993 0.010027
0.032913 0.763331 0.017821
0.319626 0.777989 0.013063
0.576861 0.774436 0.009209
0.824107 0.770898 0.005371
0.970209 0.768766 0.003060
0.045640 0.977261 0.010808
0.313588 0.973712 0.006908
0.571034 0.970204 0.003054
0.818459 0.966711 0.000000
0.964606 0.964606 0.000000
0.038359 0.038359 0.260067
0.299101 0.034569 0.256325
0.561565 0.030646 0.252451
0.809666 0.026803 0.248654
0.989006 0.032675 0.245600
0.031652 0.270342 0.253445
0.292505 0.266603 0.249700
0.557949 0.265973 0.245686
0.821636 0.283318 0.241021
0.982056 0.296527 0.238050
0.024261 0.519943 0.246142
0.287281 0.518343 0.242303
0.567958 0.532563 0.237604
0.829387 0.543041 0.233157
0.975450 0.540843 0.230869
0.017390 0.744283 0.239350
0.300500 0.760306 0.234661
0.575716 0.773321 0.230060
0.822997 0.769782 0.226261
0.969108 0.767650 0.223972
0.025456 0.976410 0.231913
0.312401 0.972611 0.227783
0.569888 0.969103 0.223967
0.817349 0.965609 0.220166
0.963505 0.963505 0.217876
0.036998 0.036998 0.502673
0.297763 0.033208 0.499045
0.560274 0.029285 0.495288
0.803907 0.025513 0.491673
0.987995 0.022601 0.488883
0.030291 0.269000 0.496252
0.291166 0.265261 0.492620
0.553907 0.261390 0.488860
0.801867 0.262094 0.485052
0.981346 0.275307 0.481874
0.022899 0.518644 0.489168
0.283891 0.515024 0.485533
0.549635 0.514480 0.481633
0.813672 0.528642 0.477178
0.974211 0.539547 0.474347
0.016054 0.742220 0.482602
0.279202 0.740609 0.478876
0.560115 0.756571 0.474247
0.821748 0.768527 0.469872
0.967869 0.766394 0.467650
0.008732 0.975373 0.475573
0.292467 0.971621 0.471613
0.568598 0.967864 0.467644
0.816099 0.964370 0.463952
0.962266 0.962266 0.461728
0.035734 0.035734 0.720847
0.296520 0.031943 0.717330
0.559074 0.028021 0.713688
0.802745 0.024248 0.710185
0.986844 0.021337 0.707480
0.029027 0.267753 0.714622
0.289922 0.264013 0.711102
0.552707 0.260142 0.707458
0.796577 0.256418 0.703951
0.980730 0.253884 0.701235
0.021635 0.517437 0.707757
0.282646 0.513816 0.704234
0.545682 0.510068 0.700586
0.793907 0.510691 0.696894
0.973523 0.521487 0.693868
0.014789 0.741049 0.701394
0.275903 0.737541 0.697868
0.541928 0.736918 0.694089
0.806158 0.752990 0.689700
0.966718 0.765227 0.686907
0.007468 0.974222 0.694583
0.270674 0.970744 0.691027
0.552499 0.966919 0.687113
0.814938 0.963219 0.683325
0.961114 0.961114 0.681170
0.034378 0.034378 0.948803
0.295186 0.030587 0.945350
0.557787 0.026664 0.941777
0.801498 0.022892 0.938340
0.985610 0.019981 0.935688
0.027671 0.266415 0.942693
0.288587 0.262675 0.939240
0.551418 0.258803 0.935666
0.795330 0.255079 0.932228
0.979505 0.252204 0.929576
0.020279 0.516142 0.935959
0.281310 0.512520 0.932505
0.544393 0.508771 0.928930
0.788528 0.505164 0.925492
0.972767 0.502716 0.922829
0.013433 0.739794 0.929722
0.274566 0.736285 0.926267
0.537880 0.732652 0.922691
0.786359 0.733270 0.919073
0.966006 0.745518 0.916058
0.006111 0.972987 0.923050
0.267348 0.969536 0.919594
0.533651 0.965927 0.915979
0.798719 0.962198 0.912244
0.959880 0.959880 0.909922
