flutter_app/assets/lut/cameras/u300.cube
TITLE "U300"
# DAZZ Camera LUT - U300
# Generated for DAZZ retro camera app
LUT_3D_SIZE 9
DOMAIN_MIN 0.0 0.0 0.0
DOMAIN_MAX 1.0 1.0 1.0
0.011935 0.053485 0.078051
0.134900 0.051061 0.075628
0.248133 0.048830 0.073396
0.359357 0.046638 0.071204
0.471679 0.044424 0.068990
0.582405 0.042242 0.066808
0.691876 0.040084 0.064651
0.799157 0.037970 0.062536
0.904030 0.035903 0.060470
0.003433 0.175748 0.069549
0.126398 0.173325 0.067125
0.239631 0.171093 0.064894
0.350855 0.168901 0.062702
0.463177 0.166688 0.060488
0.573903 0.164506 0.058306
0.683374 0.162348 0.056149
0.790655 0.160234 0.054034
0.895528 0.158167 0.051967
0.000000 0.300948 0.060843
0.117691 0.298525 0.058419
0.230924 0.296293 0.056188
0.342149 0.294101 0.053996
0.454470 0.291887 0.051782
0.565196 0.289705 0.049600
0.674667 0.287548 0.047442
0.781949 0.285433 0.045328
0.886821 0.283367 0.043261
0.000000 0.432129 0.051720
0.108569 0.429705 0.049297
0.221802 0.427474 0.047065
0.333026 0.425281 0.044873
0.445348 0.423068 0.042660
0.556074 0.420886 0.040477
0.665545 0.418728 0.038320
0.772826 0.416614 0.036206
0.877699 0.414547 0.034139
0.000000 0.564783 0.042496
0.099344 0.562360 0.040072
0.212577 0.560128 0.037841
0.323802 0.557936 0.035649
0.436123 0.555722 0.033435
0.546849 0.553540 0.031253
0.656320 0.551383 0.029095
0.763602 0.549268 0.026981
0.868475 0.547202 0.024914
0.000000 0.698111 0.033224
0.090073 0.695687 0.030801
0.203306 0.693456 0.028569
0.314530 0.691264 0.026377
0.426852 0.689050 0.024163
0.537578 0.686868 0.021981
0.647049 0.684710 0.019824
0.754330 0.682596 0.017709
0.859203 0.680529 0.015643
0.000000 0.829234 0.024106
0.080955 0.826810 0.021682
0.194188 0.824578 0.019451
0.305412 0.822386 0.017259
0.417734 0.820173 0.015045
0.528460 0.817991 0.012863
0.637931 0.815833 0.010705
0.745212 0.813719 0.008591
0.850085 0.811652 0.006524
0.000000 0.960196 0.014999
0.071848 0.957773 0.012575
0.185081 0.955541 0.010344
0.296305 0.953349 0.008152
0.408626 0.951136 0.005938
0.519353 0.948954 0.003756
0.628824 0.946796 0.001598
0.736105 0.944682 0.000000
0.840978 0.942615 0.000000
0.000000 1.000000 0.011957
0.068806 1.000000 0.009534
0.182039 0.999283 0.007302
0.293263 0.997091 0.005110
0.405585 0.994877 0.002896
0.516311 0.992695 0.000714
0.625782 0.990537 0.000000
0.733063 0.988423 0.000000
0.837936 0.986356 0.000000
0.011069 0.052619 0.209155
0.134034 0.050195 0.206731
0.247267 0.047964 0.204500
0.358491 0.045771 0.202308
0.470813 0.043558 0.200094
0.581539 0.041376 0.197912
0.691010 0.039218 0.195754
0.798291 0.037104 0.193640
0.903164 0.035037 0.191573
0.002567 0.174882 0.200652
0.125531 0.172459 0.198229
0.238764 0.170227 0.195997
0.349989 0.168035 0.193805
0.462310 0.165822 0.191592
0.573036 0.163639 0.189410
0.682508 0.161482 0.187252
0.789789 0.159368 0.185138
0.894662 0.157301 0.183071
0.000000 0.300082 0.191946
0.116825 0.297659 0.189523
0.230058 0.295427 0.187291
0.341282 0.293235 0.185099
0.453604 0.291021 0.182885
0.564330 0.288839 0.180703
0.673801 0.286682 0.178546
0.781082 0.284567 0.176431
0.885955 0.282500 0.174365
0.000000 0.431262 0.182824
0.107703 0.428839 0.180401
0.220936 0.426607 0.178169
0.332160 0.424415 0.175977
0.444482 0.422202 0.173763
0.555208 0.420019 0.171581
0.664679 0.417862 0.169424
0.771960 0.415748 0.167309
0.876833 0.413681 0.165242
0.000000 0.563917 0.173599
0.098478 0.561493 0.171176
0.211711 0.559262 0.168944
0.322935 0.557070 0.166752
0.435257 0.554856 0.164538
0.545983 0.552674 0.162356
0.655454 0.550517 0.160199
0.762735 0.548402 0.158084
0.867608 0.546335 0.156018
0.000000 0.697244 0.164328
0.089207 0.694821 0.161904
0.202440 0.692589 0.159673
0.313664 0.690397 0.157481
0.425986 0.688184 0.155267
0.536712 0.686002 0.153085
0.646183 0.683844 0.150927
0.753464 0.681730 0.148813
0.858337 0.679663 0.146746
0.000000 0.828367 0.155209
0.080088 0.825944 0.152786
0.193321 0.823712 0.150554
0.304546 0.821520 0.148362
0.416867 0.819307 0.146149
0.527593 0.817124 0.143967
0.637065 0.814967 0.141809
0.744346 0.812853 0.139695
0.849219 0.810786 0.137628
0.000000 0.959330 0.146102
0.070981 0.956907 0.143679
0.184214 0.954675 0.141447
0.295439 0.952483 0.139255
0.407760 0.950270 0.137042
0.518486 0.948087 0.134859
0.627957 0.945930 0.132702
0.735239 0.943816 0.130588
0.840111 0.941749 0.128521
0.000000 1.000000 0.143061
0.067940 1.000000 0.140637
0.181173 0.998416 0.138406
0.292397 0.996224 0.136214
0.404718 0.994011 0.134000
0.515445 0.991829 0.131818
0.624916 0.989671 0.129660
0.732197 0.987557 0.127546
0.837070 0.985490 0.125479
0.010138 0.051687 0.350082
0.133103 0.049264 0.347659
0.246336 0.047032 0.345427
0.357560 0.044840 0.343235
0.469881 0.042627 0.341021
0.580608 0.040445 0.338839
0.690079 0.038287 0.336682
0.797360 0.036173 0.334567
0.902233 0.034106 0.332501
0.001636 0.173951 0.341580
0.124600 0.171528 0.339157
0.237833 0.169296 0.336925
0.349058 0.167104 0.334733
0.461379 0.164890 0.332519
0.572105 0.162708 0.330337
0.681576 0.160551 0.328180
0.788858 0.158436 0.326065
0.893730 0.156370 0.323998
0.000000 0.299151 0.332874
0.115894 0.296727 0.330450
0.229127 0.294496 0.328219
0.340351 0.292304 0.326027
0.452673 0.290090 0.323813
0.563399 0.287908 0.321631
0.672870 0.285750 0.319473
0.780151 0.283636 0.317359
0.885024 0.281569 0.315292
0.000000 0.430331 0.323751
0.106772 0.427908 0.321328
0.220005 0.425676 0.319096
0.331229 0.423484 0.316904
0.443551 0.421271 0.314691
0.554277 0.419088 0.312509
0.663748 0.416931 0.310351
0.771029 0.414817 0.308237
0.875902 0.412750 0.306170
0.000000 0.562986 0.314527
0.097547 0.560562 0.312103
0.210780 0.558331 0.309872
0.322004 0.556139 0.307680
0.434326 0.553925 0.305466
0.545052 0.551743 0.303284
0.654523 0.549585 0.301126
0.761804 0.547471 0.299012
0.866677 0.545404 0.296945
0.000000 0.696313 0.305255
0.088276 0.693890 0.302832
0.201509 0.691658 0.300600
0.312733 0.689466 0.298408
0.425054 0.687253 0.296195
0.535781 0.685070 0.294012
0.645252 0.682913 0.291855
0.752533 0.680799 0.289740
0.857406 0.678732 0.287674
0.000000 0.827436 0.296137
0.079157 0.825013 0.293714
0.192390 0.822781 0.291482
0.303615 0.820589 0.289290
0.415936 0.818376 0.287076
0.526662 0.816193 0.284894
0.636133 0.814036 0.282737
0.743415 0.811922 0.280622
0.848287 0.809855 0.278555
0.000000 0.958399 0.287030
0.070050 0.955976 0.284606
0.183283 0.953744 0.282375
0.294507 0.951552 0.280183
0.406829 0.949338 0.277969
0.517555 0.947156 0.275787
0.627026 0.944999 0.273629
0.734308 0.942884 0.271515
0.839180 0.940818 0.269448
0.000000 1.000000 0.283988
0.067008 0.999717 0.281565
0.180241 0.997485 0.279333
0.291466 0.995293 0.277141
0.403787 0.993080 0.274927
0.514514 0.990897 0.272745
0.623985 0.988740 0.270588
0.731266 0.986626 0.268473
0.836139 0.984559 0.266407
0.009143 0.050692 0.500702
0.132107 0.048269 0.498278
0.245340 0.046037 0.496047
0.356565 0.043845 0.493855
0.468886 0.041632 0.491641
0.579612 0.039449 0.489459
0.689083 0.037292 0.487301
0.796365 0.035178 0.485187
0.901237 0.033111 0.483120
0.000641 0.172956 0.492200
0.123605 0.170533 0.489776
0.236838 0.168301 0.487545
0.348062 0.166109 0.485353
0.460384 0.163895 0.483139
0.571110 0.161713 0.480957
0.680581 0.159556 0.478799
0.787863 0.157441 0.476685
0.892735 0.155374 0.474618
0.000000 0.298156 0.483493
0.114899 0.295732 0.481070
0.228132 0.293501 0.478838
0.339356 0.291309 0.476646
0.451678 0.289095 0.474433
0.562404 0.286913 0.472250
0.671875 0.284755 0.470093
0.779156 0.282641 0.467979
0.884029 0.280574 0.465912
0.000000 0.429336 0.474371
0.105777 0.426913 0.471948
0.219010 0.424681 0.469716
0.330234 0.422489 0.467524
0.442556 0.420275 0.465310
0.553282 0.418093 0.463128
0.662753 0.415936 0.460971
0.770034 0.413821 0.458856
0.874907 0.411755 0.456790
0.000000 0.561991 0.465146
0.096552 0.559567 0.462723
0.209785 0.557336 0.460491
0.321009 0.555144 0.458299
0.433331 0.552930 0.456086
0.544057 0.550748 0.453904
0.653528 0.548590 0.451746
0.760809 0.546476 0.449632
0.865682 0.544409 0.447565
0.000000 0.695318 0.455875
0.087280 0.692895 0.453451
0.200513 0.690663 0.451220
0.311738 0.688471 0.449028
0.424059 0.686257 0.446814
0.534785 0.684075 0.444632
0.644257 0.681918 0.442474
0.751538 0.679803 0.440360
0.856411 0.677737 0.438293
0.000000 0.826441 0.446757
0.078162 0.824018 0.444333
0.191395 0.821786 0.442102
0.302619 0.819594 0.439910
0.414941 0.817380 0.437696
0.525667 0.815198 0.435514
0.635138 0.813041 0.433356
0.742419 0.810926 0.431242
0.847292 0.808860 0.429175
0.000000 0.957404 0.437650
0.069055 0.954981 0.435226
0.182288 0.952749 0.432995
0.293512 0.950557 0.430803
0.405834 0.948343 0.428589
0.516560 0.946161 0.426407
0.626031 0.944004 0.424249
0.733312 0.941889 0.422135
0.838185 0.939822 0.420068
0.000000 1.000000 0.434608
0.066013 0.998722 0.432184
0.179246 0.996490 0.429953
0.290471 0.994298 0.427761
0.402792 0.992085 0.425547
0.513518 0.989902 0.423365
0.622989 0.987745 0.421207
0.730271 0.985631 0.419093
0.835143 0.983564 0.417026
0.008127 0.049676 0.654470
0.131091 0.047253 0.652047
0.244324 0.045021 0.649815
0.355549 0.042829 0.647623
0.467870 0.040616 0.645409
0.578596 0.038433 0.643227
0.688068 0.036276 0.641070
0.795349 0.034162 0.638955
0.900222 0.032095 0.636889
0.000000 0.171940 0.645968
0.122589 0.169517 0.643545
0.235822 0.167285 0.641313
0.347047 0.165093 0.639121
0.459368 0.162879 0.636907
0.570094 0.160697 0.634725
0.679565 0.158540 0.632568
0.786847 0.156425 0.630453
0.891719 0.154359 0.628386
0.000000 0.297140 0.637262
0.113883 0.294716 0.634838
0.227116 0.292485 0.632607
0.338340 0.290293 0.630415
0.450662 0.288079 0.628201
0.561388 0.285897 0.626019
0.670859 0.283739 0.623861
0.778140 0.281625 0.621747
0.883013 0.279558 0.619680
0.000000 0.428320 0.628139
0.104761 0.425897 0.625716
0.217994 0.423665 0.623484
0.329218 0.421473 0.621292
0.441540 0.419259 0.619079
0.552266 0.417077 0.616896
0.661737 0.414920 0.614739
0.769018 0.412805 0.612625
0.873891 0.410739 0.610558
0.000000 0.560975 0.618915
0.095536 0.558551 0.616491
0.208769 0.556320 0.614260
0.319993 0.554128 0.612068
0.432315 0.551914 0.609854
0.543041 0.549732 0.607672
0.652512 0.547574 0.605514
0.759793 0.545460 0.603400
0.864666 0.543393 0.601333
0.000000 0.694302 0.609643
0.086264 0.691879 0.607220
0.199497 0.689647 0.604988
0.310722 0.687455 0.602796
0.423043 0.685242 0.600582
0.533769 0.683059 0.598400
0.643241 0.680902 0.596243
0.750522 0.678788 0.594128
0.855395 0.676721 0.592062
0.000000 0.825425 0.600525
0.077146 0.823002 0.598102
0.190379 0.820770 0.595870
0.301603 0.818578 0.593678
0.413925 0.816364 0.591464
0.524651 0.814182 0.589282
0.634122 0.812025 0.587125
0.741404 0.809910 0.585010
0.846276 0.807844 0.582943
0.000000 0.956388 0.591418
0.068039 0.953965 0.588994
0.181272 0.951733 0.586763
0.292496 0.949541 0.584571
0.404818 0.947327 0.582357
0.515544 0.945145 0.580175
0.625015 0.942988 0.578017
0.732296 0.940873 0.575903
0.837169 0.938806 0.573836
0.000000 1.000000 0.588376
0.064997 0.997706 0.585953
0.178230 0.995474 0.583721
0.289455 0.993282 0.581529
0.401776 0.991069 0.579315
0.512502 0.988886 0.577133
0.621973 0.986729 0.574976
0.729255 0.984615 0.572861
0.834128 0.982548 0.570795
0.007103 0.048652 0.809489
0.130067 0.046229 0.807065
0.243300 0.043997 0.804834
0.354524 0.041805 0.802642
0.466846 0.039591 0.800428
0.577572 0.037409 0.798246
0.687043 0.035252 0.796088
0.794325 0.033137 0.793974
0.899197 0.031071 0.791907
0.000000 0.170916 0.800987
0.121565 0.168492 0.798563
0.234798 0.166261 0.796332
0.346022 0.164069 0.794140
0.458344 0.161855 0.791926
0.569070 0.159673 0.789744
0.678541 0.157515 0.787586
0.785822 0.155401 0.785472
0.890695 0.153334 0.783405
0.000000 0.296116 0.792280
0.112859 0.293692 0.789857
0.226092 0.291461 0.787625
0.337316 0.289268 0.785433
0.449638 0.287055 0.783220
0.560364 0.284873 0.781037
0.669835 0.282715 0.778880
0.777116 0.280601 0.776766
0.881989 0.278534 0.774699
0.000000 0.427296 0.783158
0.103737 0.424873 0.780735
0.216970 0.422641 0.778503
0.328194 0.420449 0.776311
0.440515 0.418235 0.774097
0.551242 0.416053 0.771915
0.660713 0.413896 0.769758
0.767994 0.411781 0.767643
0.872867 0.409714 0.765576
0.000000 0.559950 0.773933
0.094512 0.557527 0.771510
0.207745 0.555295 0.769278
0.318969 0.553103 0.767086
0.431291 0.550890 0.764873
0.542017 0.548708 0.762690
0.651488 0.546550 0.760533
0.758769 0.544436 0.758419
0.863642 0.542369 0.756352
0.000000 0.693278 0.764662
0.085240 0.690855 0.762238
0.198473 0.688623 0.760007
0.309697 0.686431 0.757815
0.422019 0.684217 0.755601
0.532745 0.682035 0.753419
0.642216 0.679878 0.751261
0.749498 0.677763 0.749147
0.854370 0.675696 0.747080
0.000000 0.824401 0.755544
0.076122 0.821978 0.753120
0.189355 0.819746 0.750889
0.300579 0.817554 0.748697
0.412901 0.815340 0.746483
0.523627 0.813158 0.744301
0.633098 0.811001 0.742143
0.740379 0.808886 0.740029
0.845252 0.806819 0.737962
0.000000 0.955364 0.746436
0.067015 0.952940 0.744013
0.180248 0.950709 0.741781
0.291472 0.948517 0.739589
0.403794 0.946303 0.737376
0.514520 0.944121 0.735194
0.623991 0.941963 0.733036
0.731272 0.939849 0.730922
0.836145 0.937782 0.728855
0.000000 0.999105 0.743395
0.063973 0.996682 0.740971
0.177206 0.994450 0.738740
0.288430 0.992258 0.736548
0.400752 0.990044 0.734334
0.511478 0.987862 0.732152
0.620949 0.985705 0.729994
0.728230 0.983590 0.727880
0.833103 0.981524 0.725813
0.006084 0.047633 0.963682
0.129048 0.045210 0.961258
0.242281 0.042978 0.959026
0.353506 0.040786 0.956834
0.465827 0.038573 0.954621
0.576553 0.036390 0.952439
0.686025 0.034233 0.950281
0.793306 0.032119 0.948167
0.898179 0.030052 0.946100
0.000000 0.169897 0.955179
0.120546 0.167474 0.952756
0.233779 0.165242 0.950524
0.345004 0.163050 0.948332
0.457325 0.160836 0.946119
0.568051 0.158654 0.943936
0.677522 0.156497 0.941779
0.784804 0.154382 0.939665
0.889676 0.152316 0.937598
0.000000 0.295097 0.946473
0.111840 0.292673 0.944050
0.225073 0.290442 0.941818
0.336297 0.288250 0.939626
0.448619 0.286036 0.937412
0.559345 0.283854 0.935230
0.668816 0.281696 0.933073
0.776097 0.279582 0.930958
0.880970 0.277515 0.928891
0.000000 0.426277 0.937351
0.102718 0.423854 0.934927
0.215951 0.421622 0.932696
0.327175 0.419430 0.930504
0.439497 0.417216 0.928290
0.550223 0.415034 0.926108
0.659694 0.412877 0.923950
0.766975 0.410762 0.921836
0.871848 0.408696 0.919769
0.000000 0.558932 0.928126
0.093493 0.556508 0.925703
0.206726 0.554277 0.923471
0.317950 0.552085 0.921279
0.430272 0.549871 0.919065
0.540998 0.547689 0.916883
0.650469 0.545531 0.914726
0.757750 0.543417 0.912611
0.862623 0.541350 0.910545
0.000000 0.692259 0.918855
0.084221 0.689836 0.916431
0.197455 0.687604 0.914200
0.308679 0.685412 0.912007
0.421000 0.683199 0.909794
0.531727 0.681016 0.907612
0.641198 0.678859 0.905454
0.748479 0.676745 0.903340
0.853352 0.674678 0.901273
0.000000 0.823382 0.909736
0.075103 0.820959 0.907313
0.188336 0.818727 0.905081
0.299561 0.816535 0.902889
0.411882 0.814321 0.900676
0.522608 0.812139 0.898493
0.632079 0.809982 0.896336
0.739361 0.807867 0.894222
0.844233 0.805801 0.892155
0.000000 0.954345 0.900629
0.065996 0.951922 0.898206
0.179229 0.949690 0.895974
0.290453 0.947498 0.893782
0.402775 0.945284 0.891569
0.513501 0.943102 0.889386
0.622972 0.940945 0.887229
0.730253 0.938830 0.885115
0.835126 0.936764 0.883048
0.000000 0.998086 0.897587
0.062954 0.995663 0.895164
0.176187 0.993431 0.892932
0.287412 0.991239 0.890740
0.399733 0.989026 0.888527
0.510459 0.986843 0.886345
0.619931 0.984686 0.884187
0.727212 0.982572 0.882073
0.832085 0.980505 0.880006
0.005304 0.046853 1.000000
0.128268 0.044430 1.000000
0.241501 0.042198 1.000000
0.352725 0.040006 1.000000
0.465047 0.037792 1.000000
0.575773 0.035610 1.000000
0.685244 0.033453 1.000000
0.792526 0.031338 1.000000
0.897398 0.029272 1.000000
0.000000 0.169117 1.000000
0.119766 0.166693 1.000000
0.232999 0.164462 1.000000
0.344223 0.162270 1.000000
0.456545 0.160056 1.000000
0.567271 0.157874 1.000000
0.676742 0.155716 1.000000
0.784023 0.153602 1.000000
0.888896 0.151535 1.000000
0.000000 0.294317 1.000000
0.111060 0.291893 1.000000
0.224293 0.289661 1.000000
0.335517 0.287469 1.000000
0.447839 0.285256 1.000000
0.558565 0.283074 1.000000
0.668036 0.280916 1.000000
0.775317 0.278802 1.000000
0.880190 0.276735 1.000000
0.000000 0.425497 1.000000
0.101937 0.423073 1.000000
0.215171 0.420842 1.000000
0.326395 0.418650 1.000000
0.438716 0.416436 1.000000
0.549443 0.414254 1.000000
0.658914 0.412097 1.000000
0.766195 0.409982 1.000000
0.871068 0.407915 1.000000
0.000000 0.558151 1.000000
0.092713 0.555728 1.000000
0.205946 0.553496 1.000000
0.317170 0.551304 1.000000
0.429492 0.549091 1.000000
0.540218 0.546909 1.000000
0.649689 0.544751 1.000000
0.756970 0.542637 1.000000
0.861843 0.540570 1.000000
0.000000 0.691479 1.000000
0.083441 0.689056 1.000000
0.196674 0.686824 1.000000
0.307898 0.684632 1.000000
0.420220 0.682418 1.000000
0.530946 0.680236 1.000000
0.640417 0.678079 1.000000
0.747699 0.675964 1.000000
0.852571 0.673897 1.000000
0.000000 0.822602 1.000000
0.074323 0.820178 1.000000
0.187556 0.817947 1.000000
0.298780 0.815755 1.000000
0.411102 0.813541 1.000000
0.521828 0.811359 1.000000
0.631299 0.809202 1.000000
0.738580 0.807087 1.000000
0.843453 0.805020 1.000000
0.000000 0.953565 1.000000
0.065216 0.951141 1.000000
0.178449 0.948910 1.000000
0.289673 0.946718 1.000000
0.401995 0.944504 1.000000
0.512721 0.942322 1.000000
0.622192 0.940164 1.000000
0.729473 0.938050 1.000000
0.834346 0.935983 1.000000
0.000000 0.997306 1.000000
0.062174 0.994883 1.000000
0.175407 0.992651 1.000000
0.286631 0.990459 1.000000
0.398953 0.988245 1.000000
0.509679 0.986063 1.000000
0.619150 0.983906 1.000000
0.726431 0.981791 1.000000
0.831304 0.979724 0.998102
0.005304 0.046853 1.000000
0.128268 0.044430 1.000000
0.241501 0.042198 1.000000
0.352725 0.040006 1.000000
0.465047 0.037792 1.000000
0.575773 0.035610 1.000000
0.685244 0.033453 1.000000
0.792526 0.031338 1.000000
0.897398 0.029272 1.000000
0.000000 0.169117 1.000000
0.119766 0.166693 1.000000
0.232999 0.164462 1.000000
0.344223 0.162270 1.000000
0.456545 0.160056 1.000000
0.567271 0.157874 1.000000
0.676742 0.155716 1.000000
0.784023 0.153602 1.000000
0.888896 0.151535 1.000000
0.000000 0.294317 1.000000
0.111060 0.291893 1.000000
0.224293 0.289661 1.000000
0.335517 0.287469 1.000000
0.447839 0.285256 1.000000
0.558565 0.283074 1.000000
0.668036 0.280916 1.000000
0.775317 0.278802 1.000000
0.880190 0.276735 1.000000
0.000000 0.425497 1.000000
0.101937 0.423073 1.000000
0.215171 0.420842 1.000000
0.326395 0.418650 1.000000
0.438716 0.416436 1.000000
0.549443 0.414254 1.000000
0.658914 0.412097 1.000000
0.766195 0.409982 1.000000
0.871068 0.407915 1.000000
0.000000 0.558151 1.000000
0.092713 0.555728 1.000000
0.205946 0.553496 1.000000
0.317170 0.551304 1.000000
0.429492 0.549091 1.000000
0.540218 0.546909 1.000000
0.649689 0.544751 1.000000
0.756970 0.542637 1.000000
0.861843 0.540570 1.000000
0.000000 0.691479 1.000000
0.083441 0.689056 1.000000
0.196674 0.686824 1.000000
0.307898 0.684632 1.000000
0.420220 0.682418 1.000000
0.530946 0.680236 1.000000
0.640417 0.678079 1.000000
0.747699 0.675964 1.000000
0.852571 0.673897 1.000000
0.000000 0.822602 1.000000
0.074323 0.820178 1.000000
0.187556 0.817947 1.000000
0.298780 0.815755 1.000000
0.411102 0.813541 1.000000
0.521828 0.811359 1.000000
0.631299 0.809202 1.000000
0.738580 0.807087 1.000000
0.843453 0.805020 1.000000
0.000000 0.953565 1.000000
0.065216 0.951141 1.000000
0.178449 0.948910 1.000000
0.289673 0.946718 1.000000
0.401995 0.944504 1.000000
0.512721 0.942322 1.000000
0.622192 0.940164 1.000000
0.729473 0.938050 1.000000
0.834346 0.935983 1.000000
0.000000 0.997306 1.000000
0.062174 0.994883 1.000000
0.175407 0.992651 1.000000
0.286631 0.990459 1.000000
0.398953 0.988245 1.000000
0.509679 0.986063 1.000000
0.619150 0.983906 1.000000
0.726431 0.981791 1.000000
0.831304 0.979724 0.998102
