flutter_app/assets/lut/cameras/u300_gold.cube
TITLE "U300 Gold 200"
LUT_3D_SIZE 5
0.029640 0.029640 0.029640
0.307672 0.018281 0.018281
0.596086 0.006131 0.006131
0.881408 0.006002 0.000000
1.000000 0.014683 0.000000
0.009048 0.276617 0.009048
0.288545 0.266532 0.000000
0.593513 0.276514 0.000000
0.877150 0.283254 0.000000
1.000000 0.276027 0.000000
0.000000 0.541322 0.000000
0.287035 0.549008 0.000000
0.587966 0.554128 0.000000
0.856824 0.542956 0.000000
1.000000 0.535974 0.000000
0.000000 0.797627 0.000000
0.285732 0.805876 0.000000
0.567726 0.794992 0.000000
0.837238 0.784173 0.000000
1.000000 0.777414 0.000000
0.000000 1.000000 0.000000
0.267181 1.000000 0.000000
0.549862 1.000000 0.000000
0.819973 0.991684 0.000000
0.985007 0.985007 0.000000
0.025838 0.025838 0.280149
0.303936 0.014478 0.268954
0.590135 0.002429 0.257067
0.858288 0.000000 0.245483
1.000000 0.000000 0.235866
0.005245 0.272870 0.259846
0.283684 0.261666 0.248628
0.572734 0.252256 0.236407
0.858008 0.262620 0.222105
1.000000 0.272180 0.212627
0.000000 0.537703 0.237471
0.262605 0.528108 0.226064
0.568815 0.535185 0.211609
0.853344 0.539338 0.197847
1.000000 0.532353 0.190565
0.000000 0.774782 0.216678
0.262527 0.784472 0.202568
0.564122 0.791494 0.188282
0.833753 0.780670 0.176604
0.998680 0.773909 0.169310
0.000000 1.000000 0.194039
0.263430 1.000000 0.181340
0.546248 0.998921 0.169574
0.816483 0.988223 0.157880
0.981546 0.981546 0.150578
0.021666 0.021666 0.547822
0.299837 0.010306 0.537016
0.586193 0.000000 0.525537
0.850510 0.000000 0.514513
1.000000 0.000000 0.505741
0.001073 0.268757 0.528222
0.279575 0.257548 0.517384
0.566705 0.245648 0.505872
0.835092 0.237934 0.494346
1.000000 0.246527 0.484299
0.000000 0.533731 0.506600
0.257243 0.522903 0.495728
0.547286 0.513859 0.483873
0.833664 0.521124 0.470226
1.000000 0.528293 0.461196
0.000000 0.770924 0.486487
0.237739 0.761594 0.475425
0.544725 0.770779 0.461193
0.829928 0.776826 0.447647
0.994883 0.770062 0.440568
0.000000 1.000000 0.464961
0.238115 1.000000 0.453082
0.542281 0.995125 0.440824
0.812652 0.984426 0.429466
0.977749 0.977749 0.422369
0.017790 0.017790 0.787783
0.296026 0.006429 0.777319
0.582530 0.000000 0.766210
0.846961 0.000000 0.755545
1.000000 0.000000 0.747063
0.000000 0.264934 0.768807
0.275757 0.253721 0.758323
0.563031 0.241817 0.747190
0.828092 0.230390 0.736502
1.000000 0.221304 0.728001
0.000000 0.530038 0.747893
0.253415 0.519204 0.737383
0.541521 0.507695 0.726223
0.810762 0.500168 0.715058
1.000000 0.506319 0.705498
0.000000 0.767349 0.728453
0.232654 0.756862 0.717918
0.523604 0.748037 0.706440
0.810636 0.757579 0.693014
0.991363 0.766394 0.684114
0.000000 1.000000 0.707659
0.211793 1.000000 0.697046
0.521574 0.992257 0.685029
0.809092 0.980898 0.673390
0.974221 0.974221 0.666539
0.013622 0.013622 1.000000
0.291927 0.002261 1.000000
0.578587 0.000000 1.000000
0.843144 0.000000 1.000000
1.000000 0.000000 0.999733
0.000000 0.260822 1.000000
0.271649 0.249605 1.000000
0.559077 0.237695 0.999858
0.824269 0.226265 0.989345
1.000000 0.217175 0.980992
0.000000 0.526065 1.000000
0.249299 0.515225 0.990212
0.537555 0.503709 0.979247
0.803474 0.492649 0.968732
1.000000 0.483849 0.960377
0.000000 0.763503 0.981436
0.228529 0.753012 0.971096
0.517533 0.741872 0.960128
0.787615 0.734624 0.949166
0.989203 0.742546 0.939631
0.000000 1.000000 0.961038
0.206327 1.000000 0.950694
0.498388 0.989206 0.939633
0.788114 0.977794 0.928208
0.970427 0.970427 0.920832
