flutter_app/assets/lut/cameras/u300_color.cube
TITLE "U300 Color 400"
LUT_3D_SIZE 5
0.019736 0.019736 0.019736
0.298695 0.011892 0.011892
0.583998 0.003630 0.003630
0.867741 0.007784 0.000000
1.000000 0.018833 0.000000
0.005746 0.266661 0.005746
0.286388 0.260373 0.000000
0.588087 0.274445 0.000000
0.869816 0.284770 0.000000
1.000000 0.279965 0.000000
0.000000 0.532124 0.000000
0.292252 0.543564 0.000000
0.589312 0.552318 0.000000
0.855978 0.544688 0.000000
1.000000 0.540047 0.000000
0.000000 0.789485 0.000000
0.297556 0.801264 0.000000
0.575525 0.793865 0.000000
0.842629 0.786477 0.000000
1.000000 0.781984 0.000000
0.000000 1.000000 0.000000
0.284922 1.000000 0.000000
0.563358 1.000000 0.000000
0.830859 0.994651 0.000000
0.990211 0.990211 0.000000
0.017203 0.017203 0.260406
0.296205 0.009360 0.252663
0.578965 0.001175 0.244576
0.846037 0.000000 0.236636
1.000000 0.000000 0.230197
0.003213 0.264163 0.246590
0.282439 0.256423 0.238837
0.568437 0.251562 0.230469
0.852201 0.265856 0.220702
1.000000 0.277471 0.214419
0.000000 0.529504 0.231351
0.269222 0.523967 0.223412
0.571698 0.534930 0.213594
0.853660 0.542280 0.204256
1.000000 0.537637 0.199416
0.000000 0.768090 0.217136
0.276049 0.781362 0.207400
0.573127 0.791535 0.197755
0.840309 0.784145 0.189786
0.999594 0.779651 0.184940
0.000000 1.000000 0.201608
0.282428 1.000000 0.192992
0.560956 0.999653 0.185004
0.828537 0.992347 0.177028
0.987906 0.987906 0.172177
0.014366 0.014366 0.523569
0.293415 0.006522 0.516084
0.576280 0.000000 0.508264
0.838808 0.000000 0.500717
1.000000 0.000000 0.494842
0.000376 0.261364 0.510212
0.279645 0.253621 0.502712
0.563028 0.245535 0.494876
0.830151 0.242200 0.486935
1.000000 0.253432 0.480237
0.000000 0.526799 0.495468
0.264455 0.519318 0.487952
0.551124 0.514642 0.479835
0.835638 0.525687 0.470515
1.000000 0.534936 0.464530
0.000000 0.764787 0.481744
0.252299 0.759373 0.474045
0.555295 0.772444 0.464372
0.837709 0.781532 0.455189
0.997012 0.777036 0.450486
0.000000 1.000000 0.467058
0.259383 1.000000 0.458852
0.558264 0.997070 0.450548
0.825935 0.989764 0.442804
0.985324 0.985324 0.438093
0.011723 0.011723 0.760215
0.290815 0.003879 0.752971
0.573779 0.000000 0.745405
0.836386 0.000000 0.738105
1.000000 0.000000 0.732424
0.000000 0.258755 0.747290
0.277042 0.251011 0.740035
0.560521 0.242923 0.732457
0.823559 0.235122 0.725146
1.000000 0.229341 0.719440
0.000000 0.524279 0.733029
0.261847 0.516795 0.725762
0.545887 0.508976 0.718171
0.813594 0.505612 0.710486
1.000000 0.514377 0.704115
0.000000 0.762348 0.719760
0.247713 0.755105 0.712481
0.534998 0.750543 0.704623
0.819944 0.763818 0.695454
0.994607 0.774600 0.689556
0.000000 1.000000 0.705567
0.234581 1.000000 0.698222
0.539499 0.995100 0.690061
0.823511 0.987359 0.682135
0.982918 0.982918 0.677585
0.008882 0.008882 1.000000
0.288020 0.001039 1.000000
0.571089 0.000000 0.993648
0.833783 0.000000 0.986468
1.000000 0.000000 0.980884
0.000000 0.255951 0.995503
0.274243 0.248205 0.988365
0.557826 0.240115 0.980916
0.820953 0.232311 0.973736
1.000000 0.226238 0.968151
0.000000 0.521570 0.981479
0.259044 0.514082 0.974340
0.543186 0.506260 0.966890
0.806803 0.498711 0.959708
1.000000 0.493122 0.954106
0.000000 0.759726 0.968450
0.244906 0.752481 0.961310
0.529558 0.744914 0.953858
0.797823 0.741774 0.946313
0.993120 0.752211 0.939959
0.000000 1.000000 0.954533
0.229787 1.000000 0.947391
0.517802 0.993022 0.939861
0.804556 0.985227 0.932057
0.980333 0.980333 0.927157
