flutter_app/assets/lut/ccd_standard.cube
TITLE "CCD Standard"
# Generated placeholder LUT for DAZZ development
# Replace with production-grade LUT before release
LUT_3D_SIZE 33
DOMAIN_MIN 0.0 0.0 0.0
DOMAIN_MAX 1.0 1.0 1.0
0.000000 0.000000 0.000000
0.000000 0.000000 0.000000
0.013659 0.000000 0.000000
0.046402 0.000000 0.000000
0.079145 0.000000 0.000000
0.111888 0.000000 0.000000
0.144630 0.000000 0.000000
0.177373 0.000000 0.000000
0.210116 0.000000 0.000000
0.242858 0.000000 0.000000
0.275601 0.000000 0.000000
0.308344 0.000000 0.000000
0.341087 0.000000 0.000000
0.373829 0.000000 0.000000
0.406572 0.000000 0.000000
0.439315 0.000000 0.000000
0.472057 0.000000 0.000000
0.504800 0.000000 0.000000
0.537543 0.000000 0.000000
0.570286 0.000000 0.000000
0.603028 0.000000 0.000000
0.635771 0.000000 0.000000
0.668514 0.000000 0.000000
0.701256 0.000000 0.000000
0.733999 0.000000 0.000000
0.766742 0.000000 0.000000
0.799485 0.000000 0.000000
0.832227 0.000000 0.000000
0.864970 0.000000 0.000000
0.897713 0.000000 0.000000
0.930455 0.000000 0.000000
0.963198 0.000000 0.000000
0.995941 0.000000 0.000000
0.000000 0.000000 0.000000
0.000000 0.000000 0.000000
0.016105 0.000000 0.000000
0.048848 0.000000 0.000000
0.081590 0.000000 0.000000
0.114333 0.000000 0.000000
0.147076 0.000000 0.000000
0.179819 0.000000 0.000000
0.212561 0.000000 0.000000
0.245304 0.000000 0.000000
0.278047 0.000000 0.000000
0.310789 0.000000 0.000000
0.343532 0.000000 0.000000
0.376275 0.000000 0.000000
0.409018 0.000450 0.000000
0.441760 0.001733 0.000000
0.474503 0.003016 0.000000
0.507246 0.004298 0.000000
0.539988 0.005581 0.000000
0.572731 0.006864 0.000000
0.605474 0.008146 0.000000
0.638217 0.009429 0.000000
0.670959 0.010712 0.000000
0.703702 0.011994 0.000000
0.736445 0.013277 0.000000
0.769187 0.014560 0.000000
0.801930 0.015843 0.000000
0.834673 0.017125 0.000000
0.867416 0.018408 0.000000
0.900158 0.019691 0.000000
0.932901 0.020973 0.000000
0.965644 0.022256 0.000000
0.998386 0.023539 0.000000
0.000000 0.015490 0.000000
0.000000 0.016773 0.000000
0.018551 0.018056 0.000000
0.051293 0.019338 0.000000
0.084036 0.020621 0.000000
0.116779 0.021904 0.000000
0.149521 0.023186 0.000000
0.182264 0.024469 0.000000
0.215007 0.025752 0.000000
0.247750 0.027035 0.000000
0.280492 0.028317 0.000000
0.313235 0.029600 0.000000
0.345978 0.030883 0.000000
0.378720 0.032165 0.000000
0.411463 0.033448 0.000000
0.444206 0.034731 0.000000
0.476949 0.036014 0.000000
0.509691 0.037296 0.000000
0.542434 0.038579 0.000000
0.575177 0.039862 0.000000
0.607919 0.041144 0.000000
0.640662 0.042427 0.000000
0.673405 0.043710 0.000000
0.706148 0.044993 0.000000
0.738890 0.046275 0.000000
0.771633 0.047558 0.000000
0.804376 0.048841 0.000000
0.837118 0.050123 0.000000
0.869861 0.051406 0.000000
0.902604 0.052689 0.000000
0.935347 0.053972 0.000000
0.968089 0.055254 0.000000
1.000000 0.056537 0.000000
0.000000 0.048488 0.000000
0.000000 0.049771 0.000000
0.020996 0.051054 0.000000
0.053739 0.052336 0.000000
0.086482 0.053619 0.000000
0.119224 0.054902 0.000000
0.151967 0.056185 0.000000
0.184710 0.057467 0.000000
0.217453 0.058750 0.000000
0.250195 0.060033 0.000000
0.282938 0.061315 0.000000
0.315681 0.062598 0.000000
0.348423 0.063881 0.000000
0.381166 0.065164 0.000000
0.413909 0.066446 0.000000
0.446651 0.067729 0.000000
0.479394 0.069012 0.000000
0.512137 0.070294 0.000000
0.544880 0.071577 0.000000
0.577622 0.072860 0.000000
0.610365 0.074143 0.000000
0.643108 0.075425 0.000000
0.675850 0.076708 0.000000
0.708593 0.077991 0.000000
0.741336 0.079273 0.000000
0.774079 0.080556 0.000000
0.806821 0.081839 0.000000
0.839564 0.083121 0.000000
0.872307 0.084404 0.000000
0.905049 0.085687 0.000000
0.937792 0.086970 0.000000
0.970535 0.088252 0.000000
1.000000 0.089535 0.000958
0.000000 0.081486 0.000000
0.000000 0.082769 0.000000
0.023442 0.084052 0.000000
0.056185 0.085335 0.000000
0.088927 0.086617 0.000000
0.121670 0.087900 0.000000
0.154413 0.089183 0.000000
0.187155 0.090465 0.000000
0.219898 0.091748 0.000000
0.252641 0.093031 0.000000
0.285384 0.094314 0.000000
0.318126 0.095596 0.000000
0.350869 0.096879 0.000000
0.383612 0.098162 0.000000
0.416354 0.099444 0.000000
0.449097 0.100727 0.000000
0.481840 0.102010 0.000000
0.514582 0.103292 0.000000
0.547325 0.104575 0.000000
0.580068 0.105858 0.000000
0.612811 0.107141 0.000000
0.645553 0.108423 0.000000
0.678296 0.109706 0.000000
0.711039 0.110989 0.000000
0.743781 0.112271 0.000000
0.776524 0.113554 0.000000
0.809267 0.114837 0.000000
0.842010 0.116120 0.000000
0.874752 0.117402 0.000000
0.907495 0.118685 0.000000
0.940238 0.119968 0.000838
0.972980 0.121250 0.002120
1.000000 0.122533 0.003403
0.000000 0.114485 0.000000
0.000000 0.115767 0.000000
0.025887 0.117050 0.000000
0.058630 0.118333 0.000000
0.091373 0.119615 0.000000
0.124116 0.120898 0.000000
0.156858 0.122181 0.000000
0.189601 0.123463 0.000000
0.222344 0.124746 0.000000
0.255086 0.126029 0.000000
0.287829 0.127312 0.000000
0.320572 0.128594 0.000000
0.353315 0.129877 0.000000
0.386057 0.131160 0.000000
0.418800 0.132442 0.000000
0.451543 0.133725 0.000000
0.484285 0.135008 0.000000
0.517028 0.136291 0.000000
0.549771 0.137573 0.000000
0.582513 0.138856 0.000000
0.615256 0.140139 0.000000
0.647999 0.141421 0.000000
0.680742 0.142704 0.000000
0.713484 0.143987 0.000000
0.746227 0.145270 0.000000
0.778970 0.146552 0.000000
0.811712 0.147835 0.000000
0.844455 0.149118 0.000000
0.877198 0.150400 0.000718
0.909941 0.151683 0.002001
0.942683 0.152966 0.003283
0.975426 0.154249 0.004566
1.000000 0.155531 0.005849
0.000000 0.147483 0.000000
0.000000 0.148765 0.000000
0.028333 0.150048 0.000000
0.061076 0.151331 0.000000
0.093818 0.152613 0.000000
0.126561 0.153896 0.000000
0.159304 0.155179 0.000000
0.192047 0.156462 0.000000
0.224789 0.157744 0.000000
0.257532 0.159027 0.000000
0.290275 0.160310 0.000000
0.323017 0.161592 0.000000
0.355760 0.162875 0.000000
0.388503 0.164158 0.000000
0.421246 0.165441 0.000000
0.453988 0.166723 0.000000
0.486731 0.168006 0.000000
0.519474 0.169289 0.000000
0.552216 0.170571 0.000000
0.584959 0.171854 0.000000
0.617702 0.173137 0.000000
0.650445 0.174420 0.000000
0.683187 0.175702 0.000000
0.715930 0.176985 0.000000
0.748673 0.178268 0.000000
0.781415 0.179550 0.000000
0.814158 0.180833 0.000598
0.846901 0.182116 0.001881
0.879643 0.183398 0.003163
0.912386 0.184681 0.004446
0.945129 0.185964 0.005729
0.977872 0.187247 0.007012
1.000000 0.188529 0.008294
0.000000 0.180481 0.000000
0.000000 0.181763 0.000000
0.030779 0.183046 0.000000
0.063521 0.184329 0.000000
0.096264 0.185612 0.000000
0.129007 0.186894 0.000000
0.161749 0.188177 0.000000
0.194492 0.189460 0.000000
0.227235 0.190742 0.000000
0.259978 0.192025 0.000000
0.292720 0.193308 0.000000
0.325463 0.194590 0.000000
0.358206 0.195873 0.000000
0.390948 0.197156 0.000000
0.423691 0.198439 0.000000
0.456434 0.199721 0.000000
0.489177 0.201004 0.000000
0.521919 0.202287 0.000000
0.554662 0.203569 0.000000
0.587405 0.204852 0.000000
0.620147 0.206135 0.000000
0.652890 0.207418 0.000000
0.685633 0.208700 0.000000
0.718376 0.209983 0.000000
0.751118 0.211266 0.000478
0.783861 0.212548 0.001761
0.816604 0.213831 0.003044
0.849346 0.215114 0.004326
0.882089 0.216397 0.005609
0.914832 0.217679 0.006892
0.947574 0.218962 0.008174
0.980317 0.220245 0.009457
1.000000 0.221527 0.010740
0.000000 0.213479 0.000000
0.000481 0.214761 0.000000
0.033224 0.216044 0.000000
0.065967 0.217327 0.000000
0.098710 0.218610 0.000000
0.131452 0.219892 0.000000
0.164195 0.221175 0.000000
0.196938 0.222458 0.000000
0.229680 0.223740 0.000000
0.262423 0.225023 0.000000
0.295166 0.226306 0.000000
0.327909 0.227589 0.000000
0.360651 0.228871 0.000000
0.393394 0.230154 0.000000
0.426137 0.231437 0.000000
0.458879 0.232719 0.000000
0.491622 0.234002 0.000000
0.524365 0.235285 0.000000
0.557108 0.236568 0.000000
0.589850 0.237850 0.000000
0.622593 0.239133 0.000000
0.655336 0.240416 0.000000
0.688078 0.241698 0.000358
0.720821 0.242981 0.001641
0.753564 0.244264 0.002924
0.786307 0.245547 0.004207
0.819049 0.246829 0.005489
0.851792 0.248112 0.006772
0.884535 0.249395 0.008055
0.917277 0.250677 0.009337
0.950020 0.251960 0.010620
0.982763 0.253243 0.011903
1.000000 0.254525 0.013185
0.000000 0.246477 0.000000
0.002927 0.247760 0.000000
0.035670 0.249042 0.000000
0.068412 0.250325 0.000000
0.101155 0.251608 0.000000
0.133898 0.252890 0.000000
0.166641 0.254173 0.000000
0.199383 0.255456 0.000000
0.232126 0.256739 0.000000
0.264869 0.258021 0.000000
0.297611 0.259304 0.000000
0.330354 0.260587 0.000000
0.363097 0.261869 0.000000
0.395840 0.263152 0.000000
0.428582 0.264435 0.000000
0.461325 0.265718 0.000000
0.494068 0.267000 0.000000
0.526810 0.268283 0.000000
0.559553 0.269566 0.000000
0.592296 0.270848 0.000000
0.625039 0.272131 0.000239
0.657781 0.273414 0.001521
0.690524 0.274696 0.002804
0.723267 0.275979 0.004087
0.756009 0.277262 0.005369
0.788752 0.278545 0.006652
0.821495 0.279827 0.007935
0.854238 0.281110 0.009218
0.886980 0.282393 0.010500
0.919723 0.283675 0.011783
0.952466 0.284958 0.013066
0.985208 0.286241 0.014348
1.000000 0.287524 0.015631
0.000000 0.279475 0.000000
0.005373 0.280758 0.000000
0.038115 0.282040 0.000000
0.070858 0.283323 0.000000
0.103601 0.284606 0.000000
0.136343 0.285888 0.000000
0.169086 0.287171 0.000000
0.201829 0.288454 0.000000
0.234572 0.289737 0.000000
0.267314 0.291019 0.000000
0.300057 0.292302 0.000000
0.332800 0.293585 0.000000
0.365542 0.294867 0.000000
0.398285 0.296150 0.000000
0.431028 0.297433 0.000000
0.463771 0.298716 0.000000
0.496513 0.299998 0.000000
0.529256 0.301281 0.000000
0.561999 0.302564 0.000119
0.594741 0.303846 0.001401
0.627484 0.305129 0.002684
0.660227 0.306412 0.003967
0.692970 0.307695 0.005250
0.725712 0.308977 0.006532
0.758455 0.310260 0.007815
0.791198 0.311543 0.009098
0.823940 0.312825 0.010380
0.856683 0.314108 0.011663
0.889426 0.315391 0.012946
0.922169 0.316674 0.014229
0.954911 0.317956 0.015511
0.987654 0.319239 0.016794
1.000000 0.320522 0.018077
0.000000 0.312473 0.000000
0.007818 0.313756 0.000000
0.040561 0.315038 0.000000
0.073304 0.316321 0.000000
0.106046 0.317604 0.000000
0.138789 0.318887 0.000000
0.171532 0.320169 0.000000
0.204275 0.321452 0.000000
0.237017 0.322735 0.000000
0.269760 0.324017 0.000000
0.302503 0.325300 0.000000
0.335245 0.326583 0.000000
0.367988 0.327866 0.000000
0.400731 0.329148 0.000000
0.433473 0.330431 0.000000
0.466216 0.331714 0.000000
0.498959 0.332996 0.000000
0.531702 0.334279 0.001282
0.564444 0.335562 0.002564
0.597187 0.336845 0.003847
0.629930 0.338127 0.005130
0.662672 0.339410 0.006412
0.695415 0.340693 0.007695
0.728158 0.341975 0.008978
0.760901 0.343258 0.010261
0.793643 0.344541 0.011543
0.826386 0.345823 0.012826
0.859129 0.347106 0.014109
0.891871 0.348389 0.015391
0.924614 0.349672 0.016674
0.957357 0.350954 0.017957
0.990100 0.352237 0.019240
1.000000 0.353520 0.020522
0.000000 0.345471 0.000000
0.010264 0.346754 0.000000
0.043007 0.348037 0.000000
0.075749 0.349319 0.000000
0.108492 0.350602 0.000000
0.141235 0.351885 0.000000
0.173977 0.353167 0.000000
0.206720 0.354450 0.000000
0.239463 0.355733 0.000000
0.272206 0.357016 0.000000
0.304948 0.358298 0.000000
0.337691 0.359581 0.000000
0.370434 0.360864 0.000000
0.403176 0.362146 0.000000
0.435919 0.363429 0.000000
0.468662 0.364712 0.001162
0.501404 0.365994 0.002444
0.534147 0.367277 0.003727
0.566890 0.368560 0.005010
0.599633 0.369843 0.006293
0.632375 0.371125 0.007575
0.665118 0.372408 0.008858
0.697861 0.373691 0.010141
0.730603 0.374973 0.011423
0.763346 0.376256 0.012706
0.796089 0.377539 0.013989
0.828832 0.378822 0.015272
0.861574 0.380104 0.016554
0.894317 0.381387 0.017837
0.927060 0.382670 0.019120
0.959802 0.383952 0.020402
0.992545 0.385235 0.021685
1.000000 0.386518 0.022968
0.000000 0.378469 0.000000
0.012709 0.379752 0.000000
0.045452 0.381035 0.000000
0.078195 0.382317 0.000000
0.110938 0.383600 0.000000
0.143680 0.384883 0.000000
0.176423 0.386165 0.000000
0.209166 0.387448 0.000000
0.241908 0.388731 0.000000
0.274651 0.390014 0.000000
0.307394 0.391296 0.000000
0.340137 0.392579 0.000000
0.372879 0.393862 0.000000
0.405622 0.395144 0.001042
0.438365 0.396427 0.002325
0.471107 0.397710 0.003607
0.503850 0.398993 0.004890
0.536593 0.400275 0.006173
0.569335 0.401558 0.007455
0.602078 0.402841 0.008738
0.634821 0.404123 0.010021
0.667564 0.405406 0.011304
0.700306 0.406689 0.012586
0.733049 0.407972 0.013869
0.765792 0.409254 0.015152
0.798534 0.410537 0.016434
0.831277 0.411820 0.017717
0.864020 0.413102 0.019000
0.896763 0.414385 0.020283
0.929505 0.415668 0.021565
0.962248 0.416951 0.022848
0.994991 0.418233 0.024131
1.000000 0.419516 0.025413
0.000000 0.411467 0.000000
0.015155 0.412750 0.000000
0.047898 0.414033 0.000000
0.080640 0.415315 0.000000
0.113383 0.416598 0.000000
0.146126 0.417881 0.000000
0.178869 0.419164 0.000000
0.211611 0.420446 0.000000
0.244354 0.421729 0.000000
0.277097 0.423012 0.000000
0.309839 0.424294 0.000000
0.342582 0.425577 0.000922
0.375325 0.426860 0.002205
0.408068 0.428143 0.003488
0.440810 0.429425 0.004770
0.473553 0.430708 0.006053
0.506296 0.431991 0.007336
0.539038 0.433273 0.008618
0.571781 0.434556 0.009901
0.604524 0.435839 0.011184
0.637267 0.437122 0.012467
0.670009 0.438404 0.013749
0.702752 0.439687 0.015032
0.735495 0.440970 0.016315
0.768237 0.442252 0.017597
0.800980 0.443535 0.018880
0.833723 0.444818 0.020163
0.866465 0.446100 0.021445
0.899208 0.447383 0.022728
0.931951 0.448666 0.024011
0.964694 0.449949 0.025294
0.997436 0.451231 0.026576
1.000000 0.452514 0.027859
0.000000 0.444465 0.000000
0.017601 0.445748 0.000000
0.050343 0.447031 0.000000
0.083086 0.448314 0.000000
0.115829 0.449596 0.000000
0.148571 0.450879 0.000000
0.181314 0.452162 0.000000
0.214057 0.453444 0.000000
0.246800 0.454727 0.000000
0.279542 0.456010 0.000802
0.312285 0.457292 0.002085
0.345028 0.458575 0.003368
0.377770 0.459858 0.004650
0.410513 0.461141 0.005933
0.443256 0.462423 0.007216
0.475999 0.463706 0.008499
0.508741 0.464989 0.009781
0.541484 0.466271 0.011064
0.574227 0.467554 0.012347
0.606969 0.468837 0.013629
0.639712 0.470120 0.014912
0.672455 0.471402 0.016195
0.705198 0.472685 0.017478
0.737940 0.473968 0.018760
0.770683 0.475250 0.020043
0.803426 0.476533 0.021326
0.836168 0.477816 0.022608
0.868911 0.479099 0.023891
0.901654 0.480381 0.025174
0.934396 0.481664 0.026456
0.967139 0.482947 0.027739
0.999882 0.484229 0.029022
1.000000 0.485512 0.030305
0.000000 0.477463 0.000000
0.020046 0.478746 0.000000
0.052789 0.480029 0.000000
0.085532 0.481312 0.000000
0.118274 0.482594 0.000000
0.151017 0.483877 0.000000
0.183760 0.485160 0.000000
0.216502 0.486442 0.000682
0.249245 0.487725 0.001965
0.281988 0.489008 0.003248
0.314731 0.490291 0.004531
0.347473 0.491573 0.005813
0.380216 0.492856 0.007096
0.412959 0.494139 0.008379
0.445701 0.495421 0.009661
0.478444 0.496704 0.010944
0.511187 0.497987 0.012227
0.543930 0.499270 0.013510
0.576672 0.500552 0.014792
0.609415 0.501835 0.016075
0.642158 0.503118 0.017358
0.674900 0.504400 0.018640
0.707643 0.505683 0.019923
0.740386 0.506966 0.021206
0.773129 0.508249 0.022489
0.805871 0.509531 0.023771
0.838614 0.510814 0.025054
0.871357 0.512097 0.026337
0.904099 0.513379 0.027619
0.936842 0.514662 0.028902
0.969585 0.515945 0.030185
1.000000 0.517227 0.031467
1.000000 0.518510 0.032750
0.000000 0.510462 0.000000
0.022492 0.511744 0.000000
0.055234 0.513027 0.000000
0.087977 0.514310 0.000000
0.120720 0.515592 0.000000
0.153463 0.516875 0.000563
0.186205 0.518158 0.001845
0.218948 0.519441 0.003128
0.251691 0.520723 0.004411
0.284433 0.522006 0.005693
0.317176 0.523289 0.006976
0.349919 0.524571 0.008259
0.382662 0.525854 0.009542
0.415404 0.527137 0.010824
0.448147 0.528420 0.012107
0.480890 0.529702 0.013390
0.513632 0.530985 0.014672
0.546375 0.532268 0.015955
0.579118 0.533550 0.017238
0.611861 0.534833 0.018521
0.644603 0.536116 0.019803
0.677346 0.537398 0.021086
0.710089 0.538681 0.022369
0.742831 0.539964 0.023651
0.775574 0.541247 0.024934
0.808317 0.542529 0.026217
0.841060 0.543812 0.027500
0.873802 0.545095 0.028782
0.906545 0.546377 0.030065
0.939288 0.547660 0.031348
0.972030 0.548943 0.032630
1.000000 0.550226 0.033913
1.000000 0.551508 0.035196
0.000000 0.543460 0.000000
0.024937 0.544742 0.000000
0.057680 0.546025 0.000000
0.090423 0.547308 0.000443
0.123165 0.548590 0.001725
0.155908 0.549873 0.003008
0.188651 0.551156 0.004291
0.221394 0.552439 0.005574
0.254136 0.553721 0.006856
0.286879 0.555004 0.008139
0.319622 0.556287 0.009422
0.352364 0.557569 0.010704
0.385107 0.558852 0.011987
0.417850 0.560135 0.013270
0.450593 0.561418 0.014553
0.483335 0.562700 0.015835
0.516078 0.563983 0.017118
0.548821 0.565266 0.018401
0.581563 0.566548 0.019683
0.614306 0.567831 0.020966
0.647049 0.569114 0.022249
0.679792 0.570397 0.023532
0.712534 0.571679 0.024814
0.745277 0.572962 0.026097
0.778020 0.574245 0.027380
0.810762 0.575527 0.028662
0.843505 0.576810 0.029945
0.876248 0.578093 0.031228
0.908991 0.579376 0.032511
0.941733 0.580658 0.033793
0.974476 0.581941 0.035076
1.000000 0.583224 0.036359
1.000000 0.584506 0.037641
0.000000 0.576458 0.000000
0.027383 0.577740 0.000323
0.060126 0.579023 0.001606
0.092868 0.580306 0.002888
0.125611 0.581589 0.004171
0.158354 0.582871 0.005454
0.191097 0.584154 0.006737
0.223839 0.585437 0.008019
0.256582 0.586719 0.009302
0.289325 0.588002 0.010585
0.322067 0.589285 0.011867
0.354810 0.590568 0.013150
0.387553 0.591850 0.014433
0.420295 0.593133 0.015715
0.453038 0.594416 0.016998
0.485781 0.595698 0.018281
0.518524 0.596981 0.019564
0.551266 0.598264 0.020846
0.584009 0.599547 0.022129
0.616752 0.600829 0.023412
0.649494 0.602112 0.024694
0.682237 0.603395 0.025977
0.714980 0.604677 0.027260
0.747723 0.605960 0.028543
0.780465 0.607243 0.029825
0.813208 0.608525 0.031108
0.845951 0.609808 0.032391
0.878693 0.611091 0.033673
0.911436 0.612374 0.034956
0.944179 0.613656 0.036239
0.976922 0.614939 0.037522
1.000000 0.616222 0.038804
1.000000 0.617504 0.040087
0.000000 0.609456 0.001486
0.029829 0.610739 0.002769
0.062571 0.612021 0.004051
0.095314 0.613304 0.005334
0.128057 0.614587 0.006617
0.160799 0.615869 0.007899
0.193542 0.617152 0.009182
0.226285 0.618435 0.010465
0.259028 0.619718 0.011748
0.291770 0.621000 0.013030
0.324513 0.622283 0.014313
0.357256 0.623566 0.015596
0.389998 0.624848 0.016878
0.422741 0.626131 0.018161
0.455484 0.627414 0.019444
0.488226 0.628696 0.020726
0.520969 0.629979 0.022009
0.553712 0.631262 0.023292
0.586455 0.632545 0.024575
0.619197 0.633827 0.025857
0.651940 0.635110 0.027140
0.684683 0.636393 0.028423
0.717425 0.637675 0.029705
0.750168 0.638958 0.030988
0.782911 0.640241 0.032271
0.815654 0.641524 0.033554
0.848396 0.642806 0.034836
0.881139 0.644089 0.036119
0.913882 0.645372 0.037402
0.946624 0.646654 0.038684
0.979367 0.647937 0.039967
1.000000 0.649220 0.041250
1.000000 0.650503 0.042533
0.000000 0.642454 0.003931
0.032274 0.643737 0.005214
0.065017 0.645019 0.006497
0.097760 0.646302 0.007780
0.130502 0.647585 0.009062
0.163245 0.648867 0.010345
0.195988 0.650150 0.011628
0.228730 0.651433 0.012910
0.261473 0.652716 0.014193
0.294216 0.653998 0.015476
0.326959 0.655281 0.016759
0.359701 0.656564 0.018041
0.392444 0.657846 0.019324
0.425187 0.659129 0.020607
0.457929 0.660412 0.021889
0.490672 0.661695 0.023172
0.523415 0.662977 0.024455
0.556157 0.664260 0.025737
0.588900 0.665543 0.027020
0.621643 0.666825 0.028303
0.654386 0.668108 0.029586
0.687128 0.669391 0.030868
0.719871 0.670674 0.032151
0.752614 0.671956 0.033434
0.785356 0.673239 0.034716
0.818099 0.674522 0.035999
0.850842 0.675804 0.037282
0.883585 0.677087 0.038565
0.916327 0.678370 0.039847
0.949070 0.679653 0.041130
0.981813 0.680935 0.042413
1.000000 0.682218 0.043695
1.000000 0.683501 0.044978
0.001977 0.675452 0.006377
0.034720 0.676735 0.007660
0.067462 0.678017 0.008942
0.100205 0.679300 0.010225
0.132948 0.680583 0.011508
0.165691 0.681866 0.012791
0.198433 0.683148 0.014073
0.231176 0.684431 0.015356
0.263919 0.685714 0.016639
0.296661 0.686996 0.017921
0.329404 0.688279 0.019204
0.362147 0.689562 0.020487
0.394890 0.690845 0.021770
0.427632 0.692127 0.023052
0.460375 0.693410 0.024335
0.493118 0.694693 0.025618
0.525860 0.695975 0.026900
0.558603 0.697258 0.028183
0.591346 0.698541 0.029466
0.624089 0.699824 0.030749
0.656831 0.701106 0.032031
0.689574 0.702389 0.033314
0.722317 0.703672 0.034597
0.755059 0.704954 0.035879
0.787802 0.706237 0.037162
0.820545 0.707520 0.038445
0.853287 0.708802 0.039727
0.886030 0.710085 0.041010
0.918773 0.711368 0.042293
0.951516 0.712651 0.043576
0.984258 0.713933 0.044858
1.000000 0.715216 0.046141
1.000000 0.716499 0.047424
0.004423 0.708450 0.008823
0.037165 0.709733 0.010105
0.069908 0.711016 0.011388
0.102651 0.712298 0.012671
0.135393 0.713581 0.013953
0.168136 0.714864 0.015236
0.200879 0.716146 0.016519
0.233622 0.717429 0.017802
0.266364 0.718712 0.019084
0.299107 0.719994 0.020367
0.331850 0.721277 0.021650
0.364592 0.722560 0.022932
0.397335 0.723843 0.024215
0.430078 0.725125 0.025498
0.462821 0.726408 0.026781
0.495563 0.727691 0.028063
0.528306 0.728973 0.029346
0.561049 0.730256 0.030629
0.593791 0.731539 0.031911
0.626534 0.732822 0.033194
0.659277 0.734104 0.034477
0.692020 0.735387 0.035760
0.724762 0.736670 0.037042
0.757505 0.737952 0.038325
0.790248 0.739235 0.039608
0.822990 0.740518 0.040890
0.855733 0.741801 0.042173
0.888476 0.743083 0.043456
0.921218 0.744366 0.044738
0.953961 0.745649 0.046021
0.986704 0.746931 0.047304
1.000000 0.748214 0.048587
1.000000 0.749497 0.049869
0.006868 0.741448 0.011268
0.039611 0.742731 0.012551
0.072354 0.744014 0.013834
0.105096 0.745296 0.015116
0.137839 0.746579 0.016399
0.170582 0.747862 0.017682
0.203324 0.749144 0.018964
0.236067 0.750427 0.020247
0.268810 0.751710 0.021530
0.301553 0.752993 0.022813
0.334295 0.754275 0.024095
0.367038 0.755558 0.025378
0.399781 0.756841 0.026661
0.432523 0.758123 0.027943
0.465266 0.759406 0.029226
0.498009 0.760689 0.030509
0.530752 0.761972 0.031792
0.563494 0.763254 0.033074
0.596237 0.764537 0.034357
0.628980 0.765820 0.035640
0.661722 0.767102 0.036922
0.694465 0.768385 0.038205
0.727208 0.769668 0.039488
0.759951 0.770951 0.040771
0.792693 0.772233 0.042053
0.825436 0.773516 0.043336
0.858179 0.774799 0.044619
0.890921 0.776081 0.045901
0.923664 0.777364 0.047184
0.956407 0.778647 0.048467
0.989149 0.779929 0.049749
1.000000 0.781212 0.051032
1.000000 0.782495 0.052315
0.009314 0.774446 0.013714
0.042056 0.775729 0.014996
0.074799 0.777012 0.016279
0.107542 0.778294 0.017562
0.140285 0.779577 0.018845
0.173027 0.780860 0.020127
0.205770 0.782143 0.021410
0.238513 0.783425 0.022693
0.271255 0.784708 0.023975
0.303998 0.785991 0.025258
0.336741 0.787273 0.026541
0.369484 0.788556 0.027824
0.402226 0.789839 0.029106
0.434969 0.791122 0.030389
0.467712 0.792404 0.031672
0.500454 0.793687 0.032954
0.533197 0.794970 0.034237
0.565940 0.796252 0.035520
0.598683 0.797535 0.036803
0.631425 0.798818 0.038085
0.664168 0.800100 0.039368
0.696911 0.801383 0.040651
0.729653 0.802666 0.041933
0.762396 0.803949 0.043216
0.795139 0.805231 0.044499
0.827882 0.806514 0.045782
0.860624 0.807797 0.047064
0.893367 0.809079 0.048347
0.926110 0.810362 0.049630
0.958852 0.811645 0.050912
0.991595 0.812928 0.052195
1.000000 0.814210 0.053478
1.000000 0.815493 0.054760
0.011759 0.807444 0.016159
0.044502 0.808727 0.017442
0.077245 0.810010 0.018725
0.109987 0.811292 0.020007
0.142730 0.812575 0.021290
0.175473 0.813858 0.022573
0.208216 0.815141 0.023856
0.240958 0.816423 0.025138
0.273701 0.817706 0.026421
0.306444 0.818989 0.027704
0.339186 0.820271 0.028986
0.371929 0.821554 0.030269
0.404672 0.822837 0.031552
0.437415 0.824120 0.032835
0.470157 0.825402 0.034117
0.502900 0.826685 0.035400
0.535643 0.827968 0.036683
0.568385 0.829250 0.037965
0.601128 0.830533 0.039248
0.633871 0.831816 0.040531
0.666614 0.833099 0.041814
0.699356 0.834381 0.043096
0.732099 0.835664 0.044379
0.764842 0.836947 0.045662
