flutter_app/assets/lut/ccd_standard.cube
TITLE "CCD Standard"
# Generated placeholder LUT for DAZZ development
# Replace with production-grade LUT before release
LUT_3D_SIZE 9
DOMAIN_MIN 0.0 0.0 0.0
DOMAIN_MAX 1.0 1.0 1.0
0.000000 0.000000 0.000000
0.079145 0.000000 0.000000
0.210116 0.000000 0.000000
0.341087 0.000000 0.000000
0.472057 0.000000 0.000000
0.603028 0.000000 0.000000
0.733999 0.000000 0.000000
0.864970 0.000000 0.000000
0.995941 0.000000 0.000000
0.000000 0.081486 0.000000
0.088927 0.086617 0.000000
0.219898 0.091748 0.000000
0.350869 0.096879 0.000000
0.481840 0.102010 0.000000
0.612811 0.107141 0.000000
0.743781 0.112271 0.000000
0.874752 0.117402 0.000000
1.000000 0.122533 0.003403
0.000000 0.213479 0.000000
0.098710 0.218610 0.000000
0.229680 0.223740 0.000000
0.360651 0.228871 0.000000
0.491622 0.234002 0.000000
0.622593 0.239133 0.000000
0.753564 0.244264 0.002924
0.884535 0.249395 0.008055
1.000000 0.254525 0.013185
0.000000 0.345471 0.000000
0.108492 0.350602 0.000000
0.239463 0.355733 0.000000
0.370434 0.360864 0.000000
0.501404 0.365994 0.002444
0.632375 0.371125 0.007575
0.763346 0.376256 0.012706
0.894317 0.381387 0.017837
1.000000 0.386518 0.022968
0.000000 0.477463 0.000000
0.118274 0.482594 0.000000
0.249245 0.487725 0.001965
0.380216 0.492856 0.007096
0.511187 0.497987 0.012227
0.642158 0.503118 0.017358
0.773129 0.508249 0.022489
0.904099 0.513379 0.027619
1.000000 0.518510 0.032750
0.000000 0.609456 0.001486
0.128057 0.614587 0.006617
0.259028 0.619718 0.011748
0.389998 0.624848 0.016878
0.520969 0.629979 0.022009
0.651940 0.635110 0.027140
0.782911 0.640241 0.032271
0.913882 0.645372 0.037402
1.000000 0.650503 0.042533
0.006868 0.741448 0.011268
0.137839 0.746579 0.016399
0.268810 0.751710 0.021530
0.399781 0.756841 0.026661
0.530752 0.761972 0.031792
0.661722 0.767102 0.036922
0.792693 0.772233 0.042053
0.923664 0.777364 0.047184
1.000000 0.782495 0.052315
0.016651 0.873441 0.021051
0.147621 0.878571 0.026181
0.278592 0.883702 0.031312
0.409563 0.888833 0.036443
0.540534 0.893964 0.041574
0.671505 0.899095 0.046705
0.802476 0.904226 0.051836
0.933446 0.909356 0.056966
1.000000 0.914487 0.062097
0.026433 1.000000 0.030833
0.157404 1.000000 0.035964
0.288375 1.000000 0.041095
0.419345 1.000000 0.046225
0.550316 1.000000 0.051356
0.681287 1.000000 0.056487
0.812258 1.000000 0.061618
0.943229 1.000000 0.066749
1.000000 1.000000 0.071880
0.000000 0.000000 0.068082
0.080913 0.000000 0.073213
0.211884 0.000000 0.078344
0.342855 0.000000 0.083475
0.473826 0.000000 0.088606
0.604796 0.000000 0.093736
0.735767 0.000000 0.098867
0.866738 0.000000 0.103998
0.997709 0.000000 0.109129
0.000000 0.083255 0.077865
0.090695 0.088385 0.082995
0.221666 0.093516 0.088126
0.352637 0.098647 0.093257
0.483608 0.103778 0.098388
0.614579 0.108909 0.103519
0.745550 0.114040 0.108650
0.876520 0.119170 0.113780
1.000000 0.124301 0.118911
0.000000 0.215247 0.087647
0.100478 0.220378 0.092778
0.231449 0.225509 0.097909
0.362419 0.230639 0.103039
0.493390 0.235770 0.108170
0.624361 0.240901 0.113301
0.755332 0.246032 0.118432
0.886303 0.251163 0.123563
1.000000 0.256294 0.128694
0.000000 0.347239 0.097429
0.110260 0.352370 0.102560
0.241231 0.357501 0.107691
0.372202 0.362632 0.112822
0.503173 0.367763 0.117953
0.634143 0.372893 0.123083
0.765114 0.378024 0.128214
0.896085 0.383155 0.133345
1.000000 0.388286 0.138476
0.000000 0.479232 0.107212
0.120042 0.484362 0.112342
0.251013 0.489493 0.117473
0.381984 0.494624 0.122604
0.512955 0.499755 0.127735
0.643926 0.504886 0.132866
0.774897 0.510017 0.137997
0.905868 0.515147 0.143127
1.000000 0.520278 0.148258
0.000000 0.611224 0.116994
0.129825 0.616355 0.122125
0.260796 0.621486 0.127256
0.391766 0.626616 0.132386
0.522737 0.631747 0.137517
0.653708 0.636878 0.142648
0.784679 0.642009 0.147779
0.915650 0.647140 0.152910
1.000000 0.652271 0.158041
0.008636 0.743216 0.126776
0.139607 0.748347 0.131907
0.270578 0.753478 0.137038
0.401549 0.758609 0.142169
0.532520 0.763740 0.147300
0.663491 0.768871 0.152431
0.794461 0.774001 0.157561
0.925432 0.779132 0.162692
1.000000 0.784263 0.167823
0.018419 0.875209 0.136559
0.149390 0.880340 0.141690
0.280360 0.885470 0.146820
0.411331 0.890601 0.151951
0.542302 0.895732 0.157082
0.673273 0.900863 0.162213
0.804244 0.905994 0.167344
0.935215 0.911125 0.172475
1.000000 0.916255 0.177605
0.028201 1.000000 0.146341
0.159172 1.000000 0.151472
0.290143 1.000000 0.156603
0.421114 1.000000 0.161734
0.552084 1.000000 0.166864
0.683055 1.000000 0.171995
0.814026 1.000000 0.177126
0.944997 1.000000 0.182257
1.000000 1.000000 0.187388
0.000000 0.000000 0.183590
0.082681 0.000000 0.188721
0.213652 0.000000 0.193852
0.344623 0.000000 0.198983
0.475594 0.000000 0.204114
0.606565 0.000000 0.209245
0.737535 0.000000 0.214375
0.868506 0.000000 0.219506
0.999477 0.000000 0.224637
0.000000 0.085023 0.193373
0.092464 0.090154 0.198504
0.223434 0.095284 0.203634
0.354405 0.100415 0.208765
0.485376 0.105546 0.213896
0.616347 0.110677 0.219027
0.747318 0.115808 0.224158
0.878289 0.120939 0.229289
1.000000 0.126069 0.234419
0.000000 0.217015 0.203155
0.102246 0.222146 0.208286
0.233217 0.227277 0.213417
0.364188 0.232408 0.218548
0.495158 0.237538 0.223678
0.626129 0.242669 0.228809
0.757100 0.247800 0.233940
0.888071 0.252931 0.239071
1.000000 0.258062 0.244202
0.000000 0.349007 0.212937
0.112028 0.354138 0.218068
0.242999 0.359269 0.223199
0.373970 0.364400 0.228330
0.504941 0.369531 0.233461
0.635912 0.374662 0.238592
0.766882 0.379792 0.243722
0.897853 0.384923 0.248853
1.000000 0.390054 0.253984
0.000000 0.481000 0.222720
0.121811 0.486131 0.227851
0.252781 0.491261 0.232981
0.383752 0.496392 0.238112
0.514723 0.501523 0.243243
0.645694 0.506654 0.248374
0.776665 0.511785 0.253505
0.907636 0.516916 0.258636
1.000000 0.522046 0.263766
0.000622 0.612992 0.232502
0.131593 0.618123 0.237633
0.262564 0.623254 0.242764
0.393535 0.628385 0.247895
0.524505 0.633515 0.253025
0.655476 0.638646 0.258156
0.786447 0.643777 0.263287
0.917418 0.648908 0.268418
1.000000 0.654039 0.273549
0.010404 0.744984 0.242284
0.141375 0.750115 0.247415
0.272346 0.755246 0.252546
0.403317 0.760377 0.257677
0.534288 0.765508 0.262808
0.665259 0.770639 0.267939
0.796230 0.775770 0.273070
0.927200 0.780900 0.278200
1.000000 0.786031 0.283331
0.020187 0.876977 0.252067
0.151158 0.882108 0.257198
0.282129 0.887239 0.262329
0.413099 0.892369 0.267459
0.544070 0.897500 0.272590
0.675041 0.902631 0.277721
0.806012 0.907762 0.282852
0.936983 0.912893 0.287983
1.000000 0.918024 0.293114
0.029969 1.000000 0.261849
0.160940 1.000000 0.266980
0.291911 1.000000 0.272111
0.422882 1.000000 0.277242
0.553853 1.000000 0.282373
0.684823 1.000000 0.287503
0.815794 1.000000 0.292634
0.946765 1.000000 0.297765
1.000000 1.000000 0.302896
0.000000 0.000000 0.299098
0.084449 0.000000 0.304229
0.215420 0.000000 0.309360
0.346391 0.000000 0.314491
0.477362 0.000000 0.319622
0.608333 0.000000 0.324753
0.739304 0.000000 0.329884
0.870274 0.000000 0.335014
1.000000 0.000000 0.340145
0.000000 0.086791 0.308881
0.094232 0.091922 0.314012
0.225203 0.097053 0.319143
0.356173 0.102183 0.324273
0.487144 0.107314 0.329404
0.618115 0.112445 0.334535
0.749086 0.117576 0.339666
0.880057 0.122707 0.344797
1.000000 0.127838 0.349928
0.000000 0.218783 0.318663
0.104014 0.223914 0.323794
0.234985 0.229045 0.328925
0.365956 0.234176 0.334056
0.496927 0.239307 0.339187
0.627897 0.244437 0.344317
0.758868 0.249568 0.349448
0.889839 0.254699 0.354579
1.000000 0.259830 0.359710
0.000000 0.350776 0.328446
0.113796 0.355906 0.333576
0.244767 0.361037 0.338707
0.375738 0.366168 0.343838
0.506709 0.371299 0.348969
0.637680 0.376430 0.354100
0.768651 0.381561 0.359231
0.899621 0.386691 0.364361
1.000000 0.391822 0.369492
0.000000 0.482768 0.338228
0.123579 0.487899 0.343359
0.254550 0.493030 0.348490
0.385520 0.498160 0.353620
0.516491 0.503291 0.358751
0.647462 0.508422 0.363882
0.778433 0.513553 0.369013
0.909404 0.518684 0.374144
1.000000 0.523815 0.379275
0.002390 0.614760 0.348010
0.133361 0.619891 0.353141
0.264332 0.625022 0.358272
0.395303 0.630153 0.363403
0.526274 0.635284 0.368534
0.657244 0.640414 0.373664
0.788215 0.645545 0.378795
0.919186 0.650676 0.383926
1.000000 0.655807 0.389057
0.012173 0.746753 0.357793
0.143143 0.751883 0.362923
0.274114 0.757014 0.368054
0.405085 0.762145 0.373185
0.536056 0.767276 0.378316
0.667027 0.772407 0.383447
0.797998 0.777538 0.388578
0.928968 0.782668 0.393708
1.000000 0.787799 0.398839
0.021955 0.878745 0.367575
0.152926 0.883876 0.372706
0.283897 0.889007 0.377837
0.414867 0.894137 0.382967
0.545838 0.899268 0.388098
0.676809 0.904399 0.393229
0.807780 0.909530 0.398360
0.938751 0.914661 0.403491
1.000000 0.919792 0.408622
0.031737 1.000000 0.377357
0.162708 1.000000 0.382488
0.293679 1.000000 0.387619
0.424650 1.000000 0.392750
0.555621 1.000000 0.397881
0.686592 1.000000 0.403012
0.817562 1.000000 0.408142
0.948533 1.000000 0.413273
1.000000 1.000000 0.418404
0.000000 0.000000 0.414607
0.086217 0.000000 0.419737
0.217188 0.000000 0.424868
0.348159 0.000000 0.429999
0.479130 0.000000 0.435130
0.610101 0.000000 0.440261
0.741072 0.000000 0.445392
0.872043 0.000000 0.450522
1.000000 0.000000 0.455653
0.000000 0.088559 0.424389
0.096000 0.093690 0.429520
0.226971 0.098821 0.434651
0.357941 0.103951 0.439781
0.488912 0.109082 0.444912
0.619883 0.114213 0.450043
0.750854 0.119344 0.455174
0.881825 0.124475 0.460305
1.000000 0.129606 0.465436
0.000000 0.220551 0.434171
0.105782 0.225682 0.439302
0.236753 0.230813 0.444433
0.367724 0.235944 0.449564
0.498695 0.241075 0.454695
0.629666 0.246206 0.459826
0.760636 0.251336 0.464956
0.891607 0.256467 0.470087
1.000000 0.261598 0.475218
0.000000 0.352544 0.443954
0.115565 0.357675 0.449085
0.246535 0.362805 0.454215
0.377506 0.367936 0.459346
0.508477 0.373067 0.464477
0.639448 0.378198 0.469608
0.770419 0.383329 0.474739
0.901390 0.388460 0.479870
1.000000 0.393590 0.485000
0.000000 0.484536 0.453736
0.125347 0.489667 0.458867
0.256318 0.494798 0.463998
0.387289 0.499929 0.469129
0.518259 0.505059 0.474259
0.649230 0.510190 0.479390
0.780201 0.515321 0.484521
0.911172 0.520452 0.489652
1.000000 0.525583 0.494783
0.004158 0.616528 0.463518
0.135129 0.621659 0.468649
0.266100 0.626790 0.473780
0.397071 0.631921 0.478911
0.528042 0.637052 0.484042
0.659013 0.642183 0.489173
0.789983 0.647313 0.494303
0.920954 0.652444 0.499434
1.000000 0.657575 0.504565
0.013941 0.748521 0.473301
0.144912 0.753652 0.478432
0.275882 0.758782 0.483562
0.406853 0.763913 0.488693
0.537824 0.769044 0.493824
0.668795 0.774175 0.498955
0.799766 0.779306 0.504086
0.930737 0.784437 0.509217
1.000000 0.789567 0.514347
0.023723 0.880513 0.483083
0.154694 0.885644 0.488214
0.285665 0.890775 0.493345
0.416636 0.895906 0.498476
0.547606 0.901036 0.503606
0.678577 0.906167 0.508737
0.809548 0.911298 0.513868
0.940519 0.916429 0.518999
1.000000 0.921560 0.524130
0.033505 1.000000 0.492865
0.164476 1.000000 0.497996
0.295447 1.000000 0.503127
0.426418 1.000000 0.508258
0.557389 1.000000 0.513389
0.688360 1.000000 0.518520
0.819331 1.000000 0.523651
0.950301 1.000000 0.528781
1.000000 1.000000 0.533912
0.000000 0.000000 0.530115
0.087986 0.000000 0.535246
0.218956 0.000000 0.540376
0.349927 0.000000 0.545507
0.480898 0.000000 0.550638
0.611869 0.000000 0.555769
0.742840 0.000000 0.560900
0.873811 0.000000 0.566031
1.000000 0.000000 0.571161
0.000000 0.090327 0.539897
0.097768 0.095458 0.545028
0.228739 0.100589 0.550159
0.359710 0.105720 0.555290
0.490680 0.110850 0.560420
0.621651 0.115981 0.565551
0.752622 0.121112 0.570682
0.883593 0.126243 0.575813
1.000000 0.131374 0.580944
0.000000 0.222319 0.549679
0.107550 0.227450 0.554810
0.238521 0.232581 0.559941
0.369492 0.237712 0.565072
0.500463 0.242843 0.570203
0.631434 0.247974 0.575334
0.762405 0.253105 0.580465
0.893375 0.258235 0.585595
1.000000 0.263366 0.590726
0.000000 0.354312 0.559462
0.117333 0.359443 0.564593
0.248304 0.364574 0.569724
0.379274 0.369704 0.574854
0.510245 0.374835 0.579985
0.641216 0.379966 0.585116
0.772187 0.385097 0.590247
0.903158 0.390228 0.595378
1.000000 0.395359 0.600509
0.000000 0.486304 0.569244
0.127115 0.491435 0.574375
0.258086 0.496566 0.579506
0.389057 0.501697 0.584637
0.520028 0.506828 0.589768
0.650998 0.511958 0.594898
0.781969 0.517089 0.600029
0.912940 0.522220 0.605160
1.000000 0.527351 0.610291
0.005927 0.618297 0.579027
0.136897 0.623427 0.584157
0.267868 0.628558 0.589288
0.398839 0.633689 0.594419
0.529810 0.638820 0.599550
0.660781 0.643951 0.604681
0.791752 0.649082 0.609812
0.922722 0.654212 0.614942
1.000000 0.659343 0.620073
0.015709 0.750289 0.588809
0.146680 0.755420 0.593940
0.277651 0.760551 0.599071
0.408621 0.765681 0.604201
0.539592 0.770812 0.609332
0.670563 0.775943 0.614463
0.801534 0.781074 0.619594
0.932505 0.786205 0.624725
1.000000 0.791336 0.629856
0.025491 0.882281 0.598591
0.156462 0.887412 0.603722
0.287433 0.892543 0.608853
0.418404 0.897674 0.613984
0.549375 0.902805 0.619115
0.680345 0.907935 0.624245
0.811316 0.913066 0.629376
0.942287 0.918197 0.634507
1.000000 0.923328 0.639638
0.035274 1.000000 0.608374
0.166244 1.000000 0.613504
0.297215 1.000000 0.618635
0.428186 1.000000 0.623766
0.559157 1.000000 0.628897
0.690128 1.000000 0.634028
0.821099 1.000000 0.639159
0.952069 1.000000 0.644289
1.000000 1.000000 0.649420
0.000000 0.000000 0.645623
0.089754 0.000000 0.650754
0.220725 0.000000 0.655885
0.351695 0.000000 0.661015
0.482666 0.000000 0.666146
0.613637 0.000000 0.671277
0.744608 0.000000 0.676408
0.875579 0.000000 0.681539
1.000000 0.001150 0.686670
0.000000 0.092095 0.655405
0.099536 0.097226 0.660536
0.230507 0.102357 0.665667
0.361478 0.107488 0.670798
0.492449 0.112619 0.675929
0.623419 0.117749 0.681059
0.754390 0.122880 0.686190
0.885361 0.128011 0.691321
1.000000 0.133142 0.696452
0.000000 0.224088 0.665188
0.109318 0.229218 0.670318
0.240289 0.234349 0.675449
0.371260 0.239480 0.680580
0.502231 0.244611 0.685711
0.633202 0.249742 0.690842
0.764173 0.254873 0.695973
0.895143 0.260003 0.701103
1.000000 0.265134 0.706234
0.000000 0.356080 0.674970
0.119101 0.361211 0.680101
0.250072 0.366342 0.685232
0.381042 0.371472 0.690362
0.512013 0.376603 0.695493
0.642984 0.381734 0.700624
0.773955 0.386865 0.705755
0.904926 0.391996 0.710886
1.000000 0.397127 0.716017
0.000000 0.488072 0.684752
0.128883 0.493203 0.689883
0.259854 0.498334 0.695014
0.390825 0.503465 0.700145
0.521796 0.508596 0.705276
0.652767 0.513727 0.710407
0.783737 0.518857 0.715537
0.914708 0.523988 0.720668
1.000000 0.529119 0.725799
0.007695 0.620065 0.694535
0.138666 0.625196 0.699666
0.269636 0.630326 0.704796
0.400607 0.635457 0.709927
0.531578 0.640588 0.715058
0.662549 0.645719 0.720189
0.793520 0.650850 0.725320
0.924491 0.655981 0.730451
1.000000 0.661111 0.735581
0.017477 0.752057 0.704317
0.148448 0.757188 0.709448
0.279419 0.762319 0.714579
0.410390 0.767450 0.719710
0.541360 0.772580 0.724840
0.672331 0.777711 0.729971
0.803302 0.782842 0.735102
0.934273 0.787973 0.740233
1.000000 0.793104 0.745364
0.027259 0.884049 0.714099
0.158230 0.889180 0.719230
0.289201 0.894311 0.724361
0.420172 0.899442 0.729492
0.551143 0.904573 0.734623
0.682114 0.909704 0.739754
0.813084 0.914834 0.744884
0.944055 0.919965 0.750015
1.000000 0.925096 0.755146
0.037042 1.000000 0.723882
0.168013 1.000000 0.729013
0.298983 1.000000 0.734143
0.429954 1.000000 0.739274
0.560925 1.000000 0.744405
0.691896 1.000000 0.749536
0.822867 1.000000 0.754667
0.953838 1.000000 0.759798
1.000000 1.000000 0.764928
0.000000 0.000000 0.761131
0.091522 0.000000 0.766262
0.222493 0.000000 0.771393
0.353464 0.000000 0.776524
0.484434 0.000000 0.781654
0.615405 0.000000 0.786785
0.746376 0.000000 0.791916
0.877347 0.000000 0.797047
1.000000 0.002918 0.802178
0.000000 0.093863 0.770913
0.101304 0.098994 0.776044
0.232275 0.104125 0.781175
0.363246 0.109256 0.786306
0.494217 0.114387 0.791437
0.625188 0.119518 0.796568
0.756158 0.124648 0.801698
0.887129 0.129779 0.806829
1.000000 0.134910 0.811960
0.000000 0.225856 0.780696
0.111087 0.230987 0.785827
0.242057 0.236117 0.790957
0.373028 0.241248 0.796088
0.503999 0.246379 0.801219
0.634970 0.251510 0.806350
0.765941 0.256641 0.811481
0.896912 0.261772 0.816612
1.000000 0.266902 0.821742
0.000000 0.357848 0.790478
0.120869 0.362979 0.795609
0.251840 0.368110 0.800740
0.382811 0.373241 0.805871
0.513781 0.378371 0.811001
0.644752 0.383502 0.816132
0.775723 0.388633 0.821263
0.906694 0.393764 0.826394
1.000000 0.398895 0.831525
0.000000 0.489840 0.800260
0.130651 0.494971 0.805391
0.261622 0.500102 0.810522
0.392593 0.505233 0.815653
0.523564 0.510364 0.820784
0.654535 0.515495 0.825915
0.785506 0.520625 0.831045
0.916476 0.525756 0.836176
1.000000 0.530887 0.841307
0.009463 0.621833 0.810043
0.140434 0.626964 0.815174
0.271404 0.632094 0.820304
0.402375 0.637225 0.825435
0.533346 0.642356 0.830566
0.664317 0.647487 0.835697
0.795288 0.652618 0.840828
0.926259 0.657749 0.845959
1.000000 0.662880 0.851090
0.019245 0.753825 0.819825
0.150216 0.758956 0.824956
0.281187 0.764087 0.830087
0.412158 0.769218 0.835218
0.543129 0.774349 0.840349
0.674099 0.779479 0.845479
0.805070 0.784610 0.850610
0.936041 0.789741 0.855741
1.000000 0.794872 0.860872
0.029028 0.885818 0.829608
0.159998 0.890948 0.834738
0.290969 0.896079 0.839869
0.421940 0.901210 0.845000
0.552911 0.906341 0.850131
0.683882 0.911472 0.855262
0.814853 0.916603 0.860393
0.945823 0.921733 0.865523
1.000000 0.926864 0.870654
0.038810 1.000000 0.839390
0.169781 1.000000 0.844521
0.300752 1.000000 0.849652
0.431722 1.000000 0.854782
0.562693 1.000000 0.859913
0.693664 1.000000 0.865044
0.824635 1.000000 0.870175
0.955606 1.000000 0.875306
1.000000 1.000000 0.880437
0.000000 0.000000 0.876639
0.093290 0.000000 0.881770
0.224261 0.000000 0.886901
0.355232 0.000000 0.892032
0.486203 0.000000 0.897163
0.617173 0.000000 0.902293
0.748144 0.000000 0.907424
0.879115 0.000000 0.912555
1.000000 0.004686 0.917686
0.000000 0.095632 0.886422
0.103072 0.100762 0.891552
0.234043 0.105893 0.896683
0.365014 0.111024 0.901814
0.495985 0.116155 0.906945
0.626956 0.121286 0.912076
0.757927 0.126417 0.917207
0.888897 0.131547 0.922337
1.000000 0.136678 0.927468
0.000000 0.227624 0.896204
0.112855 0.232755 0.901335
0.243826 0.237886 0.906466
0.374796 0.243016 0.911596
0.505767 0.248147 0.916727
0.636738 0.253278 0.921858
0.767709 0.258409 0.926989
0.898680 0.263540 0.932120
1.000000 0.268671 0.937251
0.000000 0.359616 0.905986
0.122637 0.364747 0.911117
0.253608 0.369878 0.916248
0.384579 0.375009 0.921379
0.515550 0.380140 0.926510
0.646520 0.385270 0.931640
0.777491 0.390401 0.936771
0.908462 0.395532 0.941902
1.000000 0.400663 0.947033
0.001449 0.491609 0.915769
0.132419 0.496739 0.920899
0.263390 0.501870 0.926030
0.394361 0.507001 0.931161
0.525332 0.512132 0.936292
0.656303 0.517263 0.941423
0.787274 0.522394 0.946554
0.918244 0.527524 0.951684
1.000000 0.532655 0.956815
0.011231 0.623601 0.925551
0.142202 0.628732 0.930682
0.273173 0.633863 0.935813
0.404143 0.638993 0.940943
0.535114 0.644124 0.946074
0.666085 0.649255 0.951205
0.797056 0.654386 0.956336
0.928027 0.659517 0.961467
1.000000 0.664648 0.966598
0.021013 0.755593 0.935333
0.151984 0.760724 0.940464
0.282955 0.765855 0.945595
0.413926 0.770986 0.950726
0.544897 0.776117 0.955857
0.675868 0.781248 0.960988
0.806838 0.786378 0.966118
0.937809 0.791509 0.971249
1.000000 0.796640 0.976380
0.030796 0.887586 0.945116
0.161767 0.892717 0.950247
0.292737 0.897847 0.955377
0.423708 0.902978 0.960508
0.554679 0.908109 0.965639
0.685650 0.913240 0.970770
0.816621 0.918371 0.975901
0.947592 0.923502 0.981032
1.000000 0.928632 0.986162
0.040578 1.000000 0.954898
0.171549 1.000000 0.960029
0.302520 1.000000 0.965160
0.433491 1.000000 0.970291
0.564461 1.000000 0.975421
0.695432 1.000000 0.980552
0.826403 1.000000 0.985683
0.957374 1.000000 0.990814
1.000000 1.000000 0.995945
