flutter_app/assets/lut/ccd_standard.cube
TITLE "CCD Standard"
# Generated placeholder LUT for DAZZ development
# Replace with production-grade LUT before release
LUT_3D_SIZE 5
DOMAIN_MIN 0.0 0.0 0.0
DOMAIN_MAX 1.0 1.0 1.0
0.000000 0.000000 0.000000
0.210116 0.000000 0.000000
0.472057 0.000000 0.000000
0.733999 0.000000 0.000000
0.995941 0.000000 0.000000
0.000000 0.213479 0.000000
0.229680 0.223740 0.000000
0.491622 0.234002 0.000000
0.753564 0.244264 0.002924
1.000000 0.254525 0.013185
0.000000 0.477463 0.000000
0.249245 0.487725 0.001965
0.511187 0.497987 0.012227
0.773129 0.508249 0.022489
1.000000 0.518510 0.032750
0.006868 0.741448 0.011268
0.268810 0.751710 0.021530
0.530752 0.761972 0.031792
0.792693 0.772233 0.042053
1.000000 0.782495 0.052315
0.026433 1.000000 0.030833
0.288375 1.000000 0.041095
0.550316 1.000000 0.051356
0.812258 1.000000 0.061618
1.000000 1.000000 0.071880
0.000000 0.000000 0.183590
0.213652 0.000000 0.193852
0.475594 0.000000 0.204114
0.737535 0.000000 0.214375
0.999477 0.000000 0.224637
0.000000 0.217015 0.203155
0.233217 0.227277 0.213417
0.495158 0.237538 0.223678
0.757100 0.247800 0.233940
1.000000 0.258062 0.244202
0.000000 0.481000 0.222720
0.252781 0.491261 0.232981
0.514723 0.501523 0.243243
0.776665 0.511785 0.253505
1.000000 0.522046 0.263766
0.010404 0.744984 0.242284
0.272346 0.755246 0.252546
0.534288 0.765508 0.262808
0.796230 0.775770 0.273070
1.000000 0.786031 0.283331
0.029969 1.000000 0.261849
0.291911 1.000000 0.272111
0.553853 1.000000 0.282373
0.815794 1.000000 0.292634
1.000000 1.000000 0.302896
0.000000 0.000000 0.414607
0.217188 0.000000 0.424868
0.479130 0.000000 0.435130
0.741072 0.000000 0.445392
1.000000 0.000000 0.455653
0.000000 0.220551 0.434171
0.236753 0.230813 0.444433
0.498695 0.241075 0.454695
0.760636 0.251336 0.464956
1.000000 0.261598 0.475218
0.000000 0.484536 0.453736
0.256318 0.494798 0.463998
0.518259 0.505059 0.474259
0.780201 0.515321 0.484521
1.000000 0.525583 0.494783
0.013941 0.748521 0.473301
0.275882 0.758782 0.483562
0.537824 0.769044 0.493824
0.799766 0.779306 0.504086
1.000000 0.789567 0.514347
0.033505 1.000000 0.492865
0.295447 1.000000 0.503127
0.557389 1.000000 0.513389
0.819331 1.000000 0.523651
1.000000 1.000000 0.533912
0.000000 0.000000 0.645623
0.220725 0.000000 0.655885
0.482666 0.000000 0.666146
0.744608 0.000000 0.676408
1.000000 0.001150 0.686670
0.000000 0.224088 0.665188
0.240289 0.234349 0.675449
0.502231 0.244611 0.685711
0.764173 0.254873 0.695973
1.000000 0.265134 0.706234
0.000000 0.488072 0.684752
0.259854 0.498334 0.695014
0.521796 0.508596 0.705276
0.783737 0.518857 0.715537
1.000000 0.529119 0.725799
0.017477 0.752057 0.704317
0.279419 0.762319 0.714579
0.541360 0.772580 0.724840
0.803302 0.782842 0.735102
1.000000 0.793104 0.745364
0.037042 1.000000 0.723882
0.298983 1.000000 0.734143
0.560925 1.000000 0.744405
0.822867 1.000000 0.754667
1.000000 1.000000 0.764928
0.000000 0.000000 0.876639
0.224261 0.000000 0.886901
0.486203 0.000000 0.897163
0.748144 0.000000 0.907424
1.000000 0.004686 0.917686
0.000000 0.227624 0.896204
0.243826 0.237886 0.906466
0.505767 0.248147 0.916727
0.767709 0.258409 0.926989
1.000000 0.268671 0.937251
0.001449 0.491609 0.915769
0.263390 0.501870 0.926030
0.525332 0.512132 0.936292
0.787274 0.522394 0.946554
1.000000 0.532655 0.956815
0.021013 0.755593 0.935333
0.282955 0.765855 0.945595
0.544897 0.776117 0.955857
0.806838 0.786378 0.966118
1.000000 0.796640 0.976380
0.040578 1.000000 0.954898
0.302520 1.000000 0.965160
0.564461 1.000000 0.975421
0.826403 1.000000 0.985683
1.000000 1.000000 0.995945
