flutter_app/assets/lut/disposable_flash.cube
TITLE "Disposable Flash"
# Generated placeholder LUT for DAZZ development
# Replace with production-grade LUT before release
LUT_3D_SIZE 9
DOMAIN_MIN 0.0 0.0 0.0
DOMAIN_MAX 1.0 1.0 1.0
0.021200 0.021216 0.009200
0.169600 0.021216 0.009200
0.318000 0.021216 0.009200
0.466400 0.021216 0.009200
0.614800 0.021216 0.009200
0.763200 0.021216 0.009200
0.911600 0.021216 0.009200
1.000000 0.021216 0.009200
1.000000 0.021216 0.009200
0.021200 0.167076 0.009200
0.169600 0.167076 0.009200
0.318000 0.167076 0.009200
0.466400 0.167076 0.009200
0.614800 0.167076 0.009200
0.763200 0.167076 0.009200
0.911600 0.167076 0.009200
1.000000 0.167076 0.009200
1.000000 0.167076 0.009200
0.021200 0.300900 0.009200
0.169600 0.300900 0.009200
0.318000 0.300900 0.009200
0.466400 0.300900 0.009200
0.614800 0.300900 0.009200
0.763200 0.300900 0.009200
0.911600 0.300900 0.009200
1.000000 0.300900 0.009200
1.000000 0.300900 0.009200
0.021200 0.441150 0.009200
0.169600 0.441150 0.009200
0.318000 0.441150 0.009200
0.466400 0.441150 0.009200
0.614800 0.441150 0.009200
0.763200 0.441150 0.009200
0.911600 0.441150 0.009200
1.000000 0.441150 0.009200
1.000000 0.441150 0.009200
0.021200 0.581400 0.009200
0.169600 0.581400 0.009200
0.318000 0.581400 0.009200
0.466400 0.581400 0.009200
0.614800 0.581400 0.009200
0.763200 0.581400 0.009200
0.911600 0.581400 0.009200
1.000000 0.581400 0.009200
1.000000 0.581400 0.009200
0.021200 0.721650 0.009200
0.169600 0.721650 0.009200
0.318000 0.721650 0.009200
0.466400 0.721650 0.009200
0.614800 0.721650 0.009200
0.763200 0.721650 0.009200
0.911600 0.721650 0.009200
1.000000 0.721650 0.009200
1.000000 0.721650 0.009200
0.021200 0.861900 0.009200
0.169600 0.861900 0.009200
0.318000 0.861900 0.009200
0.466400 0.861900 0.009200
0.614800 0.861900 0.009200
0.763200 0.861900 0.009200
0.911600 0.861900 0.009200
1.000000 0.861900 0.009200
1.000000 0.861900 0.009200
0.021200 1.000000 0.009200
0.169600 1.000000 0.009200
0.318000 1.000000 0.009200
0.466400 1.000000 0.009200
0.614800 1.000000 0.009200
0.763200 1.000000 0.009200
0.911600 1.000000 0.009200
1.000000 1.000000 0.009200
1.000000 1.000000 0.009200
0.021200 1.000000 0.009200
0.169600 1.000000 0.009200
0.318000 1.000000 0.009200
0.466400 1.000000 0.009200
0.614800 1.000000 0.009200
0.763200 1.000000 0.009200
0.911600 1.000000 0.009200
1.000000 1.000000 0.009200
1.000000 1.000000 0.009200
0.021200 0.021216 0.129950
0.169600 0.021216 0.129950
0.318000 0.021216 0.129950
0.466400 0.021216 0.129950
0.614800 0.021216 0.129950
0.763200 0.021216 0.129950
0.911600 0.021216 0.129950
1.000000 0.021216 0.129950
1.000000 0.021216 0.129950
0.021200 0.167076 0.129950
0.169600 0.167076 0.129950
0.318000 0.167076 0.129950
0.466400 0.167076 0.129950
0.614800 0.167076 0.129950
0.763200 0.167076 0.129950
0.911600 0.167076 0.129950
1.000000 0.167076 0.129950
1.000000 0.167076 0.129950
0.021200 0.300900 0.129950
0.169600 0.300900 0.129950
0.318000 0.300900 0.129950
0.466400 0.300900 0.129950
0.614800 0.300900 0.129950
0.763200 0.300900 0.129950
0.911600 0.300900 0.129950
1.000000 0.300900 0.129950
1.000000 0.300900 0.129950
0.021200 0.441150 0.129950
0.169600 0.441150 0.129950
0.318000 0.441150 0.129950
0.466400 0.441150 0.129950
0.614800 0.441150 0.129950
0.763200 0.441150 0.129950
0.911600 0.441150 0.129950
1.000000 0.441150 0.129950
1.000000 0.441150 0.129950
0.021200 0.581400 0.129950
0.169600 0.581400 0.129950
0.318000 0.581400 0.129950
0.466400 0.581400 0.129950
0.614800 0.581400 0.129950
0.763200 0.581400 0.129950
0.911600 0.581400 0.129950
1.000000 0.581400 0.129950
1.000000 0.581400 0.129950
0.021200 0.721650 0.129950
0.169600 0.721650 0.129950
0.318000 0.721650 0.129950
0.466400 0.721650 0.129950
0.614800 0.721650 0.129950
0.763200 0.721650 0.129950
0.911600 0.721650 0.129950
1.000000 0.721650 0.129950
1.000000 0.721650 0.129950
0.021200 0.861900 0.129950
0.169600 0.861900 0.129950
0.318000 0.861900 0.129950
0.466400 0.861900 0.129950
0.614800 0.861900 0.129950
0.763200 0.861900 0.129950
0.911600 0.861900 0.129950
1.000000 0.861900 0.129950
1.000000 0.861900 0.129950
0.021200 1.000000 0.129950
0.169600 1.000000 0.129950
0.318000 1.000000 0.129950
0.466400 1.000000 0.129950
0.614800 1.000000 0.129950
0.763200 1.000000 0.129950
0.911600 1.000000 0.129950
1.000000 1.000000 0.129950
1.000000 1.000000 0.129950
0.021200 1.000000 0.129950
0.169600 1.000000 0.129950
0.318000 1.000000 0.129950
0.466400 1.000000 0.129950
0.614800 1.000000 0.129950
0.763200 1.000000 0.129950
0.911600 1.000000 0.129950
1.000000 1.000000 0.129950
1.000000 1.000000 0.129950
0.021200 0.021216 0.250700
0.169600 0.021216 0.250700
0.318000 0.021216 0.250700
0.466400 0.021216 0.250700
0.614800 0.021216 0.250700
0.763200 0.021216 0.250700
0.911600 0.021216 0.250700
1.000000 0.021216 0.250700
1.000000 0.021216 0.250700
0.021200 0.167076 0.250700
0.169600 0.167076 0.250700
0.318000 0.167076 0.250700
0.466400 0.167076 0.250700
0.614800 0.167076 0.250700
0.763200 0.167076 0.250700
0.911600 0.167076 0.250700
1.000000 0.167076 0.250700
1.000000 0.167076 0.250700
0.021200 0.300900 0.250700
0.169600 0.300900 0.250700
0.318000 0.300900 0.250700
0.466400 0.300900 0.250700
0.614800 0.300900 0.250700
0.763200 0.300900 0.250700
0.911600 0.300900 0.250700
1.000000 0.300900 0.250700
1.000000 0.300900 0.250700
0.021200 0.441150 0.250700
0.169600 0.441150 0.250700
0.318000 0.441150 0.250700
0.466400 0.441150 0.250700
0.614800 0.441150 0.250700
0.763200 0.441150 0.250700
0.911600 0.441150 0.250700
1.000000 0.441150 0.250700
1.000000 0.441150 0.250700
0.021200 0.581400 0.250700
0.169600 0.581400 0.250700
0.318000 0.581400 0.250700
0.466400 0.581400 0.250700
0.614800 0.581400 0.250700
0.763200 0.581400 0.250700
0.911600 0.581400 0.250700
1.000000 0.581400 0.250700
1.000000 0.581400 0.250700
0.021200 0.721650 0.250700
0.169600 0.721650 0.250700
0.318000 0.721650 0.250700
0.466400 0.721650 0.250700
0.614800 0.721650 0.250700
0.763200 0.721650 0.250700
0.911600 0.721650 0.250700
1.000000 0.721650 0.250700
1.000000 0.721650 0.250700
0.021200 0.861900 0.250700
0.169600 0.861900 0.250700
0.318000 0.861900 0.250700
0.466400 0.861900 0.250700
0.614800 0.861900 0.250700
0.763200 0.861900 0.250700
0.911600 0.861900 0.250700
1.000000 0.861900 0.250700
1.000000 0.861900 0.250700
0.021200 1.000000 0.250700
0.169600 1.000000 0.250700
0.318000 1.000000 0.250700
0.466400 1.000000 0.250700
0.614800 1.000000 0.250700
0.763200 1.000000 0.250700
0.911600 1.000000 0.250700
1.000000 1.000000 0.250700
1.000000 1.000000 0.250700
0.021200 1.000000 0.250700
0.169600 1.000000 0.250700
0.318000 1.000000 0.250700
0.466400 1.000000 0.250700
0.614800 1.000000 0.250700
0.763200 1.000000 0.250700
0.911600 1.000000 0.250700
1.000000 1.000000 0.250700
1.000000 1.000000 0.250700
0.021200 0.021216 0.371450
0.169600 0.021216 0.371450
0.318000 0.021216 0.371450
0.466400 0.021216 0.371450
0.614800 0.021216 0.371450
0.763200 0.021216 0.371450
0.911600 0.021216 0.371450
1.000000 0.021216 0.371450
1.000000 0.021216 0.371450
0.021200 0.167076 0.371450
0.169600 0.167076 0.371450
0.318000 0.167076 0.371450
0.466400 0.167076 0.371450
0.614800 0.167076 0.371450
0.763200 0.167076 0.371450
0.911600 0.167076 0.371450
1.000000 0.167076 0.371450
1.000000 0.167076 0.371450
0.021200 0.300900 0.371450
0.169600 0.300900 0.371450
0.318000 0.300900 0.371450
0.466400 0.300900 0.371450
0.614800 0.300900 0.371450
0.763200 0.300900 0.371450
0.911600 0.300900 0.371450
1.000000 0.300900 0.371450
1.000000 0.300900 0.371450
0.021200 0.441150 0.371450
0.169600 0.441150 0.371450
0.318000 0.441150 0.371450
0.466400 0.441150 0.371450
0.614800 0.441150 0.371450
0.763200 0.441150 0.371450
0.911600 0.441150 0.371450
1.000000 0.441150 0.371450
1.000000 0.441150 0.371450
0.021200 0.581400 0.371450
0.169600 0.581400 0.371450
0.318000 0.581400 0.371450
0.466400 0.581400 0.371450
0.614800 0.581400 0.371450
0.763200 0.581400 0.371450
0.911600 0.581400 0.371450
1.000000 0.581400 0.371450
1.000000 0.581400 0.371450
0.021200 0.721650 0.371450
0.169600 0.721650 0.371450
0.318000 0.721650 0.371450
0.466400 0.721650 0.371450
0.614800 0.721650 0.371450
0.763200 0.721650 0.371450
0.911600 0.721650 0.371450
1.000000 0.721650 0.371450
1.000000 0.721650 0.371450
0.021200 0.861900 0.371450
0.169600 0.861900 0.371450
0.318000 0.861900 0.371450
0.466400 0.861900 0.371450
0.614800 0.861900 0.371450
0.763200 0.861900 0.371450
0.911600 0.861900 0.371450
1.000000 0.861900 0.371450
1.000000 0.861900 0.371450
0.021200 1.000000 0.371450
0.169600 1.000000 0.371450
0.318000 1.000000 0.371450
0.466400 1.000000 0.371450
0.614800 1.000000 0.371450
0.763200 1.000000 0.371450
0.911600 1.000000 0.371450
1.000000 1.000000 0.371450
1.000000 1.000000 0.371450
0.021200 1.000000 0.371450
0.169600 1.000000 0.371450
0.318000 1.000000 0.371450
0.466400 1.000000 0.371450
0.614800 1.000000 0.371450
0.763200 1.000000 0.371450
0.911600 1.000000 0.371450
1.000000 1.000000 0.371450
1.000000 1.000000 0.371450
0.021200 0.021216 0.492200
0.169600 0.021216 0.492200
0.318000 0.021216 0.492200
0.466400 0.021216 0.492200
0.614800 0.021216 0.492200
0.763200 0.021216 0.492200
0.911600 0.021216 0.492200
1.000000 0.021216 0.492200
1.000000 0.021216 0.492200
0.021200 0.167076 0.492200
0.169600 0.167076 0.492200
0.318000 0.167076 0.492200
0.466400 0.167076 0.492200
0.614800 0.167076 0.492200
0.763200 0.167076 0.492200
0.911600 0.167076 0.492200
1.000000 0.167076 0.492200
1.000000 0.167076 0.492200
0.021200 0.300900 0.492200
0.169600 0.300900 0.492200
0.318000 0.300900 0.492200
0.466400 0.300900 0.492200
0.614800 0.300900 0.492200
0.763200 0.300900 0.492200
0.911600 0.300900 0.492200
1.000000 0.300900 0.492200
1.000000 0.300900 0.492200
0.021200 0.441150 0.492200
0.169600 0.441150 0.492200
0.318000 0.441150 0.492200
0.466400 0.441150 0.492200
0.614800 0.441150 0.492200
0.763200 0.441150 0.492200
0.911600 0.441150 0.492200
1.000000 0.441150 0.492200
1.000000 0.441150 0.492200
0.021200 0.581400 0.492200
0.169600 0.581400 0.492200
0.318000 0.581400 0.492200
0.466400 0.581400 0.492200
0.614800 0.581400 0.492200
0.763200 0.581400 0.492200
0.911600 0.581400 0.492200
1.000000 0.581400 0.492200
1.000000 0.581400 0.492200
0.021200 0.721650 0.492200
0.169600 0.721650 0.492200
0.318000 0.721650 0.492200
0.466400 0.721650 0.492200
0.614800 0.721650 0.492200
0.763200 0.721650 0.492200
0.911600 0.721650 0.492200
1.000000 0.721650 0.492200
1.000000 0.721650 0.492200
0.021200 0.861900 0.492200
0.169600 0.861900 0.492200
0.318000 0.861900 0.492200
0.466400 0.861900 0.492200
0.614800 0.861900 0.492200
0.763200 0.861900 0.492200
0.911600 0.861900 0.492200
1.000000 0.861900 0.492200
1.000000 0.861900 0.492200
0.021200 1.000000 0.492200
0.169600 1.000000 0.492200
0.318000 1.000000 0.492200
0.466400 1.000000 0.492200
0.614800 1.000000 0.492200
0.763200 1.000000 0.492200
0.911600 1.000000 0.492200
1.000000 1.000000 0.492200
1.000000 1.000000 0.492200
0.021200 1.000000 0.492200
0.169600 1.000000 0.492200
0.318000 1.000000 0.492200
0.466400 1.000000 0.492200
0.614800 1.000000 0.492200
0.763200 1.000000 0.492200
0.911600 1.000000 0.492200
1.000000 1.000000 0.492200
1.000000 1.000000 0.492200
0.021200 0.021216 0.612950
0.169600 0.021216 0.612950
0.318000 0.021216 0.612950
0.466400 0.021216 0.612950
0.614800 0.021216 0.612950
0.763200 0.021216 0.612950
0.911600 0.021216 0.612950
1.000000 0.021216 0.612950
1.000000 0.021216 0.612950
0.021200 0.167076 0.612950
0.169600 0.167076 0.612950
0.318000 0.167076 0.612950
0.466400 0.167076 0.612950
0.614800 0.167076 0.612950
0.763200 0.167076 0.612950
0.911600 0.167076 0.612950
1.000000 0.167076 0.612950
1.000000 0.167076 0.612950
0.021200 0.300900 0.612950
0.169600 0.300900 0.612950
0.318000 0.300900 0.612950
0.466400 0.300900 0.612950
0.614800 0.300900 0.612950
0.763200 0.300900 0.612950
0.911600 0.300900 0.612950
1.000000 0.300900 0.612950
1.000000 0.300900 0.612950
0.021200 0.441150 0.612950
0.169600 0.441150 0.612950
0.318000 0.441150 0.612950
0.466400 0.441150 0.612950
0.614800 0.441150 0.612950
0.763200 0.441150 0.612950
0.911600 0.441150 0.612950
1.000000 0.441150 0.612950
1.000000 0.441150 0.612950
0.021200 0.581400 0.612950
0.169600 0.581400 0.612950
0.318000 0.581400 0.612950
0.466400 0.581400 0.612950
0.614800 0.581400 0.612950
0.763200 0.581400 0.612950
0.911600 0.581400 0.612950
1.000000 0.581400 0.612950
1.000000 0.581400 0.612950
0.021200 0.721650 0.612950
0.169600 0.721650 0.612950
0.318000 0.721650 0.612950
0.466400 0.721650 0.612950
0.614800 0.721650 0.612950
0.763200 0.721650 0.612950
0.911600 0.721650 0.612950
1.000000 0.721650 0.612950
1.000000 0.721650 0.612950
0.021200 0.861900 0.612950
0.169600 0.861900 0.612950
0.318000 0.861900 0.612950
0.466400 0.861900 0.612950
0.614800 0.861900 0.612950
0.763200 0.861900 0.612950
0.911600 0.861900 0.612950
1.000000 0.861900 0.612950
1.000000 0.861900 0.612950
0.021200 1.000000 0.612950
0.169600 1.000000 0.612950
0.318000 1.000000 0.612950
0.466400 1.000000 0.612950
0.614800 1.000000 0.612950
0.763200 1.000000 0.612950
0.911600 1.000000 0.612950
1.000000 1.000000 0.612950
1.000000 1.000000 0.612950
0.021200 1.000000 0.612950
0.169600 1.000000 0.612950
0.318000 1.000000 0.612950
0.466400 1.000000 0.612950
0.614800 1.000000 0.612950
0.763200 1.000000 0.612950
0.911600 1.000000 0.612950
1.000000 1.000000 0.612950
1.000000 1.000000 0.612950
0.021200 0.021216 0.733700
0.169600 0.021216 0.733700
0.318000 0.021216 0.733700
0.466400 0.021216 0.733700
0.614800 0.021216 0.733700
0.763200 0.021216 0.733700
0.911600 0.021216 0.733700
1.000000 0.021216 0.733700
1.000000 0.021216 0.733700
0.021200 0.167076 0.733700
0.169600 0.167076 0.733700
0.318000 0.167076 0.733700
0.466400 0.167076 0.733700
0.614800 0.167076 0.733700
0.763200 0.167076 0.733700
0.911600 0.167076 0.733700
1.000000 0.167076 0.733700
1.000000 0.167076 0.733700
0.021200 0.300900 0.733700
0.169600 0.300900 0.733700
0.318000 0.300900 0.733700
0.466400 0.300900 0.733700
0.614800 0.300900 0.733700
0.763200 0.300900 0.733700
0.911600 0.300900 0.733700
1.000000 0.300900 0.733700
1.000000 0.300900 0.733700
0.021200 0.441150 0.733700
0.169600 0.441150 0.733700
0.318000 0.441150 0.733700
0.466400 0.441150 0.733700
0.614800 0.441150 0.733700
0.763200 0.441150 0.733700
0.911600 0.441150 0.733700
1.000000 0.441150 0.733700
1.000000 0.441150 0.733700
0.021200 0.581400 0.733700
0.169600 0.581400 0.733700
0.318000 0.581400 0.733700
0.466400 0.581400 0.733700
0.614800 0.581400 0.733700
0.763200 0.581400 0.733700
0.911600 0.581400 0.733700
1.000000 0.581400 0.733700
1.000000 0.581400 0.733700
0.021200 0.721650 0.733700
0.169600 0.721650 0.733700
0.318000 0.721650 0.733700
0.466400 0.721650 0.733700
0.614800 0.721650 0.733700
0.763200 0.721650 0.733700
0.911600 0.721650 0.733700
1.000000 0.721650 0.733700
1.000000 0.721650 0.733700
0.021200 0.861900 0.733700
0.169600 0.861900 0.733700
0.318000 0.861900 0.733700
0.466400 0.861900 0.733700
0.614800 0.861900 0.733700
0.763200 0.861900 0.733700
0.911600 0.861900 0.733700
1.000000 0.861900 0.733700
1.000000 0.861900 0.733700
0.021200 1.000000 0.733700
0.169600 1.000000 0.733700
0.318000 1.000000 0.733700
0.466400 1.000000 0.733700
0.614800 1.000000 0.733700
0.763200 1.000000 0.733700
0.911600 1.000000 0.733700
1.000000 1.000000 0.733700
1.000000 1.000000 0.733700
0.021200 1.000000 0.733700
0.169600 1.000000 0.733700
0.318000 1.000000 0.733700
0.466400 1.000000 0.733700
0.614800 1.000000 0.733700
0.763200 1.000000 0.733700
0.911600 1.000000 0.733700
1.000000 1.000000 0.733700
1.000000 1.000000 0.733700
0.021200 0.021216 0.854450
0.169600 0.021216 0.854450
0.318000 0.021216 0.854450
0.466400 0.021216 0.854450
0.614800 0.021216 0.854450
0.763200 0.021216 0.854450
0.911600 0.021216 0.854450
1.000000 0.021216 0.854450
1.000000 0.021216 0.854450
0.021200 0.167076 0.854450
0.169600 0.167076 0.854450
0.318000 0.167076 0.854450
0.466400 0.167076 0.854450
0.614800 0.167076 0.854450
0.763200 0.167076 0.854450
0.911600 0.167076 0.854450
1.000000 0.167076 0.854450
1.000000 0.167076 0.854450
0.021200 0.300900 0.854450
0.169600 0.300900 0.854450
0.318000 0.300900 0.854450
0.466400 0.300900 0.854450
0.614800 0.300900 0.854450
0.763200 0.300900 0.854450
0.911600 0.300900 0.854450
1.000000 0.300900 0.854450
1.000000 0.300900 0.854450
0.021200 0.441150 0.854450
0.169600 0.441150 0.854450
0.318000 0.441150 0.854450
0.466400 0.441150 0.854450
0.614800 0.441150 0.854450
0.763200 0.441150 0.854450
0.911600 0.441150 0.854450
1.000000 0.441150 0.854450
1.000000 0.441150 0.854450
0.021200 0.581400 0.854450
0.169600 0.581400 0.854450
0.318000 0.581400 0.854450
0.466400 0.581400 0.854450
0.614800 0.581400 0.854450
0.763200 0.581400 0.854450
0.911600 0.581400 0.854450
1.000000 0.581400 0.854450
1.000000 0.581400 0.854450
0.021200 0.721650 0.854450
0.169600 0.721650 0.854450
0.318000 0.721650 0.854450
0.466400 0.721650 0.854450
0.614800 0.721650 0.854450
0.763200 0.721650 0.854450
0.911600 0.721650 0.854450
1.000000 0.721650 0.854450
1.000000 0.721650 0.854450
0.021200 0.861900 0.854450
0.169600 0.861900 0.854450
0.318000 0.861900 0.854450
0.466400 0.861900 0.854450
0.614800 0.861900 0.854450
0.763200 0.861900 0.854450
0.911600 0.861900 0.854450
1.000000 0.861900 0.854450
1.000000 0.861900 0.854450
0.021200 1.000000 0.854450
0.169600 1.000000 0.854450
0.318000 1.000000 0.854450
0.466400 1.000000 0.854450
0.614800 1.000000 0.854450
0.763200 1.000000 0.854450
0.911600 1.000000 0.854450
1.000000 1.000000 0.854450
1.000000 1.000000 0.854450
0.021200 1.000000 0.854450
0.169600 1.000000 0.854450
0.318000 1.000000 0.854450
0.466400 1.000000 0.854450
0.614800 1.000000 0.854450
0.763200 1.000000 0.854450
0.911600 1.000000 0.854450
1.000000 1.000000 0.854450
1.000000 1.000000 0.854450
0.021200 0.021216 0.975200
0.169600 0.021216 0.975200
0.318000 0.021216 0.975200
0.466400 0.021216 0.975200
0.614800 0.021216 0.975200
0.763200 0.021216 0.975200
0.911600 0.021216 0.975200
1.000000 0.021216 0.975200
1.000000 0.021216 0.975200
0.021200 0.167076 0.975200
0.169600 0.167076 0.975200
0.318000 0.167076 0.975200
0.466400 0.167076 0.975200
0.614800 0.167076 0.975200
0.763200 0.167076 0.975200
0.911600 0.167076 0.975200
1.000000 0.167076 0.975200
1.000000 0.167076 0.975200
0.021200 0.300900 0.975200
0.169600 0.300900 0.975200
0.318000 0.300900 0.975200
0.466400 0.300900 0.975200
0.614800 0.300900 0.975200
0.763200 0.300900 0.975200
0.911600 0.300900 0.975200
1.000000 0.300900 0.975200
1.000000 0.300900 0.975200
0.021200 0.441150 0.975200
0.169600 0.441150 0.975200
0.318000 0.441150 0.975200
0.466400 0.441150 0.975200
0.614800 0.441150 0.975200
0.763200 0.441150 0.975200
0.911600 0.441150 0.975200
1.000000 0.441150 0.975200
1.000000 0.441150 0.975200
0.021200 0.581400 0.975200
0.169600 0.581400 0.975200
0.318000 0.581400 0.975200
0.466400 0.581400 0.975200
0.614800 0.581400 0.975200
0.763200 0.581400 0.975200
0.911600 0.581400 0.975200
1.000000 0.581400 0.975200
1.000000 0.581400 0.975200
0.021200 0.721650 0.975200
0.169600 0.721650 0.975200
0.318000 0.721650 0.975200
0.466400 0.721650 0.975200
0.614800 0.721650 0.975200
0.763200 0.721650 0.975200
0.911600 0.721650 0.975200
1.000000 0.721650 0.975200
1.000000 0.721650 0.975200
0.021200 0.861900 0.975200
0.169600 0.861900 0.975200
0.318000 0.861900 0.975200
0.466400 0.861900 0.975200
0.614800 0.861900 0.975200
0.763200 0.861900 0.975200
0.911600 0.861900 0.975200
1.000000 0.861900 0.975200
1.000000 0.861900 0.975200
0.021200 1.000000 0.975200
0.169600 1.000000 0.975200
0.318000 1.000000 0.975200
0.466400 1.000000 0.975200
0.614800 1.000000 0.975200
0.763200 1.000000 0.975200
0.911600 1.000000 0.975200
1.000000 1.000000 0.975200
1.000000 1.000000 0.975200
0.021200 1.000000 0.975200
0.169600 1.000000 0.975200
0.318000 1.000000 0.975200
0.466400 1.000000 0.975200
0.614800 1.000000 0.975200
0.763200 1.000000 0.975200
0.911600 1.000000 0.975200
1.000000 1.000000 0.975200
1.000000 1.000000 0.975200
