flutter_app/assets/lut/disposable_flash.cube
TITLE "Disposable Flash"
# Generated placeholder LUT for DAZZ development
# Replace with production-grade LUT before release
LUT_3D_SIZE 33
DOMAIN_MIN 0.0 0.0 0.0
DOMAIN_MAX 1.0 1.0 1.0
0.021200 0.021216 0.009200
0.058300 0.021216 0.009200
0.095400 0.021216 0.009200
0.132500 0.021216 0.009200
0.169600 0.021216 0.009200
0.206700 0.021216 0.009200
0.243800 0.021216 0.009200
0.280900 0.021216 0.009200
0.318000 0.021216 0.009200
0.355100 0.021216 0.009200
0.392200 0.021216 0.009200
0.429300 0.021216 0.009200
0.466400 0.021216 0.009200
0.503500 0.021216 0.009200
0.540600 0.021216 0.009200
0.577700 0.021216 0.009200
0.614800 0.021216 0.009200
0.651900 0.021216 0.009200
0.689000 0.021216 0.009200
0.726100 0.021216 0.009200
0.763200 0.021216 0.009200
0.800300 0.021216 0.009200
0.837400 0.021216 0.009200
0.874500 0.021216 0.009200
0.911600 0.021216 0.009200
0.948700 0.021216 0.009200
0.985800 0.021216 0.009200
1.000000 0.021216 0.009200
1.000000 0.021216 0.009200
1.000000 0.021216 0.009200
1.000000 0.021216 0.009200
1.000000 0.021216 0.009200
1.000000 0.021216 0.009200
0.021200 0.057681 0.009200
0.058300 0.057681 0.009200
0.095400 0.057681 0.009200
0.132500 0.057681 0.009200
0.169600 0.057681 0.009200
0.206700 0.057681 0.009200
0.243800 0.057681 0.009200
0.280900 0.057681 0.009200
0.318000 0.057681 0.009200
0.355100 0.057681 0.009200
0.392200 0.057681 0.009200
0.429300 0.057681 0.009200
0.466400 0.057681 0.009200
0.503500 0.057681 0.009200
0.540600 0.057681 0.009200
0.577700 0.057681 0.009200
0.614800 0.057681 0.009200
0.651900 0.057681 0.009200
0.689000 0.057681 0.009200
0.726100 0.057681 0.009200
0.763200 0.057681 0.009200
0.800300 0.057681 0.009200
0.837400 0.057681 0.009200
0.874500 0.057681 0.009200
0.911600 0.057681 0.009200
0.948700 0.057681 0.009200
0.985800 0.057681 0.009200
1.000000 0.057681 0.009200
1.000000 0.057681 0.009200
1.000000 0.057681 0.009200
1.000000 0.057681 0.009200
1.000000 0.057681 0.009200
1.000000 0.057681 0.009200
0.021200 0.094146 0.009200
0.058300 0.094146 0.009200
0.095400 0.094146 0.009200
0.132500 0.094146 0.009200
0.169600 0.094146 0.009200
0.206700 0.094146 0.009200
0.243800 0.094146 0.009200
0.280900 0.094146 0.009200
0.318000 0.094146 0.009200
0.355100 0.094146 0.009200
0.392200 0.094146 0.009200
0.429300 0.094146 0.009200
0.466400 0.094146 0.009200
0.503500 0.094146 0.009200
0.540600 0.094146 0.009200
0.577700 0.094146 0.009200
0.614800 0.094146 0.009200
0.651900 0.094146 0.009200
0.689000 0.094146 0.009200
0.726100 0.094146 0.009200
0.763200 0.094146 0.009200
0.800300 0.094146 0.009200
0.837400 0.094146 0.009200
0.874500 0.094146 0.009200
0.911600 0.094146 0.009200
0.948700 0.094146 0.009200
0.985800 0.094146 0.009200
1.000000 0.094146 0.009200
1.000000 0.094146 0.009200
1.000000 0.094146 0.009200
1.000000 0.094146 0.009200
1.000000 0.094146 0.009200
1.000000 0.094146 0.009200
0.021200 0.130611 0.009200
0.058300 0.130611 0.009200
0.095400 0.130611 0.009200
0.132500 0.130611 0.009200
0.169600 0.130611 0.009200
0.206700 0.130611 0.009200
0.243800 0.130611 0.009200
0.280900 0.130611 0.009200
0.318000 0.130611 0.009200
0.355100 0.130611 0.009200
0.392200 0.130611 0.009200
0.429300 0.130611 0.009200
0.466400 0.130611 0.009200
0.503500 0.130611 0.009200
0.540600 0.130611 0.009200
0.577700 0.130611 0.009200
0.614800 0.130611 0.009200
0.651900 0.130611 0.009200
0.689000 0.130611 0.009200
0.726100 0.130611 0.009200
0.763200 0.130611 0.009200
0.800300 0.130611 0.009200
0.837400 0.130611 0.009200
0.874500 0.130611 0.009200
0.911600 0.130611 0.009200
0.948700 0.130611 0.009200
0.985800 0.130611 0.009200
1.000000 0.130611 0.009200
1.000000 0.130611 0.009200
1.000000 0.130611 0.009200
1.000000 0.130611 0.009200
1.000000 0.130611 0.009200
1.000000 0.130611 0.009200
0.021200 0.167076 0.009200
0.058300 0.167076 0.009200
0.095400 0.167076 0.009200
0.132500 0.167076 0.009200
0.169600 0.167076 0.009200
0.206700 0.167076 0.009200
0.243800 0.167076 0.009200
0.280900 0.167076 0.009200
0.318000 0.167076 0.009200
0.355100 0.167076 0.009200
0.392200 0.167076 0.009200
0.429300 0.167076 0.009200
0.466400 0.167076 0.009200
0.503500 0.167076 0.009200
0.540600 0.167076 0.009200
0.577700 0.167076 0.009200
0.614800 0.167076 0.009200
0.651900 0.167076 0.009200
0.689000 0.167076 0.009200
0.726100 0.167076 0.009200
0.763200 0.167076 0.009200
0.800300 0.167076 0.009200
0.837400 0.167076 0.009200
0.874500 0.167076 0.009200
0.911600 0.167076 0.009200
0.948700 0.167076 0.009200
0.985800 0.167076 0.009200
1.000000 0.167076 0.009200
1.000000 0.167076 0.009200
1.000000 0.167076 0.009200
1.000000 0.167076 0.009200
1.000000 0.167076 0.009200
1.000000 0.167076 0.009200
0.021200 0.203541 0.009200
0.058300 0.203541 0.009200
0.095400 0.203541 0.009200
0.132500 0.203541 0.009200
0.169600 0.203541 0.009200
0.206700 0.203541 0.009200
0.243800 0.203541 0.009200
0.280900 0.203541 0.009200
0.318000 0.203541 0.009200
0.355100 0.203541 0.009200
0.392200 0.203541 0.009200
0.429300 0.203541 0.009200
0.466400 0.203541 0.009200
0.503500 0.203541 0.009200
0.540600 0.203541 0.009200
0.577700 0.203541 0.009200
0.614800 0.203541 0.009200
0.651900 0.203541 0.009200
0.689000 0.203541 0.009200
0.726100 0.203541 0.009200
0.763200 0.203541 0.009200
0.800300 0.203541 0.009200
0.837400 0.203541 0.009200
0.874500 0.203541 0.009200
0.911600 0.203541 0.009200
0.948700 0.203541 0.009200
0.985800 0.203541 0.009200
1.000000 0.203541 0.009200
1.000000 0.203541 0.009200
1.000000 0.203541 0.009200
1.000000 0.203541 0.009200
1.000000 0.203541 0.009200
1.000000 0.203541 0.009200
0.021200 0.240006 0.009200
0.058300 0.240006 0.009200
0.095400 0.240006 0.009200
0.132500 0.240006 0.009200
0.169600 0.240006 0.009200
0.206700 0.240006 0.009200
0.243800 0.240006 0.009200
0.280900 0.240006 0.009200
0.318000 0.240006 0.009200
0.355100 0.240006 0.009200
0.392200 0.240006 0.009200
0.429300 0.240006 0.009200
0.466400 0.240006 0.009200
0.503500 0.240006 0.009200
0.540600 0.240006 0.009200
0.577700 0.240006 0.009200
0.614800 0.240006 0.009200
0.651900 0.240006 0.009200
0.689000 0.240006 0.009200
0.726100 0.240006 0.009200
0.763200 0.240006 0.009200
0.800300 0.240006 0.009200
0.837400 0.240006 0.009200
0.874500 0.240006 0.009200
0.911600 0.240006 0.009200
0.948700 0.240006 0.009200
0.985800 0.240006 0.009200
1.000000 0.240006 0.009200
1.000000 0.240006 0.009200
1.000000 0.240006 0.009200
1.000000 0.240006 0.009200
1.000000 0.240006 0.009200
1.000000 0.240006 0.009200
0.021200 0.276471 0.009200
0.058300 0.276471 0.009200
0.095400 0.276471 0.009200
0.132500 0.276471 0.009200
0.169600 0.276471 0.009200
0.206700 0.276471 0.009200
0.243800 0.276471 0.009200
0.280900 0.276471 0.009200
0.318000 0.276471 0.009200
0.355100 0.276471 0.009200
0.392200 0.276471 0.009200
0.429300 0.276471 0.009200
0.466400 0.276471 0.009200
0.503500 0.276471 0.009200
0.540600 0.276471 0.009200
0.577700 0.276471 0.009200
0.614800 0.276471 0.009200
0.651900 0.276471 0.009200
0.689000 0.276471 0.009200
0.726100 0.276471 0.009200
0.763200 0.276471 0.009200
0.800300 0.276471 0.009200
0.837400 0.276471 0.009200
0.874500 0.276471 0.009200
0.911600 0.276471 0.009200
0.948700 0.276471 0.009200
0.985800 0.276471 0.009200
1.000000 0.276471 0.009200
1.000000 0.276471 0.009200
1.000000 0.276471 0.009200
1.000000 0.276471 0.009200
1.000000 0.276471 0.009200
1.000000 0.276471 0.009200
0.021200 0.300900 0.009200
0.058300 0.300900 0.009200
0.095400 0.300900 0.009200
0.132500 0.300900 0.009200
0.169600 0.300900 0.009200
0.206700 0.300900 0.009200
0.243800 0.300900 0.009200
0.280900 0.300900 0.009200
0.318000 0.300900 0.009200
0.355100 0.300900 0.009200
0.392200 0.300900 0.009200
0.429300 0.300900 0.009200
0.466400 0.300900 0.009200
0.503500 0.300900 0.009200
0.540600 0.300900 0.009200
0.577700 0.300900 0.009200
0.614800 0.300900 0.009200
0.651900 0.300900 0.009200
0.689000 0.300900 0.009200
0.726100 0.300900 0.009200
0.763200 0.300900 0.009200
0.800300 0.300900 0.009200
0.837400 0.300900 0.009200
0.874500 0.300900 0.009200
0.911600 0.300900 0.009200
0.948700 0.300900 0.009200
0.985800 0.300900 0.009200
1.000000 0.300900 0.009200
1.000000 0.300900 0.009200
1.000000 0.300900 0.009200
1.000000 0.300900 0.009200
1.000000 0.300900 0.009200
1.000000 0.300900 0.009200
0.021200 0.335963 0.009200
0.058300 0.335963 0.009200
0.095400 0.335963 0.009200
0.132500 0.335963 0.009200
0.169600 0.335963 0.009200
0.206700 0.335963 0.009200
0.243800 0.335963 0.009200
0.280900 0.335963 0.009200
0.318000 0.335963 0.009200
0.355100 0.335963 0.009200
0.392200 0.335963 0.009200
0.429300 0.335963 0.009200
0.466400 0.335963 0.009200
0.503500 0.335963 0.009200
0.540600 0.335963 0.009200
0.577700 0.335963 0.009200
0.614800 0.335963 0.009200
0.651900 0.335963 0.009200
0.689000 0.335963 0.009200
0.726100 0.335963 0.009200
0.763200 0.335963 0.009200
0.800300 0.335963 0.009200
0.837400 0.335963 0.009200
0.874500 0.335963 0.009200
0.911600 0.335963 0.009200
0.948700 0.335963 0.009200
0.985800 0.335963 0.009200
1.000000 0.335963 0.009200
1.000000 0.335963 0.009200
1.000000 0.335963 0.009200
1.000000 0.335963 0.009200
1.000000 0.335963 0.009200
1.000000 0.335963 0.009200
0.021200 0.371025 0.009200
0.058300 0.371025 0.009200
0.095400 0.371025 0.009200
0.132500 0.371025 0.009200
0.169600 0.371025 0.009200
0.206700 0.371025 0.009200
0.243800 0.371025 0.009200
0.280900 0.371025 0.009200
0.318000 0.371025 0.009200
0.355100 0.371025 0.009200
0.392200 0.371025 0.009200
0.429300 0.371025 0.009200
0.466400 0.371025 0.009200
0.503500 0.371025 0.009200
0.540600 0.371025 0.009200
0.577700 0.371025 0.009200
0.614800 0.371025 0.009200
0.651900 0.371025 0.009200
0.689000 0.371025 0.009200
0.726100 0.371025 0.009200
0.763200 0.371025 0.009200
0.800300 0.371025 0.009200
0.837400 0.371025 0.009200
0.874500 0.371025 0.009200
0.911600 0.371025 0.009200
0.948700 0.371025 0.009200
0.985800 0.371025 0.009200
1.000000 0.371025 0.009200
1.000000 0.371025 0.009200
1.000000 0.371025 0.009200
1.000000 0.371025 0.009200
1.000000 0.371025 0.009200
1.000000 0.371025 0.009200
0.021200 0.406088 0.009200
0.058300 0.406088 0.009200
0.095400 0.406088 0.009200
0.132500 0.406088 0.009200
0.169600 0.406088 0.009200
0.206700 0.406088 0.009200
0.243800 0.406088 0.009200
0.280900 0.406088 0.009200
0.318000 0.406088 0.009200
0.355100 0.406088 0.009200
0.392200 0.406088 0.009200
0.429300 0.406088 0.009200
0.466400 0.406088 0.009200
0.503500 0.406088 0.009200
0.540600 0.406088 0.009200
0.577700 0.406088 0.009200
0.614800 0.406088 0.009200
0.651900 0.406088 0.009200
0.689000 0.406088 0.009200
0.726100 0.406088 0.009200
0.763200 0.406088 0.009200
0.800300 0.406088 0.009200
0.837400 0.406088 0.009200
0.874500 0.406088 0.009200
0.911600 0.406088 0.009200
0.948700 0.406088 0.009200
0.985800 0.406088 0.009200
1.000000 0.406088 0.009200
1.000000 0.406088 0.009200
1.000000 0.406088 0.009200
1.000000 0.406088 0.009200
1.000000 0.406088 0.009200
1.000000 0.406088 0.009200
0.021200 0.441150 0.009200
0.058300 0.441150 0.009200
0.095400 0.441150 0.009200
0.132500 0.441150 0.009200
0.169600 0.441150 0.009200
0.206700 0.441150 0.009200
0.243800 0.441150 0.009200
0.280900 0.441150 0.009200
0.318000 0.441150 0.009200
0.355100 0.441150 0.009200
0.392200 0.441150 0.009200
0.429300 0.441150 0.009200
0.466400 0.441150 0.009200
0.503500 0.441150 0.009200
0.540600 0.441150 0.009200
0.577700 0.441150 0.009200
0.614800 0.441150 0.009200
0.651900 0.441150 0.009200
0.689000 0.441150 0.009200
0.726100 0.441150 0.009200
0.763200 0.441150 0.009200
0.800300 0.441150 0.009200
0.837400 0.441150 0.009200
0.874500 0.441150 0.009200
0.911600 0.441150 0.009200
0.948700 0.441150 0.009200
0.985800 0.441150 0.009200
1.000000 0.441150 0.009200
1.000000 0.441150 0.009200
1.000000 0.441150 0.009200
1.000000 0.441150 0.009200
1.000000 0.441150 0.009200
1.000000 0.441150 0.009200
0.021200 0.476213 0.009200
0.058300 0.476213 0.009200
0.095400 0.476213 0.009200
0.132500 0.476213 0.009200
0.169600 0.476213 0.009200
0.206700 0.476213 0.009200
0.243800 0.476213 0.009200
0.280900 0.476213 0.009200
0.318000 0.476213 0.009200
0.355100 0.476213 0.009200
0.392200 0.476213 0.009200
0.429300 0.476213 0.009200
0.466400 0.476213 0.009200
0.503500 0.476213 0.009200
0.540600 0.476213 0.009200
0.577700 0.476213 0.009200
0.614800 0.476213 0.009200
0.651900 0.476213 0.009200
0.689000 0.476213 0.009200
0.726100 0.476213 0.009200
0.763200 0.476213 0.009200
0.800300 0.476213 0.009200
0.837400 0.476213 0.009200
0.874500 0.476213 0.009200
0.911600 0.476213 0.009200
0.948700 0.476213 0.009200
0.985800 0.476213 0.009200
1.000000 0.476213 0.009200
1.000000 0.476213 0.009200
1.000000 0.476213 0.009200
1.000000 0.476213 0.009200
1.000000 0.476213 0.009200
1.000000 0.476213 0.009200
0.021200 0.511275 0.009200
0.058300 0.511275 0.009200
0.095400 0.511275 0.009200
0.132500 0.511275 0.009200
0.169600 0.511275 0.009200
0.206700 0.511275 0.009200
0.243800 0.511275 0.009200
0.280900 0.511275 0.009200
0.318000 0.511275 0.009200
0.355100 0.511275 0.009200
0.392200 0.511275 0.009200
0.429300 0.511275 0.009200
0.466400 0.511275 0.009200
0.503500 0.511275 0.009200
0.540600 0.511275 0.009200
0.577700 0.511275 0.009200
0.614800 0.511275 0.009200
0.651900 0.511275 0.009200
0.689000 0.511275 0.009200
0.726100 0.511275 0.009200
0.763200 0.511275 0.009200
0.800300 0.511275 0.009200
0.837400 0.511275 0.009200
0.874500 0.511275 0.009200
0.911600 0.511275 0.009200
0.948700 0.511275 0.009200
0.985800 0.511275 0.009200
1.000000 0.511275 0.009200
1.000000 0.511275 0.009200
1.000000 0.511275 0.009200
1.000000 0.511275 0.009200
1.000000 0.511275 0.009200
1.000000 0.511275 0.009200
0.021200 0.546338 0.009200
0.058300 0.546338 0.009200
0.095400 0.546338 0.009200
0.132500 0.546338 0.009200
0.169600 0.546338 0.009200
0.206700 0.546338 0.009200
0.243800 0.546338 0.009200
0.280900 0.546338 0.009200
0.318000 0.546338 0.009200
0.355100 0.546338 0.009200
0.392200 0.546338 0.009200
0.429300 0.546338 0.009200
0.466400 0.546338 0.009200
0.503500 0.546338 0.009200
0.540600 0.546338 0.009200
0.577700 0.546338 0.009200
0.614800 0.546338 0.009200
0.651900 0.546338 0.009200
0.689000 0.546338 0.009200
0.726100 0.546338 0.009200
0.763200 0.546338 0.009200
0.800300 0.546338 0.009200
0.837400 0.546338 0.009200
0.874500 0.546338 0.009200
0.911600 0.546338 0.009200
0.948700 0.546338 0.009200
0.985800 0.546338 0.009200
1.000000 0.546338 0.009200
1.000000 0.546338 0.009200
1.000000 0.546338 0.009200
1.000000 0.546338 0.009200
1.000000 0.546338 0.009200
1.000000 0.546338 0.009200
0.021200 0.581400 0.009200
0.058300 0.581400 0.009200
0.095400 0.581400 0.009200
0.132500 0.581400 0.009200
0.169600 0.581400 0.009200
0.206700 0.581400 0.009200
0.243800 0.581400 0.009200
0.280900 0.581400 0.009200
0.318000 0.581400 0.009200
0.355100 0.581400 0.009200
0.392200 0.581400 0.009200
0.429300 0.581400 0.009200
0.466400 0.581400 0.009200
0.503500 0.581400 0.009200
0.540600 0.581400 0.009200
0.577700 0.581400 0.009200
0.614800 0.581400 0.009200
0.651900 0.581400 0.009200
0.689000 0.581400 0.009200
0.726100 0.581400 0.009200
0.763200 0.581400 0.009200
0.800300 0.581400 0.009200
0.837400 0.581400 0.009200
0.874500 0.581400 0.009200
0.911600 0.581400 0.009200
0.948700 0.581400 0.009200
0.985800 0.581400 0.009200
1.000000 0.581400 0.009200
1.000000 0.581400 0.009200
1.000000 0.581400 0.009200
1.000000 0.581400 0.009200
1.000000 0.581400 0.009200
1.000000 0.581400 0.009200
0.021200 0.616463 0.009200
0.058300 0.616463 0.009200
0.095400 0.616463 0.009200
0.132500 0.616463 0.009200
0.169600 0.616463 0.009200
0.206700 0.616463 0.009200
0.243800 0.616463 0.009200
0.280900 0.616463 0.009200
0.318000 0.616463 0.009200
0.355100 0.616463 0.009200
0.392200 0.616463 0.009200
0.429300 0.616463 0.009200
0.466400 0.616463 0.009200
0.503500 0.616463 0.009200
0.540600 0.616463 0.009200
0.577700 0.616463 0.009200
0.614800 0.616463 0.009200
0.651900 0.616463 0.009200
0.689000 0.616463 0.009200
0.726100 0.616463 0.009200
0.763200 0.616463 0.009200
0.800300 0.616463 0.009200
0.837400 0.616463 0.009200
0.874500 0.616463 0.009200
0.911600 0.616463 0.009200
0.948700 0.616463 0.009200
0.985800 0.616463 0.009200
1.000000 0.616463 0.009200
1.000000 0.616463 0.009200
1.000000 0.616463 0.009200
1.000000 0.616463 0.009200
1.000000 0.616463 0.009200
1.000000 0.616463 0.009200
0.021200 0.651525 0.009200
0.058300 0.651525 0.009200
0.095400 0.651525 0.009200
0.132500 0.651525 0.009200
0.169600 0.651525 0.009200
0.206700 0.651525 0.009200
0.243800 0.651525 0.009200
0.280900 0.651525 0.009200
0.318000 0.651525 0.009200
0.355100 0.651525 0.009200
0.392200 0.651525 0.009200
0.429300 0.651525 0.009200
0.466400 0.651525 0.009200
0.503500 0.651525 0.009200
0.540600 0.651525 0.009200
0.577700 0.651525 0.009200
0.614800 0.651525 0.009200
0.651900 0.651525 0.009200
0.689000 0.651525 0.009200
0.726100 0.651525 0.009200
0.763200 0.651525 0.009200
0.800300 0.651525 0.009200
0.837400 0.651525 0.009200
0.874500 0.651525 0.009200
0.911600 0.651525 0.009200
0.948700 0.651525 0.009200
0.985800 0.651525 0.009200
1.000000 0.651525 0.009200
1.000000 0.651525 0.009200
1.000000 0.651525 0.009200
1.000000 0.651525 0.009200
1.000000 0.651525 0.009200
1.000000 0.651525 0.009200
0.021200 0.686588 0.009200
0.058300 0.686588 0.009200
0.095400 0.686588 0.009200
0.132500 0.686588 0.009200
0.169600 0.686588 0.009200
0.206700 0.686588 0.009200
0.243800 0.686588 0.009200
0.280900 0.686588 0.009200
0.318000 0.686588 0.009200
0.355100 0.686588 0.009200
0.392200 0.686588 0.009200
0.429300 0.686588 0.009200
0.466400 0.686588 0.009200
0.503500 0.686588 0.009200
0.540600 0.686588 0.009200
0.577700 0.686588 0.009200
0.614800 0.686588 0.009200
0.651900 0.686588 0.009200
0.689000 0.686588 0.009200
0.726100 0.686588 0.009200
0.763200 0.686588 0.009200
0.800300 0.686588 0.009200
0.837400 0.686588 0.009200
0.874500 0.686588 0.009200
0.911600 0.686588 0.009200
0.948700 0.686588 0.009200
0.985800 0.686588 0.009200
1.000000 0.686588 0.009200
1.000000 0.686588 0.009200
1.000000 0.686588 0.009200
1.000000 0.686588 0.009200
1.000000 0.686588 0.009200
1.000000 0.686588 0.009200
0.021200 0.721650 0.009200
0.058300 0.721650 0.009200
0.095400 0.721650 0.009200
0.132500 0.721650 0.009200
0.169600 0.721650 0.009200
0.206700 0.721650 0.009200
0.243800 0.721650 0.009200
0.280900 0.721650 0.009200
0.318000 0.721650 0.009200
0.355100 0.721650 0.009200
0.392200 0.721650 0.009200
0.429300 0.721650 0.009200
0.466400 0.721650 0.009200
0.503500 0.721650 0.009200
0.540600 0.721650 0.009200
0.577700 0.721650 0.009200
0.614800 0.721650 0.009200
0.651900 0.721650 0.009200
0.689000 0.721650 0.009200
0.726100 0.721650 0.009200
0.763200 0.721650 0.009200
0.800300 0.721650 0.009200
0.837400 0.721650 0.009200
0.874500 0.721650 0.009200
0.911600 0.721650 0.009200
0.948700 0.721650 0.009200
0.985800 0.721650 0.009200
1.000000 0.721650 0.009200
1.000000 0.721650 0.009200
1.000000 0.721650 0.009200
1.000000 0.721650 0.009200
1.000000 0.721650 0.009200
1.000000 0.721650 0.009200
0.021200 0.756713 0.009200
0.058300 0.756713 0.009200
0.095400 0.756713 0.009200
0.132500 0.756713 0.009200
0.169600 0.756713 0.009200
0.206700 0.756713 0.009200
0.243800 0.756713 0.009200
0.280900 0.756713 0.009200
0.318000 0.756713 0.009200
0.355100 0.756713 0.009200
0.392200 0.756713 0.009200
0.429300 0.756713 0.009200
0.466400 0.756713 0.009200
0.503500 0.756713 0.009200
0.540600 0.756713 0.009200
0.577700 0.756713 0.009200
0.614800 0.756713 0.009200
0.651900 0.756713 0.009200
0.689000 0.756713 0.009200
0.726100 0.756713 0.009200
0.763200 0.756713 0.009200
0.800300 0.756713 0.009200
0.837400 0.756713 0.009200
0.874500 0.756713 0.009200
0.911600 0.756713 0.009200
0.948700 0.756713 0.009200
0.985800 0.756713 0.009200
1.000000 0.756713 0.009200
1.000000 0.756713 0.009200
1.000000 0.756713 0.009200
1.000000 0.756713 0.009200
1.000000 0.756713 0.009200
1.000000 0.756713 0.009200
0.021200 0.791775 0.009200
0.058300 0.791775 0.009200
0.095400 0.791775 0.009200
0.132500 0.791775 0.009200
0.169600 0.791775 0.009200
0.206700 0.791775 0.009200
0.243800 0.791775 0.009200
0.280900 0.791775 0.009200
0.318000 0.791775 0.009200
0.355100 0.791775 0.009200
0.392200 0.791775 0.009200
0.429300 0.791775 0.009200
0.466400 0.791775 0.009200
0.503500 0.791775 0.009200
0.540600 0.791775 0.009200
0.577700 0.791775 0.009200
0.614800 0.791775 0.009200
0.651900 0.791775 0.009200
0.689000 0.791775 0.009200
0.726100 0.791775 0.009200
0.763200 0.791775 0.009200
0.800300 0.791775 0.009200
0.837400 0.791775 0.009200
0.874500 0.791775 0.009200
0.911600 0.791775 0.009200
0.948700 0.791775 0.009200
0.985800 0.791775 0.009200
1.000000 0.791775 0.009200
1.000000 0.791775 0.009200
1.000000 0.791775 0.009200
1.000000 0.791775 0.009200
1.000000 0.791775 0.009200
1.000000 0.791775 0.009200
0.021200 0.826838 0.009200
0.058300 0.826838 0.009200
0.095400 0.826838 0.009200
0.132500 0.826838 0.009200
0.169600 0.826838 0.009200
0.206700 0.826838 0.009200
0.243800 0.826838 0.009200
0.280900 0.826838 0.009200
0.318000 0.826838 0.009200
0.355100 0.826838 0.009200
0.392200 0.826838 0.009200
0.429300 0.826838 0.009200
0.466400 0.826838 0.009200
0.503500 0.826838 0.009200
0.540600 0.826838 0.009200
0.577700 0.826838 0.009200
0.614800 0.826838 0.009200
0.651900 0.826838 0.009200
0.689000 0.826838 0.009200
0.726100 0.826838 0.009200
0.763200 0.826838 0.009200
0.800300 0.826838 0.009200
0.837400 0.826838 0.009200
0.874500 0.826838 0.009200
0.911600 0.826838 0.009200
0.948700 0.826838 0.009200
0.985800 0.826838 0.009200
1.000000 0.826838 0.009200
1.000000 0.826838 0.009200
1.000000 0.826838 0.009200
1.000000 0.826838 0.009200
1.000000 0.826838 0.009200
1.000000 0.826838 0.009200
0.021200 0.861900 0.009200
0.058300 0.861900 0.009200
0.095400 0.861900 0.009200
0.132500 0.861900 0.009200
0.169600 0.861900 0.009200
0.206700 0.861900 0.009200
0.243800 0.861900 0.009200
0.280900 0.861900 0.009200
0.318000 0.861900 0.009200
0.355100 0.861900 0.009200
0.392200 0.861900 0.009200
0.429300 0.861900 0.009200
0.466400 0.861900 0.009200
0.503500 0.861900 0.009200
0.540600 0.861900 0.009200
0.577700 0.861900 0.009200
0.614800 0.861900 0.009200
0.651900 0.861900 0.009200
0.689000 0.861900 0.009200
0.726100 0.861900 0.009200
0.763200 0.861900 0.009200
0.800300 0.861900 0.009200
0.837400 0.861900 0.009200
0.874500 0.861900 0.009200
0.911600 0.861900 0.009200
0.948700 0.861900 0.009200
0.985800 0.861900 0.009200
1.000000 0.861900 0.009200
1.000000 0.861900 0.009200
1.000000 0.861900 0.009200
1.000000 0.861900 0.009200
1.000000 0.861900 0.009200
1.000000 0.861900 0.009200
0.021200 0.896963 0.009200
0.058300 0.896963 0.009200
0.095400 0.896963 0.009200
0.132500 0.896963 0.009200
0.169600 0.896963 0.009200
0.206700 0.896963 0.009200
0.243800 0.896963 0.009200
0.280900 0.896963 0.009200
0.318000 0.896963 0.009200
0.355100 0.896963 0.009200
0.392200 0.896963 0.009200
0.429300 0.896963 0.009200
0.466400 0.896963 0.009200
0.503500 0.896963 0.009200
0.540600 0.896963 0.009200
0.577700 0.896963 0.009200
0.614800 0.896963 0.009200
0.651900 0.896963 0.009200
0.689000 0.896963 0.009200
0.726100 0.896963 0.009200
0.763200 0.896963 0.009200
0.800300 0.896963 0.009200
0.837400 0.896963 0.009200
0.874500 0.896963 0.009200
0.911600 0.896963 0.009200
0.948700 0.896963 0.009200
0.985800 0.896963 0.009200
1.000000 0.896963 0.009200
1.000000 0.896963 0.009200
1.000000 0.896963 0.009200
1.000000 0.896963 0.009200
1.000000 0.896963 0.009200
1.000000 0.896963 0.009200
0.021200 0.932025 0.009200
0.058300 0.932025 0.009200
0.095400 0.932025 0.009200
0.132500 0.932025 0.009200
0.169600 0.932025 0.009200
0.206700 0.932025 0.009200
0.243800 0.932025 0.009200
0.280900 0.932025 0.009200
0.318000 0.932025 0.009200
0.355100 0.932025 0.009200
0.392200 0.932025 0.009200
0.429300 0.932025 0.009200
0.466400 0.932025 0.009200
0.503500 0.932025 0.009200
0.540600 0.932025 0.009200
0.577700 0.932025 0.009200
0.614800 0.932025 0.009200
0.651900 0.932025 0.009200
0.689000 0.932025 0.009200
0.726100 0.932025 0.009200
0.763200 0.932025 0.009200
0.800300 0.932025 0.009200
0.837400 0.932025 0.009200
0.874500 0.932025 0.009200
