flutter_app/assets/lut/film_scan.cube
TITLE "Film Scan"
# Generated placeholder LUT for DAZZ development
# Replace with production-grade LUT before release
LUT_3D_SIZE 33
DOMAIN_MIN 0.0 0.0 0.0
DOMAIN_MAX 1.0 1.0 1.0
0.037953 0.010353 0.000000
0.063892 0.010130 0.000000
0.089832 0.009907 0.000000
0.115771 0.009684 0.000000
0.141711 0.009460 0.000000
0.167650 0.009237 0.000000
0.193589 0.009014 0.000000
0.219529 0.008791 0.000000
0.245468 0.008568 0.000000
0.271408 0.008345 0.002595
0.297347 0.008122 0.005822
0.324472 0.008222 0.008222
0.353970 0.008970 0.008970
0.383468 0.009717 0.009717
0.412965 0.010465 0.010465
0.442463 0.011212 0.011212
0.471960 0.011960 0.011960
0.501458 0.012707 0.012707
0.530955 0.013455 0.013455
0.560453 0.014203 0.014203
0.589950 0.014950 0.014950
0.619448 0.015698 0.015698
0.647847 0.017647 0.018797
0.675696 0.020196 0.023071
0.703546 0.022746 0.027346
0.731396 0.025296 0.031621
0.759246 0.027846 0.035896
0.787096 0.030396 0.040171
0.814946 0.032946 0.044446
0.842796 0.035496 0.048721
0.870646 0.038046 0.052996
0.898496 0.040596 0.057271
0.926346 0.043146 0.061546
0.039420 0.040570 0.000000
0.065360 0.040347 0.000000
0.091299 0.040124 0.000000
0.117239 0.039901 0.000000
0.143178 0.039678 0.000000
0.169117 0.039455 0.000000
0.195057 0.039232 0.000000
0.220996 0.039009 0.000000
0.246936 0.038786 0.000836
0.272875 0.038563 0.004063
0.298815 0.038340 0.007290
0.325940 0.038440 0.009690
0.355438 0.039188 0.010437
0.384935 0.039935 0.011185
0.414433 0.040682 0.011932
0.443930 0.041430 0.012680
0.473428 0.042178 0.013427
0.502925 0.042925 0.014175
0.532423 0.043673 0.014922
0.561920 0.044420 0.015670
0.591418 0.045167 0.016418
0.620915 0.045915 0.017165
0.649314 0.047864 0.020264
0.677164 0.050414 0.024539
0.705014 0.052964 0.028814
0.732864 0.055514 0.033089
0.760714 0.058064 0.037364
0.788564 0.060614 0.041639
0.816414 0.063164 0.045914
0.844263 0.065713 0.050188
0.872113 0.068263 0.054463
0.899963 0.070813 0.058738
0.927813 0.073363 0.063013
0.040888 0.070788 0.000000
0.066827 0.070565 0.000000
0.092767 0.070342 0.000000
0.118706 0.070119 0.000000
0.144645 0.069895 0.000000
0.170585 0.069672 0.000000
0.196524 0.069449 0.000000
0.222464 0.069226 0.000000
0.248403 0.069003 0.002303
0.274343 0.068780 0.005530
0.300282 0.068557 0.008757
0.327408 0.068657 0.011157
0.356905 0.069405 0.011905
0.386402 0.070152 0.012652
0.415900 0.070900 0.013400
0.445398 0.071647 0.014147
0.474895 0.072395 0.014895
0.504393 0.073142 0.015643
0.533890 0.073890 0.016390
0.563388 0.074637 0.017137
0.592885 0.075385 0.017885
0.622383 0.076132 0.018632
0.650782 0.078082 0.021732
0.678632 0.080631 0.026006
0.706481 0.083181 0.030281
0.734331 0.085731 0.034556
0.762181 0.088281 0.038831
0.790031 0.090831 0.043106
0.817881 0.093381 0.047381
0.845731 0.095931 0.051656
0.873581 0.098481 0.055931
0.901431 0.101031 0.060206
0.929281 0.103581 0.064481
0.042355 0.101005 0.000000
0.068295 0.100782 0.000000
0.094234 0.100559 0.000000
0.120174 0.100336 0.000000
0.146113 0.100113 0.000000
0.172052 0.099890 0.000000
0.197992 0.099667 0.000000
0.223931 0.099444 0.000544
0.249871 0.099221 0.003771
0.275810 0.098998 0.006998
0.301750 0.098775 0.010225
0.328875 0.098875 0.012625
0.358372 0.099623 0.013372
0.387870 0.100370 0.014120
0.417368 0.101117 0.014868
0.446865 0.101865 0.015615
0.476363 0.102612 0.016363
0.505860 0.103360 0.017110
0.535358 0.104107 0.017857
0.564855 0.104855 0.018605
0.594353 0.105602 0.019352
0.623850 0.106350 0.020100
0.652249 0.108299 0.023199
0.680099 0.110849 0.027474
0.707949 0.113399 0.031749
0.735799 0.115949 0.036024
0.763649 0.118499 0.040299
0.791499 0.121049 0.044574
0.819349 0.123599 0.048849
0.847198 0.126148 0.053123
0.875048 0.128698 0.057398
0.902898 0.131248 0.061673
0.930748 0.133798 0.065948
0.043823 0.131223 0.000000
0.069762 0.131000 0.000000
0.095702 0.130777 0.000000
0.121641 0.130554 0.000000
0.147581 0.130331 0.000000
0.173520 0.130107 0.000000
0.199459 0.129884 0.000000
0.225399 0.129661 0.002011
0.251338 0.129438 0.005238
0.277278 0.129215 0.008465
0.303217 0.128992 0.011692
0.330342 0.129092 0.014092
0.359840 0.129840 0.014840
0.389338 0.130587 0.015588
0.418835 0.131335 0.016335
0.448333 0.132082 0.017083
0.477830 0.132830 0.017830
0.507327 0.133578 0.018577
0.536825 0.134325 0.019325
0.566323 0.135072 0.020072
0.595820 0.135820 0.020820
0.625317 0.136567 0.021567
0.653717 0.138517 0.024667
0.681566 0.141066 0.028941
0.709416 0.143616 0.033216
0.737266 0.146166 0.037491
0.765116 0.148716 0.041766
0.792966 0.151266 0.046041
0.820816 0.153816 0.050316
0.848666 0.156366 0.054591
0.876516 0.158916 0.058866
0.904366 0.161466 0.063141
0.932216 0.164016 0.067416
0.045290 0.161440 0.000000
0.071230 0.161217 0.000000
0.097169 0.160994 0.000000
0.123109 0.160771 0.000000
0.149048 0.160548 0.000000
0.174987 0.160325 0.000000
0.200927 0.160102 0.000252
0.226866 0.159879 0.003479
0.252806 0.159656 0.006706
0.278745 0.159433 0.009933
0.304685 0.159210 0.013160
0.331810 0.159310 0.015560
0.361308 0.160057 0.016308
0.390805 0.160805 0.017055
0.420303 0.161552 0.017802
0.449800 0.162300 0.018550
0.479298 0.163048 0.019297
0.508795 0.163795 0.020045
0.538293 0.164542 0.020792
0.567790 0.165290 0.021540
0.597287 0.166038 0.022287
0.626785 0.166785 0.023035
0.655184 0.168734 0.026134
0.683034 0.171284 0.030409
0.710884 0.173834 0.034684
0.738734 0.176384 0.038959
0.766584 0.178934 0.043234
0.794434 0.181484 0.047509
0.822284 0.184034 0.051783
0.850133 0.186583 0.056058
0.877983 0.189133 0.060333
0.905833 0.191683 0.064608
0.933683 0.194233 0.068883
0.046758 0.191658 0.000000
0.072697 0.191435 0.000000
0.098637 0.191212 0.000000
0.124576 0.190989 0.000000
0.150515 0.190766 0.000000
0.176455 0.190542 0.000000
0.202394 0.190319 0.001719
0.228334 0.190096 0.004946
0.254273 0.189873 0.008173
0.280213 0.189650 0.011400
0.306152 0.189427 0.014627
0.333278 0.189527 0.017028
0.362775 0.190275 0.017775
0.392273 0.191022 0.018522
0.421770 0.191770 0.019270
0.451268 0.192518 0.020017
0.480765 0.193265 0.020765
0.510263 0.194013 0.021512
0.539760 0.194760 0.022260
0.569257 0.195508 0.023008
0.598755 0.196255 0.023755
0.628252 0.197002 0.024502
0.656652 0.198952 0.027602
0.684501 0.201501 0.031876
0.712351 0.204051 0.036151
0.740201 0.206601 0.040426
0.768051 0.209151 0.044701
0.795901 0.211701 0.048976
0.823751 0.214251 0.053251
0.851601 0.216801 0.057526
0.879451 0.219351 0.061801
0.907301 0.221901 0.066076
0.935151 0.224451 0.070351
0.048225 0.221875 0.000000
0.074165 0.221652 0.000000
0.100104 0.221429 0.000000
0.126044 0.221206 0.000000
0.151983 0.220983 0.000000
0.177922 0.220760 0.000000
0.203862 0.220537 0.003187
0.229801 0.220314 0.006414
0.255741 0.220091 0.009641
0.281680 0.219868 0.012868
0.307620 0.219645 0.016095
0.334745 0.219745 0.018495
0.364243 0.220493 0.019242
0.393740 0.221240 0.019990
0.423238 0.221988 0.020737
0.452735 0.222735 0.021485
0.482233 0.223483 0.022232
0.511730 0.224230 0.022980
0.541227 0.224977 0.023728
0.570725 0.225725 0.024475
0.600222 0.226472 0.025222
0.629720 0.227220 0.025970
0.658119 0.229169 0.029069
0.685969 0.231719 0.033344
0.713819 0.234269 0.037619
0.741669 0.236819 0.041894
0.769519 0.239369 0.046169
0.797369 0.241919 0.050444
0.825219 0.244469 0.054719
0.853068 0.247018 0.058993
0.880918 0.249568 0.063268
0.908768 0.252118 0.067543
0.936618 0.254668 0.071818
0.049693 0.252093 0.000000
0.075632 0.251870 0.000000
0.101572 0.251647 0.000000
0.127511 0.251424 0.000000
0.153450 0.251200 0.000000
0.179390 0.250977 0.001427
0.205329 0.250754 0.004654
0.231269 0.250531 0.007881
0.257208 0.250308 0.011108
0.283148 0.250085 0.014335
0.309087 0.249862 0.017562
0.336213 0.249963 0.019962
0.365710 0.250710 0.020710
0.395208 0.251458 0.021457
0.424705 0.252205 0.022205
0.454203 0.252953 0.022952
0.483700 0.253700 0.023700
0.513197 0.254447 0.024448
0.542695 0.255195 0.025195
0.572192 0.255942 0.025942
0.601690 0.256690 0.026690
0.631188 0.257437 0.027438
0.659587 0.259387 0.030537
0.687437 0.261937 0.034811
0.715286 0.264486 0.039086
0.743136 0.267036 0.043361
0.770986 0.269586 0.047636
0.798836 0.272136 0.051911
0.826686 0.274686 0.056186
0.854536 0.277236 0.060461
0.882386 0.279786 0.064736
0.910236 0.282336 0.069011
0.938086 0.284886 0.073286
0.051160 0.282310 0.000000
0.077100 0.282087 0.000000
0.103039 0.281864 0.000000
0.128979 0.281641 0.000000
0.154918 0.281418 0.000000
0.180857 0.281195 0.002895
0.206797 0.280972 0.006122
0.232736 0.280749 0.009349
0.258676 0.280526 0.012576
0.284615 0.280303 0.015803
0.310555 0.280080 0.019030
0.337680 0.280180 0.021430
0.367177 0.280927 0.022177
0.396675 0.281675 0.022925
0.426173 0.282423 0.023672
0.455670 0.283170 0.024420
0.485167 0.283917 0.025168
0.514665 0.284665 0.025915
0.544162 0.285413 0.026662
0.573660 0.286160 0.027410
0.603158 0.286907 0.028158
0.632655 0.287655 0.028905
0.661054 0.289604 0.032004
0.688904 0.292154 0.036279
0.716754 0.294704 0.040554
0.744604 0.297254 0.044829
0.772454 0.299804 0.049104
0.800304 0.302354 0.053379
0.828153 0.304903 0.057654
0.856003 0.307453 0.061928
0.883853 0.310003 0.066203
0.911703 0.312553 0.070478
0.939553 0.315103 0.074753
0.052628 0.312528 0.000000
0.078567 0.312305 0.000000
0.104507 0.312082 0.000000
0.130446 0.311859 0.000000
0.156386 0.311635 0.001136
0.182325 0.311412 0.004362
0.208264 0.311189 0.007589
0.234204 0.310966 0.010816
0.260143 0.310743 0.014043
0.286083 0.310520 0.017270
0.312022 0.310297 0.020497
0.339147 0.310397 0.022897
0.368645 0.311145 0.023645
0.398143 0.311893 0.024392
0.427640 0.312640 0.025140
0.457137 0.313387 0.025888
0.486635 0.314135 0.026635
0.516132 0.314883 0.027382
0.545630 0.315630 0.028130
0.575128 0.316377 0.028878
0.604625 0.317125 0.029625
0.634123 0.317873 0.030372
0.662522 0.319822 0.033472
0.690371 0.322371 0.037746
0.718221 0.324921 0.042021
0.746071 0.327471 0.046296
0.773921 0.330021 0.050571
0.801771 0.332571 0.054846
0.829621 0.335121 0.059121
0.857471 0.337671 0.063396
0.885321 0.340221 0.067671
0.913171 0.342771 0.071946
0.941021 0.345321 0.076221
0.054095 0.342745 0.000000
0.080035 0.342522 0.000000
0.105974 0.342299 0.000000
0.131914 0.342076 0.000000
0.157853 0.341853 0.002603
0.183792 0.341630 0.005830
0.209732 0.341407 0.009057
0.235671 0.341184 0.012284
0.261611 0.340961 0.015511
0.287550 0.340738 0.018738
0.313490 0.340515 0.021965
0.340615 0.340615 0.024365
0.370113 0.341363 0.025112
0.399610 0.342110 0.025860
0.429107 0.342857 0.026608
0.458605 0.343605 0.027355
0.488102 0.344353 0.028102
0.517600 0.345100 0.028850
0.547098 0.345847 0.029597
0.576595 0.346595 0.030345
0.606093 0.347342 0.031092
0.635590 0.348090 0.031840
0.663989 0.350039 0.034939
0.691839 0.352589 0.039214
0.719689 0.355139 0.043489
0.747539 0.357689 0.047764
0.775389 0.360239 0.052039
0.803239 0.362789 0.056314
0.831089 0.365339 0.060588
0.858938 0.367888 0.064863
0.886788 0.370438 0.069138
0.914638 0.372988 0.073413
0.942488 0.375538 0.077688
0.055563 0.372963 0.000000
0.081502 0.372740 0.000000
0.107442 0.372517 0.000000
0.133381 0.372294 0.000844
0.159320 0.372070 0.004070
0.185260 0.371847 0.007297
0.211199 0.371624 0.010524
0.237139 0.371401 0.013751
0.263078 0.371178 0.016978
0.289018 0.370955 0.020205
0.314957 0.370732 0.023432
0.342083 0.370833 0.025832
0.371580 0.371580 0.026580
0.401077 0.372327 0.027328
0.430575 0.373075 0.028075
0.460072 0.373823 0.028822
0.489570 0.374570 0.029570
0.519068 0.375317 0.030317
0.548565 0.376065 0.031065
0.578063 0.376812 0.031812
0.607560 0.377560 0.032560
0.637058 0.378308 0.033307
0.665457 0.380257 0.036407
0.693307 0.382806 0.040681
0.721156 0.385356 0.044956
0.749006 0.387906 0.049231
0.776856 0.390456 0.053506
0.804706 0.393006 0.057781
0.832556 0.395556 0.062056
0.860406 0.398106 0.066331
0.888256 0.400656 0.070606
0.916106 0.403206 0.074881
0.943956 0.405756 0.079156
0.057030 0.403180 0.000000
0.082970 0.402957 0.000000
0.108909 0.402734 0.000000
0.134849 0.402511 0.002311
0.160788 0.402288 0.005538
0.186727 0.402065 0.008765
0.212667 0.401842 0.011992
0.238606 0.401619 0.015219
0.264546 0.401396 0.018446
0.290485 0.401173 0.021673
0.316425 0.400950 0.024900
0.343550 0.401050 0.027300
0.373047 0.401798 0.028048
0.402545 0.402545 0.028795
0.432042 0.403292 0.029542
0.461540 0.404040 0.030290
0.491038 0.404788 0.031037
0.520535 0.405535 0.031785
0.550033 0.406282 0.032532
0.579530 0.407030 0.033280
0.609028 0.407778 0.034027
0.638525 0.408525 0.034775
0.666924 0.410474 0.037874
0.694774 0.413024 0.042149
0.722624 0.415574 0.046424
0.750474 0.418124 0.050699
0.778324 0.420674 0.054974
0.806174 0.423224 0.059249
0.834024 0.425774 0.063524
0.861873 0.428323 0.067798
0.889723 0.430873 0.072073
0.917573 0.433423 0.076348
0.945423 0.435973 0.080623
0.058498 0.433398 0.000000
0.084437 0.433175 0.000000
0.110377 0.432952 0.000552
0.136316 0.432729 0.003779
0.162255 0.432505 0.007005
0.188195 0.432282 0.010232
0.214134 0.432059 0.013459
0.240074 0.431836 0.016686
0.266013 0.431613 0.019913
0.291953 0.431390 0.023140
0.317892 0.431167 0.026367
0.345017 0.431268 0.028768
0.374515 0.432015 0.029515
0.404012 0.432762 0.030262
0.433510 0.433510 0.031010
0.463008 0.434258 0.031757
0.492505 0.435005 0.032505
0.522003 0.435752 0.033252
0.551500 0.436500 0.034000
0.580998 0.437248 0.034747
0.610495 0.437995 0.035495
0.639992 0.438742 0.036242
0.668392 0.440692 0.039342
0.696241 0.443242 0.043616
0.724091 0.445791 0.047891
0.751941 0.448341 0.052166
0.779791 0.450891 0.056441
0.807641 0.453441 0.060716
0.835491 0.455991 0.064991
0.863341 0.458541 0.069266
0.891191 0.461091 0.073541
0.919041 0.463641 0.077816
0.946891 0.466191 0.082091
0.059965 0.463615 0.000000
0.085905 0.463392 0.000000
0.111844 0.463169 0.002019
0.137784 0.462946 0.005246
0.163723 0.462723 0.008473
0.189662 0.462500 0.011700
0.215602 0.462277 0.014927
0.241541 0.462054 0.018154
0.267481 0.461831 0.021381
0.293420 0.461608 0.024608
0.319360 0.461385 0.027835
0.346485 0.461485 0.030235
0.375982 0.462232 0.030982
0.405480 0.462980 0.031730
0.434978 0.463728 0.032477
0.464475 0.464475 0.033225
0.493972 0.465222 0.033972
0.523470 0.465970 0.034720
0.552968 0.466718 0.035467
0.582465 0.467465 0.036215
0.611962 0.468212 0.036963
0.641460 0.468960 0.037710
0.669859 0.470909 0.040809
0.697709 0.473459 0.045084
0.725559 0.476009 0.049359
0.753409 0.478559 0.053634
0.781259 0.481109 0.057909
0.809109 0.483659 0.062184
0.836959 0.486208 0.066459
0.864808 0.488758 0.070733
0.892658 0.491308 0.075008
0.920508 0.493858 0.079283
0.948358 0.496408 0.083558
0.061433 0.493833 0.000000
0.087372 0.493610 0.000260
0.113312 0.493387 0.003487
0.139251 0.493164 0.006714
0.165190 0.492941 0.009941
0.191130 0.492717 0.013167
0.217069 0.492494 0.016394
0.243009 0.492271 0.019621
0.268948 0.492048 0.022848
0.294888 0.491825 0.026075
0.320827 0.491602 0.029302
0.347952 0.491702 0.031702
0.377450 0.492450 0.032450
0.406948 0.493198 0.033197
0.436445 0.493945 0.033945
0.465942 0.494692 0.034692
0.495440 0.495440 0.035440
0.524938 0.496188 0.036187
0.554435 0.496935 0.036935
0.583932 0.497683 0.037683
0.613430 0.498430 0.038430
0.642927 0.499177 0.039177
0.671327 0.501127 0.042277
0.699176 0.503677 0.046551
0.727026 0.506226 0.050826
0.754876 0.508776 0.055101
0.782726 0.511326 0.059376
0.810576 0.513876 0.063651
0.838426 0.516426 0.067926
0.866276 0.518976 0.072201
0.894126 0.521526 0.076476
0.921976 0.524076 0.080751
0.949826 0.526626 0.085026
0.062900 0.524050 0.000000
0.088840 0.523827 0.001727
0.114779 0.523604 0.004954
0.140719 0.523381 0.008181
0.166658 0.523158 0.011408
0.192597 0.522935 0.014635
0.218537 0.522712 0.017862
0.244476 0.522489 0.021089
0.270416 0.522266 0.024316
0.296355 0.522043 0.027543
0.322295 0.521820 0.030770
0.349420 0.521920 0.033170
0.378918 0.522668 0.033917
0.408415 0.523415 0.034665
0.437912 0.524162 0.035412
0.467410 0.524910 0.036160
0.496908 0.525657 0.036907
0.526405 0.526405 0.037655
0.555902 0.527153 0.038402
0.585400 0.527900 0.039150
0.614897 0.528648 0.039897
0.644395 0.529395 0.040645
0.672794 0.531344 0.043744
0.700644 0.533894 0.048019
0.728494 0.536444 0.052294
0.756344 0.538994 0.056569
0.784194 0.541544 0.060844
0.812044 0.544094 0.065119
0.839894 0.546643 0.069393
0.867743 0.549193 0.073668
0.895593 0.551743 0.077943
0.923443 0.554293 0.082218
0.951293 0.556843 0.086493
0.064368 0.554268 0.000000
0.090307 0.554045 0.003195
0.116247 0.553822 0.006422
0.142186 0.553599 0.009649
0.168125 0.553376 0.012875
0.194065 0.553152 0.016102
0.220004 0.552929 0.019329
0.245944 0.552706 0.022556
0.271883 0.552483 0.025783
0.297823 0.552260 0.029010
0.323762 0.552037 0.032237
0.350888 0.552137 0.034637
0.380385 0.552885 0.035385
0.409882 0.553632 0.036132
0.439380 0.554380 0.036880
0.468878 0.555127 0.037627
0.498375 0.555875 0.038375
0.527872 0.556623 0.039123
0.557370 0.557370 0.039870
0.586867 0.558118 0.040617
0.616365 0.558865 0.041365
0.645863 0.559612 0.042112
0.674262 0.561562 0.045212
0.702111 0.564112 0.049486
0.729961 0.566661 0.053761
0.757811 0.569211 0.058036
0.785661 0.571761 0.062311
0.813511 0.574311 0.066586
0.841361 0.576861 0.070861
0.869211 0.579411 0.075136
0.897061 0.581961 0.079411
0.924911 0.584511 0.083686
0.952761 0.587061 0.087961
0.065835 0.584485 0.001435
0.091775 0.584262 0.004662
0.117714 0.584039 0.007889
0.143654 0.583816 0.011116
0.169593 0.583593 0.014343
0.195532 0.583370 0.017570
0.221472 0.583147 0.020797
0.247411 0.582924 0.024024
0.273351 0.582701 0.027251
0.299290 0.582478 0.030478
0.325230 0.582255 0.033705
0.352355 0.582355 0.036105
0.381852 0.583102 0.036852
0.411350 0.583850 0.037600
0.440848 0.584597 0.038347
0.470345 0.585345 0.039095
0.499842 0.586093 0.039842
0.529340 0.586840 0.040590
0.558837 0.587588 0.041337
0.588335 0.588335 0.042085
0.617833 0.589082 0.042832
0.647330 0.589830 0.043580
0.675729 0.591779 0.046679
0.703579 0.594329 0.050954
0.731429 0.596879 0.055229
0.759279 0.599429 0.059504
0.787129 0.601979 0.063779
0.814979 0.604529 0.068054
0.842829 0.607078 0.072329
0.870678 0.609628 0.076603
0.898528 0.612178 0.080878
0.926378 0.614728 0.085153
0.954228 0.617278 0.089428
0.067303 0.614703 0.002903
0.093242 0.614480 0.006130
0.119182 0.614257 0.009357
0.145121 0.614034 0.012584
0.171060 0.613811 0.015811
0.197000 0.613587 0.019037
0.222939 0.613364 0.022264
0.248879 0.613141 0.025491
0.274818 0.612918 0.028718
0.300758 0.612695 0.031945
0.326697 0.612472 0.035172
0.353822 0.612572 0.037572
0.383320 0.613320 0.038320
0.412818 0.614067 0.039067
0.442315 0.614815 0.039815
0.471812 0.615563 0.040563
0.501310 0.616310 0.041310
0.530807 0.617058 0.042057
0.560305 0.617805 0.042805
0.589803 0.618553 0.043552
0.619300 0.619300 0.044300
0.648798 0.620047 0.045048
0.677197 0.621997 0.048147
0.705046 0.624547 0.052422
0.732896 0.627096 0.056696
0.760746 0.629646 0.060971
0.788596 0.632196 0.065246
0.816446 0.634746 0.069521
0.844296 0.637296 0.073796
0.872146 0.639846 0.078071
0.899996 0.642396 0.082346
0.927846 0.644946 0.086621
0.955696 0.647496 0.090896
0.068770 0.644920 0.004370
0.094710 0.644697 0.007597
0.120649 0.644474 0.010824
0.146589 0.644251 0.014051
0.172528 0.644028 0.017278
0.198467 0.643805 0.020505
0.224407 0.643582 0.023732
0.250346 0.643359 0.026959
0.276286 0.643136 0.030186
0.302225 0.642913 0.033413
0.328165 0.642690 0.036640
0.355290 0.642790 0.039040
0.384788 0.643537 0.039787
0.414285 0.644285 0.040535
0.443782 0.645033 0.041282
0.473280 0.645780 0.042030
0.502777 0.646528 0.042777
0.532275 0.647275 0.043525
0.561773 0.648022 0.044272
0.591270 0.648770 0.045020
0.620768 0.649517 0.045767
0.650265 0.650265 0.046515
0.678664 0.652214 0.049614
0.706514 0.654764 0.053889
0.734364 0.657314 0.058164
0.762214 0.659864 0.062439
0.790064 0.662414 0.066714
0.817914 0.664964 0.070989
0.845764 0.667513 0.075264
0.873613 0.670063 0.079538
0.901463 0.672613 0.083813
0.929313 0.675163 0.088088
0.957163 0.677713 0.092363
0.070238 0.675138 0.005838
0.096177 0.674915 0.009065
0.122117 0.674692 0.012292
0.148056 0.674469 0.015519
0.173996 0.674246 0.018745
0.199935 0.674022 0.021972
0.225874 0.673799 0.025199
0.251814 0.673576 0.028426
0.277753 0.673353 0.031653
0.303693 0.673130 0.034880
0.329632 0.672907 0.038107
0.356758 0.673007 0.040507
0.386255 0.673755 0.041255
0.415752 0.674503 0.042002
0.445250 0.675250 0.042750
0.474747 0.675998 0.043497
0.504245 0.676745 0.044245
0.533743 0.677493 0.044992
0.563240 0.678240 0.045740
0.592738 0.678987 0.046488
0.622235 0.679735 0.047235
0.651733 0.680482 0.047982
0.680132 0.682432 0.051082
0.707981 0.684982 0.055356
0.735831 0.687531 0.059631
0.763681 0.690081 0.063906
0.791531 0.692631 0.068181
0.819381 0.695181 0.072456
0.847231 0.697731 0.076731
0.875081 0.700281 0.081006
0.902931 0.702831 0.085281
0.930781 0.705381 0.089556
0.958631 0.707931 0.093831
0.071705 0.705355 0.007305
0.097645 0.705132 0.010532
0.123584 0.704909 0.013759
0.149524 0.704686 0.016986
0.175463 0.704463 0.020213
0.201402 0.704240 0.023440
0.227342 0.704017 0.026667
0.253281 0.703794 0.029894
0.279221 0.703571 0.033121
0.305160 0.703348 0.036348
0.331100 0.703125 0.039575
0.358225 0.703225 0.041975
0.387722 0.703973 0.042722
0.417220 0.704720 0.043470
0.446717 0.705468 0.044218
0.476215 0.706215 0.044965
0.505713 0.706962 0.045712
0.535210 0.707710 0.046460
0.564708 0.708457 0.047207
0.594205 0.709205 0.047955
0.623703 0.709952 0.048702
0.653200 0.710700 0.049450
0.681599 0.712649 0.052549
0.709449 0.715199 0.056824
0.737299 0.717749 0.061099
0.765149 0.720299 0.065374
0.792999 0.722849 0.069649
0.820849 0.725399 0.073924
0.848699 0.727948 0.078198
0.876548 0.730498 0.082473
0.904398 0.733048 0.086748
0.932248 0.735598 0.091023
0.960098 0.738148 0.095298
0.073173 0.735573 0.008773
0.099112 0.735350 0.012000
0.125052 0.735127 0.015227
0.150991 0.734904 0.018454
0.176930 0.734680 0.021680
0.202870 0.734457 0.024907
0.228809 0.734234 0.028134
0.254749 0.734011 0.031361
0.280688 0.733788 0.034588
0.306628 0.733565 0.037815
0.332567 0.733342 0.041042
0.359692 0.733442 0.043442
0.389190 0.734190 0.044190
0.418687 0.734938 0.044937
0.448185 0.735685 0.045685
0.477683 0.736433 0.046432
0.507180 0.737180 0.047180
0.536678 0.737928 0.047928
0.566175 0.738675 0.048675
0.595673 0.739422 0.049422
0.625170 0.740170 0.050170
0.654667 0.740918 0.050917
0.683067 0.742867 0.054017
0.710916 0.745417 0.058291
0.738766 0.747966 0.062566
0.766616 0.750516 0.066841
0.794466 0.753066 0.071116
0.822316 0.755616 0.075391
0.850166 0.758166 0.079666
0.878016 0.760716 0.083941
0.905866 0.763266 0.088216
0.933716 0.765816 0.092491
0.961566 0.768366 0.096766
0.074640 0.765790 0.010240
0.100580 0.765567 0.013467
0.126519 0.765344 0.016694
0.152459 0.765121 0.019921
0.178398 0.764898 0.023148
0.204337 0.764675 0.026375
0.230277 0.764452 0.029602
0.256216 0.764229 0.032829
0.282156 0.764006 0.036056
0.308095 0.763783 0.039283
0.334035 0.763560 0.042510
0.361160 0.763660 0.044910
0.390657 0.764408 0.045658
0.420155 0.765155 0.046405
0.449653 0.765903 0.047152
0.479150 0.766650 0.047900
0.508648 0.767397 0.048647
0.538145 0.768145 0.049395
0.567643 0.768892 0.050142
0.597140 0.769640 0.050890
0.626637 0.770388 0.051638
0.656135 0.771135 0.052385
0.684534 0.773084 0.055484
0.712384 0.775634 0.059759
0.740234 0.778184 0.064034
0.768084 0.780734 0.068309
0.795934 0.783284 0.072584
0.823784 0.785834 0.076859
0.851634 0.788383 0.081133
0.879483 0.790933 0.085408
0.907333 0.793483 0.089683
0.935183 0.796033 0.093958
0.963033 0.798583 0.098233
0.076108 0.796008 0.011708
0.102047 0.795785 0.014935
0.127987 0.795562 0.018162
0.153926 0.795339 0.021389
0.179866 0.795115 0.024615
0.205805 0.794892 0.027842
0.231744 0.794669 0.031069
0.257684 0.794446 0.034296
0.283623 0.794223 0.037523
0.309563 0.794000 0.040750
0.335502 0.793777 0.043977
0.362627 0.793878 0.046377
0.392125 0.794625 0.047125
0.421623 0.795373 0.047872
0.451120 0.796120 0.048620
0.480618 0.796868 0.049368
0.510115 0.797615 0.050115
0.539613 0.798362 0.050862
0.569110 0.799110 0.051610
0.598607 0.799857 0.052357
0.628105 0.800605 0.053105
0.657602 0.801353 0.053852
0.686002 0.803302 0.056952
0.713851 0.805852 0.061226
