flutter_app/assets/lut/film_scan.cube
TITLE "Film Scan"
# Generated placeholder LUT for DAZZ development
# Replace with production-grade LUT before release
LUT_3D_SIZE 5
DOMAIN_MIN 0.0 0.0 0.0
DOMAIN_MAX 1.0 1.0 1.0
0.037953 0.010353 0.000000
0.245468 0.008568 0.000000
0.471960 0.011960 0.011960
0.703546 0.022746 0.027346
0.926346 0.043146 0.061546
0.049693 0.252093 0.000000
0.257208 0.250308 0.011108
0.483700 0.253700 0.023700
0.715286 0.264486 0.039086
0.938086 0.284886 0.073286
0.061433 0.493833 0.000000
0.268948 0.492048 0.022848
0.495440 0.495440 0.035440
0.727026 0.506226 0.050826
0.949826 0.526626 0.085026
0.073173 0.735573 0.008773
0.280688 0.733788 0.034588
0.507180 0.737180 0.047180
0.738766 0.747966 0.062566
0.961566 0.768366 0.096766
0.084913 0.977313 0.020513
0.292428 0.975528 0.046328
0.518920 0.978920 0.058920
0.750506 0.989706 0.074306
0.973306 1.000000 0.108506
0.040233 0.012633 0.205833
0.247748 0.010848 0.231648
0.474240 0.014240 0.244240
0.705826 0.025026 0.259626
0.928626 0.045426 0.293826
0.051973 0.254373 0.217573
0.259488 0.252588 0.243388
0.485980 0.255980 0.255980
0.717566 0.266766 0.271366
0.940366 0.287166 0.305566
0.063713 0.496113 0.229313
0.271228 0.494328 0.255128
0.497720 0.497720 0.267720
0.729306 0.508506 0.283106
0.952106 0.528906 0.317306
0.075453 0.737853 0.241053
0.282968 0.736068 0.266868
0.509460 0.739460 0.279460
0.741046 0.750246 0.294846
0.963846 0.770646 0.329046
0.087193 0.979593 0.252793
0.294708 0.977808 0.278608
0.521200 0.981200 0.291200
0.752786 0.991986 0.306586
0.975586 1.000000 0.340786
0.042513 0.014913 0.438113
0.250028 0.013128 0.463928
0.476520 0.016520 0.476520
0.708106 0.027306 0.491906
0.930906 0.047706 0.526106
0.054253 0.256653 0.449853
0.261768 0.254868 0.475668
0.488260 0.258260 0.488260
0.719846 0.269046 0.503646
0.942646 0.289446 0.537846
0.065993 0.498393 0.461593
0.273508 0.496608 0.487408
0.500000 0.500000 0.500000
0.731586 0.510786 0.515386
0.954386 0.531186 0.549586
0.077733 0.740133 0.473333
0.285248 0.738348 0.499148
0.511740 0.741740 0.511740
0.743326 0.752526 0.527126
0.966126 0.772926 0.561326
0.089473 0.981873 0.485073
0.296988 0.980088 0.510888
0.523480 0.983480 0.523480
0.755066 0.994266 0.538866
0.977866 1.000000 0.573066
0.044793 0.017193 0.670393
0.252308 0.015408 0.696208
0.478800 0.018800 0.708800
0.710386 0.029586 0.724186
0.933186 0.049986 0.758386
0.056533 0.258933 0.682133
0.264048 0.257148 0.707948
0.490540 0.260540 0.720540
0.722126 0.271326 0.735926
0.944926 0.291726 0.770126
0.068273 0.500673 0.693873
0.275788 0.498888 0.719688
0.502280 0.502280 0.732280
0.733866 0.513066 0.747666
0.956666 0.533466 0.781866
0.080013 0.742413 0.705613
0.287528 0.740628 0.731428
0.514020 0.744020 0.744020
0.745606 0.754806 0.759406
0.968406 0.775206 0.793606
0.091753 0.984153 0.717353
0.299268 0.982368 0.743168
0.525760 0.985760 0.755760
0.757346 0.996546 0.771146
0.980146 1.000000 0.805346
0.047073 0.019473 0.902673
0.254588 0.017688 0.928488
0.481080 0.021080 0.941080
0.712666 0.031866 0.956466
0.935466 0.052266 0.990666
0.058813 0.261213 0.914413
0.266328 0.259428 0.940228
0.492820 0.262820 0.952820
0.724406 0.273606 0.968206
0.947206 0.294006 1.000000
0.070553 0.502953 0.926153
0.278068 0.501168 0.951968
0.504560 0.504560 0.964560
0.736146 0.515346 0.979946
0.958946 0.535746 1.000000
0.082293 0.744693 0.937893
0.289808 0.742908 0.963708
0.516300 0.746300 0.976300
0.747886 0.757086 0.991686
0.970686 0.777486 1.000000
0.094033 0.986433 0.949633
0.301548 0.984648 0.975448
0.528040 0.988040 0.988040
0.759626 0.998826 1.000000
0.982426 1.000000 1.000000
