flutter_app/assets/lut/film_scan.cube
TITLE "Film Scan"
# Generated placeholder LUT for DAZZ development
# Replace with production-grade LUT before release
LUT_3D_SIZE 9
DOMAIN_MIN 0.0 0.0 0.0
DOMAIN_MAX 1.0 1.0 1.0
0.037953 0.010353 0.000000
0.141711 0.009460 0.000000
0.245468 0.008568 0.000000
0.353970 0.008970 0.008970
0.471960 0.011960 0.011960
0.589950 0.014950 0.014950
0.703546 0.022746 0.027346
0.814946 0.032946 0.044446
0.926346 0.043146 0.061546
0.043823 0.131223 0.000000
0.147581 0.130331 0.000000
0.251338 0.129438 0.005238
0.359840 0.129840 0.014840
0.477830 0.132830 0.017830
0.595820 0.135820 0.020820
0.709416 0.143616 0.033216
0.820816 0.153816 0.050316
0.932216 0.164016 0.067416
0.049693 0.252093 0.000000
0.153450 0.251200 0.000000
0.257208 0.250308 0.011108
0.365710 0.250710 0.020710
0.483700 0.253700 0.023700
0.601690 0.256690 0.026690
0.715286 0.264486 0.039086
0.826686 0.274686 0.056186
0.938086 0.284886 0.073286
0.055563 0.372963 0.000000
0.159320 0.372070 0.004070
0.263078 0.371178 0.016978
0.371580 0.371580 0.026580
0.489570 0.374570 0.029570
0.607560 0.377560 0.032560
0.721156 0.385356 0.044956
0.832556 0.395556 0.062056
0.943956 0.405756 0.079156
0.061433 0.493833 0.000000
0.165190 0.492941 0.009941
0.268948 0.492048 0.022848
0.377450 0.492450 0.032450
0.495440 0.495440 0.035440
0.613430 0.498430 0.038430
0.727026 0.506226 0.050826
0.838426 0.516426 0.067926
0.949826 0.526626 0.085026
0.067303 0.614703 0.002903
0.171060 0.613811 0.015811
0.274818 0.612918 0.028718
0.383320 0.613320 0.038320
0.501310 0.616310 0.041310
0.619300 0.619300 0.044300
0.732896 0.627096 0.056696
0.844296 0.637296 0.073796
0.955696 0.647496 0.090896
0.073173 0.735573 0.008773
0.176930 0.734680 0.021680
0.280688 0.733788 0.034588
0.389190 0.734190 0.044190
0.507180 0.737180 0.047180
0.625170 0.740170 0.050170
0.738766 0.747966 0.062566
0.850166 0.758166 0.079666
0.961566 0.768366 0.096766
0.079043 0.856443 0.014643
0.182800 0.855550 0.027550
0.286558 0.854658 0.040458
0.395060 0.855060 0.050060
0.513050 0.858050 0.053050
0.631040 0.861040 0.056040
0.744636 0.868836 0.068436
0.856036 0.879036 0.085536
0.967436 0.889236 0.102636
0.084913 0.977313 0.020513
0.188671 0.976421 0.033420
0.292428 0.975528 0.046328
0.400930 0.975930 0.055930
0.518920 0.978920 0.058920
0.636910 0.981910 0.061910
0.750506 0.989706 0.074306
0.861906 0.999906 0.091406
0.973306 1.000000 0.108506
0.039093 0.011493 0.089693
0.142850 0.010600 0.102600
0.246608 0.009708 0.115508
0.355110 0.010110 0.125110
0.473100 0.013100 0.128100
0.591090 0.016090 0.131090
0.704686 0.023886 0.143486
0.816086 0.034086 0.160586
0.927486 0.044286 0.177686
0.044963 0.132363 0.095563
0.148721 0.131471 0.108470
0.252478 0.130578 0.121378
0.360980 0.130980 0.130980
0.478970 0.133970 0.133970
0.596960 0.136960 0.136960
0.710556 0.144756 0.149356
0.821956 0.154956 0.166456
0.933356 0.165156 0.183556
0.050833 0.253233 0.101433
0.154590 0.252340 0.114340
0.258348 0.251448 0.127248
0.366850 0.251850 0.136850
0.484840 0.254840 0.139840
0.602830 0.257830 0.142830
0.716426 0.265626 0.155226
0.827826 0.275826 0.172326
0.939226 0.286026 0.189426
0.056703 0.374103 0.107303
0.160461 0.373211 0.120210
0.264218 0.372318 0.133118
0.372720 0.372720 0.142720
0.490710 0.375710 0.145710
0.608700 0.378700 0.148700
0.722296 0.386496 0.161096
0.833696 0.396696 0.178196
0.945096 0.406896 0.195296
0.062573 0.494973 0.113173
0.166330 0.494080 0.126081
0.270088 0.493188 0.138988
0.378590 0.493590 0.148590
0.496580 0.496580 0.151580
0.614570 0.499570 0.154570
0.728166 0.507366 0.166966
0.839566 0.517566 0.184066
0.950966 0.527766 0.201166
0.068443 0.615843 0.119043
0.172201 0.614950 0.131950
0.275958 0.614058 0.144858
0.384460 0.614460 0.154460
0.502450 0.617450 0.157450
0.620440 0.620440 0.160440
0.734036 0.628236 0.172836
0.845436 0.638436 0.189936
0.956836 0.648636 0.207036
0.074313 0.736713 0.124913
0.178071 0.735820 0.137821
0.281828 0.734928 0.150728
0.390330 0.735330 0.160330
0.508320 0.738320 0.163320
0.626310 0.741310 0.166310
0.739906 0.749106 0.178706
0.851306 0.759306 0.195806
0.962706 0.769506 0.212906
0.080183 0.857583 0.130783
0.183941 0.856691 0.143690
0.287698 0.855798 0.156598
0.396200 0.856200 0.166200
0.514190 0.859190 0.169190
0.632180 0.862180 0.172180
0.745776 0.869976 0.184576
0.857176 0.880176 0.201676
0.968576 0.890376 0.218776
0.086053 0.978453 0.136653
0.189810 0.977561 0.149560
0.293568 0.976668 0.162468
0.402070 0.977070 0.172070
0.520060 0.980060 0.175060
0.638050 0.983050 0.178050
0.751646 0.990846 0.190446
0.863046 1.000000 0.207546
0.974446 1.000000 0.224646
0.040233 0.012633 0.205833
0.143990 0.011741 0.218741
0.247748 0.010848 0.231648
0.356250 0.011250 0.241250
0.474240 0.014240 0.244240
0.592230 0.017230 0.247230
0.705826 0.025026 0.259626
0.817226 0.035226 0.276726
0.928626 0.045426 0.293826
0.046103 0.133503 0.211703
0.149861 0.132611 0.224611
0.253618 0.131718 0.237518
0.362120 0.132120 0.247120
0.480110 0.135110 0.250110
0.598100 0.138100 0.253100
0.711696 0.145896 0.265496
0.823096 0.156096 0.282596
0.934496 0.166296 0.299696
0.051973 0.254373 0.217573
0.155730 0.253480 0.230481
0.259488 0.252588 0.243388
0.367990 0.252990 0.252990
0.485980 0.255980 0.255980
0.603970 0.258970 0.258970
0.717566 0.266766 0.271366
0.828966 0.276966 0.288466
0.940366 0.287166 0.305566
0.057843 0.375243 0.223443
0.161600 0.374350 0.236351
0.265358 0.373458 0.249258
0.373860 0.373860 0.258860
0.491850 0.376850 0.261850
0.609840 0.379840 0.264840
0.723436 0.387636 0.277236
0.834836 0.397836 0.294336
0.946236 0.408036 0.311436
0.063713 0.496113 0.229313
0.167470 0.495220 0.242221
0.271228 0.494328 0.255128
0.379730 0.494730 0.264730
0.497720 0.497720 0.267720
0.615710 0.500710 0.270710
0.729306 0.508506 0.283106
0.840706 0.518706 0.300206
0.952106 0.528906 0.317306
0.069583 0.616983 0.235183
0.173341 0.616090 0.248090
0.277098 0.615198 0.260998
0.385600 0.615600 0.270600
0.503590 0.618590 0.273590
0.621580 0.621580 0.276580
0.735176 0.629376 0.288976
0.846576 0.639576 0.306076
0.957976 0.649776 0.323176
0.075453 0.737853 0.241053
0.179210 0.736961 0.253960
0.282968 0.736068 0.266868
0.391470 0.736470 0.276470
0.509460 0.739460 0.279460
0.627450 0.742450 0.282450
0.741046 0.750246 0.294846
0.852446 0.760446 0.311946
0.963846 0.770646 0.329046
0.081323 0.858723 0.246923
0.185080 0.857830 0.259830
0.288838 0.856938 0.272738
0.397340 0.857340 0.282340
0.515330 0.860330 0.285330
0.633320 0.863320 0.288320
0.746916 0.871116 0.300716
0.858316 0.881316 0.317816
0.969716 0.891516 0.334916
0.087193 0.979593 0.252793
0.190950 0.978701 0.265701
0.294708 0.977808 0.278608
0.403210 0.978210 0.288210
0.521200 0.981200 0.291200
0.639190 0.984190 0.294190
0.752786 0.991986 0.306586
0.864186 1.000000 0.323686
0.975586 1.000000 0.340786
0.041373 0.013773 0.321973
0.145130 0.012881 0.334881
0.248888 0.011988 0.347788
0.357390 0.012390 0.357390
0.475380 0.015380 0.360380
0.593370 0.018370 0.363370
0.706966 0.026166 0.375766
0.818366 0.036366 0.392866
0.929766 0.046566 0.409966
0.047243 0.134643 0.327843
0.151000 0.133750 0.340751
0.254758 0.132858 0.353658
0.363260 0.133260 0.363260
0.481250 0.136250 0.366250
0.599240 0.139240 0.369240
0.712836 0.147036 0.381636
0.824236 0.157236 0.398736
0.935636 0.167436 0.415836
0.053113 0.255513 0.333713
0.156870 0.254620 0.346620
0.260628 0.253728 0.359528
0.369130 0.254130 0.369130
0.487120 0.257120 0.372120
0.605110 0.260110 0.375110
0.718706 0.267906 0.387506
0.830106 0.278106 0.404606
0.941506 0.288306 0.421706
0.058983 0.376383 0.339583
0.162740 0.375490 0.352490
0.266498 0.374598 0.365398
0.375000 0.375000 0.375000
0.492990 0.377990 0.377990
0.610980 0.380980 0.380980
0.724576 0.388776 0.393376
0.835976 0.398976 0.410476
0.947376 0.409176 0.427576
0.064853 0.497253 0.345453
0.168610 0.496360 0.358361
0.272368 0.495468 0.371268
0.380870 0.495870 0.380870
0.498860 0.498860 0.383860
0.616850 0.501850 0.386850
0.730446 0.509646 0.399246
0.841846 0.519846 0.416346
0.953246 0.530046 0.433446
0.070723 0.618123 0.351323
0.174480 0.617231 0.364231
0.278238 0.616338 0.377138
0.386740 0.616740 0.386740
0.504730 0.619730 0.389730
0.622720 0.622720 0.392720
0.736316 0.630516 0.405116
0.847716 0.640716 0.422216
0.959116 0.650916 0.439316
0.076593 0.738993 0.357193
0.180351 0.738101 0.370100
0.284108 0.737208 0.383008
0.392610 0.737610 0.392610
0.510600 0.740600 0.395600
0.628590 0.743590 0.398590
0.742186 0.751386 0.410986
0.853586 0.761586 0.428086
0.964986 0.771786 0.445186
0.082463 0.859863 0.363063
0.186221 0.858970 0.375970
0.289978 0.858078 0.388878
0.398480 0.858480 0.398480
0.516470 0.861470 0.401470
0.634460 0.864460 0.404460
0.748056 0.872256 0.416856
0.859456 0.882456 0.433956
0.970856 0.892656 0.451056
0.088333 0.980733 0.368933
0.192090 0.979841 0.381840
0.295848 0.978948 0.394748
0.404350 0.979350 0.404350
0.522340 0.982340 0.407340
0.640330 0.985330 0.410330
0.753926 0.993126 0.422726
0.865326 1.000000 0.439826
0.976726 1.000000 0.456926
0.042513 0.014913 0.438113
0.146270 0.014021 0.451021
0.250028 0.013128 0.463928
0.358530 0.013530 0.473530
0.476520 0.016520 0.476520
0.594510 0.019510 0.479510
0.708106 0.027306 0.491906
0.819506 0.037506 0.509006
0.930906 0.047706 0.526106
0.048383 0.135783 0.443983
0.152140 0.134890 0.456891
0.255898 0.133998 0.469798
0.364400 0.134400 0.479400
0.482390 0.137390 0.482390
0.600380 0.140380 0.485380
0.713976 0.148176 0.497776
0.825376 0.158376 0.514876
0.936776 0.168576 0.531976
0.054253 0.256653 0.449853
0.158010 0.255761 0.462761
0.261768 0.254868 0.475668
0.370270 0.255270 0.485270
0.488260 0.258260 0.488260
0.606250 0.261250 0.491250
0.719846 0.269046 0.503646
0.831246 0.279246 0.520746
0.942646 0.289446 0.537846
0.060123 0.377523 0.455723
0.163880 0.376630 0.468631
0.267638 0.375738 0.481538
0.376140 0.376140 0.491140
0.494130 0.379130 0.494130
0.612120 0.382120 0.497120
0.725716 0.389916 0.509516
0.837116 0.400116 0.526616
0.948516 0.410316 0.543716
0.065993 0.498393 0.461593
0.169750 0.497501 0.474500
0.273508 0.496608 0.487408
0.382010 0.497010 0.497010
0.500000 0.500000 0.500000
0.617990 0.502990 0.502990
0.731586 0.510786 0.515386
0.842986 0.520986 0.532486
0.954386 0.531186 0.549586
0.071863 0.619263 0.467463
0.175621 0.618370 0.480371
0.279378 0.617478 0.493278
0.387880 0.617880 0.502880
0.505870 0.620870 0.505870
0.623860 0.623860 0.508860
0.737456 0.631656 0.521256
0.848856 0.641856 0.538356
0.960256 0.652056 0.555456
0.077733 0.740133 0.473333
0.181490 0.739240 0.486241
0.285248 0.738348 0.499148
0.393750 0.738750 0.508750
0.511740 0.741740 0.511740
0.629730 0.744730 0.514730
0.743326 0.752526 0.527126
0.854726 0.762726 0.544226
0.966126 0.772926 0.561326
0.083603 0.861003 0.479203
0.187360 0.860111 0.492111
0.291118 0.859218 0.505018
0.399620 0.859620 0.514620
0.517610 0.862610 0.517610
0.635600 0.865600 0.520600
0.749196 0.873396 0.532996
0.860596 0.883596 0.550096
0.971996 0.893796 0.567196
0.089473 0.981873 0.485073
0.193230 0.980981 0.497980
0.296988 0.980088 0.510888
0.405490 0.980490 0.520490
0.523480 0.983480 0.523480
0.641470 0.986470 0.526470
0.755066 0.994266 0.538866
0.866466 1.000000 0.555966
0.977866 1.000000 0.573066
0.043653 0.016053 0.554253
0.147410 0.015160 0.567160
0.251168 0.014268 0.580068
0.359670 0.014670 0.589670
0.477660 0.017660 0.592660
0.595650 0.020650 0.595650
0.709246 0.028446 0.608046
0.820646 0.038646 0.625146
0.932046 0.048846 0.642246
0.049523 0.136923 0.560123
0.153280 0.136030 0.573030
0.257038 0.135138 0.585938
0.365540 0.135540 0.595540
0.483530 0.138530 0.598530
0.601520 0.141520 0.601520
0.715116 0.149316 0.613916
0.826516 0.159516 0.631016
0.937916 0.169716 0.648116
0.055393 0.257793 0.565993
0.159150 0.256900 0.578901
0.262908 0.256008 0.591808
0.371410 0.256410 0.601410
0.489400 0.259400 0.604400
0.607390 0.262390 0.607390
0.720986 0.270186 0.619786
0.832386 0.280386 0.636886
0.943786 0.290586 0.653986
0.061263 0.378663 0.571863
0.165020 0.377771 0.584770
0.268778 0.376878 0.597678
0.377280 0.377280 0.607280
0.495270 0.380270 0.610270
0.613260 0.383260 0.613260
0.726856 0.391056 0.625656
0.838256 0.401256 0.642756
0.949656 0.411456 0.659856
0.067133 0.499533 0.577733
0.170891 0.498640 0.590640
0.274648 0.497748 0.603548
0.383150 0.498150 0.613150
0.501140 0.501140 0.616140
0.619130 0.504130 0.619130
0.732726 0.511926 0.631526
0.844126 0.522126 0.648626
0.955526 0.532326 0.665726
0.073003 0.620403 0.583603
0.176760 0.619510 0.596510
0.280518 0.618618 0.609418
0.389020 0.619020 0.619020
0.507010 0.622010 0.622010
0.625000 0.625000 0.625000
0.738596 0.632796 0.637396
0.849996 0.642996 0.654496
0.961396 0.653196 0.671596
0.078873 0.741273 0.589473
0.182631 0.740380 0.602380
0.286388 0.739488 0.615288
0.394890 0.739890 0.624890
0.512880 0.742880 0.627880
0.630870 0.745870 0.630870
0.744466 0.753666 0.643266
0.855866 0.763866 0.660366
0.967266 0.774066 0.677466
0.084743 0.862143 0.595343
0.188501 0.861250 0.608250
0.292258 0.860358 0.621158
0.400760 0.860760 0.630760
0.518750 0.863750 0.633750
0.636740 0.866740 0.636740
0.750336 0.874536 0.649136
0.861736 0.884736 0.666236
0.973136 0.894936 0.683336
0.090613 0.983013 0.601213
0.194371 0.982121 0.614120
0.298128 0.981228 0.627028
0.406630 0.981630 0.636630
0.524620 0.984620 0.639620
0.642610 0.987610 0.642610
0.756206 0.995406 0.655006
0.867606 1.000000 0.672106
0.979006 1.000000 0.689206
0.044793 0.017193 0.670393
0.148551 0.016300 0.683300
0.252308 0.015408 0.696208
0.360810 0.015810 0.705810
0.478800 0.018800 0.708800
0.596790 0.021790 0.711790
0.710386 0.029586 0.724186
0.821786 0.039786 0.741286
0.933186 0.049986 0.758386
0.050663 0.138063 0.676263
0.154420 0.137171 0.689171
0.258178 0.136278 0.702078
0.366680 0.136680 0.711680
0.484670 0.139670 0.714670
0.602660 0.142660 0.717660
0.716256 0.150456 0.730056
0.827656 0.160656 0.747156
0.939056 0.170856 0.764256
0.056533 0.258933 0.682133
0.160291 0.258041 0.695040
0.264048 0.257148 0.707948
0.372550 0.257550 0.717550
0.490540 0.260540 0.720540
0.608530 0.263530 0.723530
0.722126 0.271326 0.735926
0.833526 0.281526 0.753026
0.944926 0.291726 0.770126
0.062403 0.379803 0.688003
0.166160 0.378910 0.700910
0.269918 0.378018 0.713818
0.378420 0.378420 0.723420
0.496410 0.381410 0.726410
0.614400 0.384400 0.729400
0.727996 0.392196 0.741796
0.839396 0.402396 0.758896
0.950796 0.412596 0.775996
0.068273 0.500673 0.693873
0.172030 0.499780 0.706781
0.275788 0.498888 0.719688
0.384290 0.499290 0.729290
0.502280 0.502280 0.732280
0.620270 0.505270 0.735270
0.733866 0.513066 0.747666
0.845266 0.523266 0.764766
0.956666 0.533466 0.781866
0.074143 0.621543 0.699743
0.177900 0.620650 0.712650
0.281658 0.619758 0.725558
0.390160 0.620160 0.735160
0.508150 0.623150 0.738150
0.626140 0.626140 0.741140
0.739736 0.633936 0.753536
0.851136 0.644136 0.770636
0.962536 0.654336 0.787736
0.080013 0.742413 0.705613
0.183771 0.741521 0.718520
0.287528 0.740628 0.731428
0.396030 0.741030 0.741030
0.514020 0.744020 0.744020
0.632010 0.747010 0.747010
0.745606 0.754806 0.759406
0.857006 0.765006 0.776506
0.968406 0.775206 0.793606
0.085883 0.863283 0.711483
0.189640 0.862390 0.724390
0.293398 0.861498 0.737298
0.401900 0.861900 0.746900
0.519890 0.864890 0.749890
0.637880 0.867880 0.752880
0.751476 0.875676 0.765276
0.862876 0.885876 0.782376
0.974276 0.896076 0.799476
0.091753 0.984153 0.717353
0.195511 0.983261 0.730260
0.299268 0.982368 0.743168
0.407770 0.982770 0.752770
0.525760 0.985760 0.755760
0.643750 0.988750 0.758750
0.757346 0.996546 0.771146
0.868746 1.000000 0.788246
0.980146 1.000000 0.805346
0.045933 0.018333 0.786533
0.149691 0.017440 0.799440
0.253448 0.016548 0.812348
0.361950 0.016950 0.821950
0.479940 0.019940 0.824940
0.597930 0.022930 0.827930
0.711526 0.030726 0.840326
0.822926 0.040926 0.857426
0.934326 0.051126 0.874526
0.051803 0.139203 0.792403
0.155560 0.138311 0.805311
0.259318 0.137418 0.818218
0.367820 0.137820 0.827820
0.485810 0.140810 0.830810
0.603800 0.143800 0.833800
0.717396 0.151596 0.846196
0.828796 0.161796 0.863296
0.940196 0.171996 0.880396
0.057673 0.260073 0.798273
0.161430 0.259180 0.811180
0.265188 0.258288 0.824088
0.373690 0.258690 0.833690
0.491680 0.261680 0.836680
0.609670 0.264670 0.839670
0.723266 0.272466 0.852066
0.834666 0.282666 0.869166
0.946066 0.292866 0.886266
0.063543 0.380943 0.804143
0.167300 0.380050 0.817050
0.271058 0.379158 0.829958
0.379560 0.379560 0.839560
0.497550 0.382550 0.842550
0.615540 0.385540 0.845540
0.729136 0.393336 0.857936
0.840536 0.403536 0.875036
0.951936 0.413736 0.892136
0.069413 0.501813 0.810013
0.173170 0.500920 0.822920
0.276928 0.500028 0.835828
0.385430 0.500430 0.845430
0.503420 0.503420 0.848420
0.621410 0.506410 0.851410
0.735006 0.514206 0.863806
0.846406 0.524406 0.880906
0.957806 0.534606 0.898006
0.075283 0.622683 0.815883
0.179040 0.621791 0.828790
0.282798 0.620898 0.841698
0.391300 0.621300 0.851300
0.509290 0.624290 0.854290
0.627280 0.627280 0.857280
0.740876 0.635076 0.869676
0.852276 0.645276 0.886776
0.963676 0.655476 0.903876
0.081153 0.743553 0.821753
0.184910 0.742660 0.834661
0.288668 0.741768 0.847568
0.397170 0.742170 0.857170
0.515160 0.745160 0.860160
0.633150 0.748150 0.863150
0.746746 0.755946 0.875546
0.858146 0.766146 0.892646
0.969546 0.776346 0.909746
0.087023 0.864423 0.827623
0.190781 0.863530 0.840530
0.294538 0.862638 0.853438
0.403040 0.863040 0.863040
0.521030 0.866030 0.866030
0.639020 0.869020 0.869020
0.752616 0.876816 0.881416
0.864016 0.887016 0.898516
0.975416 0.897216 0.915616
0.092893 0.985293 0.833493
0.196650 0.984401 0.846401
0.300408 0.983508 0.859308
0.408910 0.983910 0.868910
0.526900 0.986900 0.871900
0.644890 0.989890 0.874890
0.758486 0.997686 0.887286
0.869886 1.000000 0.904386
0.981286 1.000000 0.921486
0.047073 0.019473 0.902673
0.150831 0.018580 0.915581
0.254588 0.017688 0.928488
0.363090 0.018090 0.938090
0.481080 0.021080 0.941080
0.599070 0.024070 0.944070
0.712666 0.031866 0.956466
0.824066 0.042066 0.973566
0.935466 0.052266 0.990666
0.052943 0.140343 0.908543
0.156700 0.139451 0.921450
0.260458 0.138558 0.934358
0.368960 0.138960 0.943960
0.486950 0.141950 0.946950
0.604940 0.144940 0.949940
0.718536 0.152736 0.962336
0.829936 0.162936 0.979436
0.941336 0.173136 0.996536
0.058813 0.261213 0.914413
0.162570 0.260320 0.927320
0.266328 0.259428 0.940228
0.374830 0.259830 0.949830
0.492820 0.262820 0.952820
0.610810 0.265810 0.955810
0.724406 0.273606 0.968206
0.835806 0.283806 0.985306
0.947206 0.294006 1.000000
0.064683 0.382083 0.920283
0.168440 0.381190 0.933190
0.272198 0.380298 0.946098
0.380700 0.380700 0.955700
0.498690 0.383690 0.958690
0.616680 0.386680 0.961680
0.730276 0.394476 0.974076
0.841676 0.404676 0.991176
0.953076 0.414876 1.000000
0.070553 0.502953 0.926153
0.174311 0.502061 0.939060
0.278068 0.501168 0.951968
0.386570 0.501570 0.961570
0.504560 0.504560 0.964560
0.622550 0.507550 0.967550
0.736146 0.515346 0.979946
0.847546 0.525546 0.997046
0.958946 0.535746 1.000000
0.076423 0.623823 0.932023
0.180181 0.622930 0.944930
0.283938 0.622038 0.957838
0.392440 0.622440 0.967440
0.510430 0.625430 0.970430
0.628420 0.628420 0.973420
0.742016 0.636216 0.985816
0.853416 0.646416 1.000000
0.964816 0.656616 1.000000
0.082293 0.744693 0.937893
0.186051 0.743800 0.950800
0.289808 0.742908 0.963708
0.398310 0.743310 0.973310
0.516300 0.746300 0.976300
0.634290 0.749290 0.979290
0.747886 0.757086 0.991686
0.859286 0.767286 1.000000
0.970686 0.777486 1.000000
0.088163 0.865563 0.943763
0.191920 0.864671 0.956670
0.295678 0.863778 0.969578
0.404180 0.864180 0.979180
0.522170 0.867170 0.982170
0.640160 0.870160 0.985160
0.753756 0.877956 0.997556
0.865156 0.888156 1.000000
0.976556 0.898356 1.000000
0.094033 0.986433 0.949633
0.197790 0.985541 0.962541
0.301548 0.984648 0.975448
0.410050 0.985050 0.985050
0.528040 0.988040 0.988040
0.646030 0.991030 0.991030
0.759626 0.998826 1.000000
0.871026 1.000000 1.000000
0.982426 1.000000 1.000000
