flutter_app/assets/lut/instant_polaroid.cube
TITLE "Instant Polaroid"
# Generated placeholder LUT for DAZZ development
# Replace with production-grade LUT before release
LUT_3D_SIZE 33
DOMAIN_MIN 0.0 0.0 0.0
DOMAIN_MAX 1.0 1.0 1.0
0.078964 0.091264 0.102088
0.099935 0.092555 0.103379
0.120907 0.093847 0.104671
0.141879 0.095139 0.105963
0.162850 0.096430 0.107254
0.183822 0.097722 0.108546
0.204794 0.099014 0.109838
0.225765 0.100305 0.111129
0.246737 0.101597 0.112421
0.267709 0.102889 0.113713
0.288680 0.104180 0.115004
0.309652 0.105472 0.116296
0.330624 0.106764 0.117588
0.351595 0.108055 0.118879
0.372567 0.109347 0.120171
0.393539 0.110639 0.121463
0.414510 0.111930 0.122754
0.435482 0.113222 0.124046
0.456454 0.114514 0.125338
0.477425 0.115805 0.126629
0.498397 0.117097 0.127921
0.519369 0.118389 0.129213
0.540341 0.119681 0.130505
0.561312 0.120972 0.131796
0.582284 0.122264 0.133088
0.603256 0.123556 0.134380
0.624227 0.124847 0.135671
0.645199 0.126139 0.136963
0.666171 0.127431 0.138255
0.687142 0.128722 0.139546
0.708114 0.130014 0.140838
0.729086 0.131306 0.142130
0.750057 0.132597 0.143421
0.081658 0.114868 0.104782
0.102630 0.116160 0.106074
0.123601 0.117451 0.107365
0.144573 0.118743 0.108657
0.165545 0.120035 0.109949
0.186516 0.121326 0.111240
0.207488 0.122618 0.112532
0.228460 0.123910 0.113824
0.249431 0.125201 0.115115
0.270403 0.126493 0.116407
0.291375 0.127785 0.117699
0.312346 0.129076 0.118990
0.333318 0.130368 0.120282
0.354290 0.131660 0.121574
0.375261 0.132951 0.122865
0.396233 0.134243 0.124157
0.417205 0.135535 0.125449
0.438176 0.136826 0.126740
0.459148 0.138118 0.128032
0.480120 0.139410 0.129324
0.501091 0.140701 0.130615
0.522063 0.141993 0.131907
0.543035 0.143285 0.133199
0.564007 0.144577 0.134491
0.584978 0.145868 0.135782
0.605950 0.147160 0.137074
0.626922 0.148452 0.138366
0.647893 0.149743 0.139657
0.668865 0.151035 0.140949
0.689837 0.152327 0.142241
0.710808 0.153618 0.143532
0.731780 0.154910 0.144824
0.752752 0.156202 0.146116
0.084352 0.138472 0.107476
0.105324 0.139764 0.108768
0.126296 0.141056 0.110060
0.147267 0.142347 0.111351
0.168239 0.143639 0.112643
0.189211 0.144931 0.113935
0.210182 0.146222 0.115226
0.231154 0.147514 0.116518
0.252126 0.148806 0.117810
0.273097 0.150097 0.119101
0.294069 0.151389 0.120393
0.315041 0.152681 0.121685
0.336012 0.153972 0.122976
0.356984 0.155264 0.124268
0.377956 0.156556 0.125560
0.398927 0.157847 0.126851
0.419899 0.159139 0.128143
0.440871 0.160431 0.129435
0.461842 0.161722 0.130726
0.482814 0.163014 0.132018
0.503786 0.164306 0.133310
0.524758 0.165598 0.134602
0.545729 0.166889 0.135893
0.566701 0.168181 0.137185
0.587673 0.169473 0.138477
0.608644 0.170764 0.139768
0.629616 0.172056 0.141060
0.650588 0.173348 0.142352
0.671559 0.174639 0.143643
0.692531 0.175931 0.144935
0.713503 0.177223 0.146227
0.734474 0.178514 0.147518
0.755446 0.179806 0.148810
0.087047 0.162077 0.110171
0.108018 0.163368 0.111462
0.128990 0.164660 0.112754
0.149962 0.165952 0.114046
0.170933 0.167243 0.115337
0.191905 0.168535 0.116629
0.212877 0.169827 0.117921
0.233848 0.171118 0.119212
0.254820 0.172410 0.120504
0.275792 0.173702 0.121796
0.296763 0.174993 0.123087
0.317735 0.176285 0.124379
0.338707 0.177577 0.125671
0.359678 0.178868 0.126962
0.380650 0.180160 0.128254
0.401622 0.181452 0.129546
0.422593 0.182743 0.130837
0.443565 0.184035 0.132129
0.464537 0.185327 0.133421
0.485508 0.186618 0.134712
0.506480 0.187910 0.136004
0.527452 0.189202 0.137296
0.548424 0.190494 0.138588
0.569395 0.191785 0.139879
0.590367 0.193077 0.141171
0.611339 0.194369 0.142463
0.632310 0.195660 0.143754
0.653282 0.196952 0.145046
0.674254 0.198244 0.146338
0.695225 0.199535 0.147629
0.716197 0.200827 0.148921
0.737169 0.202119 0.150213
0.758140 0.203410 0.151504
0.089741 0.185681 0.112865
0.110713 0.186973 0.114157
0.131684 0.188264 0.115448
0.152656 0.189556 0.116740
0.173628 0.190848 0.118032
0.194599 0.192139 0.119323
0.215571 0.193431 0.120615
0.236543 0.194723 0.121907
0.257514 0.196014 0.123198
0.278486 0.197306 0.124490
0.299458 0.198598 0.125782
0.320429 0.199889 0.127073
0.341401 0.201181 0.128365
0.362373 0.202473 0.129657
0.383344 0.203764 0.130948
0.404316 0.205056 0.132240
0.425288 0.206348 0.133532
0.446259 0.207639 0.134823
0.467231 0.208931 0.136115
0.488203 0.210223 0.137407
0.509174 0.211514 0.138698
0.530146 0.212806 0.139990
0.551118 0.214098 0.141282
0.572090 0.215390 0.142574
0.593061 0.216681 0.143865
0.614033 0.217973 0.145157
0.635005 0.219265 0.146449
0.655976 0.220556 0.147740
0.676948 0.221848 0.149032
0.697920 0.223140 0.150324
0.718891 0.224431 0.151615
0.739863 0.225723 0.152907
0.760835 0.227015 0.154199
0.092435 0.209285 0.115559
0.113407 0.210577 0.116851
0.134379 0.211869 0.118143
0.155350 0.213160 0.119434
0.176322 0.214452 0.120726
0.197294 0.215744 0.122018
0.218265 0.217035 0.123309
0.239237 0.218327 0.124601
0.260209 0.219619 0.125893
0.281180 0.220910 0.127184
0.302152 0.222202 0.128476
0.323124 0.223494 0.129768
0.344095 0.224785 0.131059
0.365067 0.226077 0.132351
0.386039 0.227369 0.133643
0.407010 0.228660 0.134934
0.427982 0.229952 0.136226
0.448954 0.231244 0.137518
0.469925 0.232535 0.138809
0.490897 0.233827 0.140101
0.511869 0.235119 0.141393
0.532840 0.236410 0.142684
0.553812 0.237702 0.143976
0.574784 0.238994 0.145268
0.595756 0.240286 0.146560
0.616727 0.241577 0.147851
0.637699 0.242869 0.149143
0.658671 0.244161 0.150435
0.679642 0.245452 0.151726
0.700614 0.246744 0.153018
0.721586 0.248036 0.154310
0.742557 0.249327 0.155601
0.763529 0.250619 0.156893
0.095130 0.232890 0.118254
0.116101 0.234181 0.119545
0.137073 0.235473 0.120837
0.158045 0.236765 0.122129
0.179016 0.238056 0.123420
0.199988 0.239348 0.124712
0.220960 0.240640 0.126004
0.241931 0.241931 0.127295
0.262903 0.243223 0.128587
0.283875 0.244515 0.129879
0.304846 0.245806 0.131170
0.325818 0.247098 0.132462
0.346790 0.248390 0.133754
0.367761 0.249681 0.135045
0.388733 0.250973 0.136337
0.409705 0.252265 0.137629
0.430676 0.253556 0.138920
0.451648 0.254848 0.140212
0.472620 0.256140 0.141504
0.493591 0.257431 0.142795
0.514563 0.258723 0.144087
0.535535 0.260015 0.145379
0.556507 0.261307 0.146671
0.577478 0.262598 0.147962
0.598450 0.263890 0.149254
0.619422 0.265182 0.150546
0.640393 0.266473 0.151837
0.661365 0.267765 0.153129
0.682337 0.269057 0.154421
0.703308 0.270348 0.155712
0.724280 0.271640 0.157004
0.745252 0.272932 0.158296
0.766223 0.274223 0.159587
0.097824 0.256494 0.120948
0.118796 0.257786 0.122240
0.139767 0.259077 0.123531
0.160739 0.260369 0.124823
0.181711 0.261661 0.126115
0.202682 0.262952 0.127406
0.223654 0.264244 0.128698
0.244626 0.265536 0.129990
0.265597 0.266827 0.131281
0.286569 0.268119 0.132573
0.307541 0.269411 0.133865
0.328512 0.270702 0.135156
0.349484 0.271994 0.136448
0.370456 0.273286 0.137740
0.391427 0.274577 0.139031
0.412399 0.275869 0.140323
0.433371 0.277161 0.141615
0.454342 0.278452 0.142906
0.475314 0.279744 0.144198
0.496286 0.281036 0.145490
0.517257 0.282327 0.146781
0.538229 0.283619 0.148073
0.559201 0.284911 0.149365
0.580173 0.286203 0.150657
0.601144 0.287494 0.151948
0.622116 0.288786 0.153240
0.643088 0.290078 0.154532
0.664059 0.291369 0.155823
0.685031 0.292661 0.157115
0.706003 0.293953 0.158407
0.726974 0.295244 0.159698
0.747946 0.296536 0.160990
0.768918 0.297828 0.162282
0.100518 0.280098 0.123642
0.121490 0.281390 0.124934
0.142462 0.282682 0.126226
0.163433 0.283973 0.127517
0.184405 0.285265 0.128809
0.205377 0.286557 0.130101
0.226348 0.287848 0.131392
0.247320 0.289140 0.132684
0.268292 0.290432 0.133976
0.289263 0.291723 0.135267
0.310235 0.293015 0.136559
0.331207 0.294307 0.137851
0.352178 0.295598 0.139142
0.373150 0.296890 0.140434
0.394122 0.298182 0.141726
0.415093 0.299473 0.143017
0.436065 0.300765 0.144309
0.457037 0.302057 0.145601
0.478008 0.303348 0.146892
0.498980 0.304640 0.148184
0.519952 0.305932 0.149476
0.540923 0.307223 0.150767
0.561895 0.308515 0.152059
0.582867 0.309807 0.153351
0.603839 0.311099 0.154643
0.624810 0.312390 0.155934
0.645782 0.313682 0.157226
0.666754 0.314974 0.158518
0.687725 0.316265 0.159809
0.708697 0.317557 0.161101
0.729669 0.318849 0.162393
0.750640 0.320140 0.163684
0.771612 0.321432 0.164976
0.103213 0.303703 0.126337
0.124184 0.304994 0.127628
0.145156 0.306286 0.128920
0.166128 0.307578 0.130212
0.187099 0.308869 0.131503
0.208071 0.310161 0.132795
0.229043 0.311453 0.134087
0.250014 0.312744 0.135378
0.270986 0.314036 0.136670
0.291958 0.315328 0.137962
0.312929 0.316619 0.139253
0.333901 0.317911 0.140545
0.354873 0.319203 0.141837
0.375844 0.320494 0.143128
0.396816 0.321786 0.144420
0.417788 0.323078 0.145712
0.438759 0.324369 0.147003
0.459731 0.325661 0.148295
0.480703 0.326953 0.149587
0.501674 0.328244 0.150878
0.522646 0.329536 0.152170
0.543618 0.330828 0.153462
0.564589 0.332119 0.154753
0.585561 0.333411 0.156045
0.606533 0.334703 0.157337
0.627505 0.335995 0.158629
0.648476 0.337286 0.159920
0.669448 0.338578 0.161212
0.690420 0.339870 0.162504
0.711391 0.341161 0.163795
0.732363 0.342453 0.165087
0.753335 0.343745 0.166379
0.774306 0.345036 0.167670
0.105907 0.327307 0.129031
0.126879 0.328599 0.130323
0.147850 0.329890 0.131614
0.168822 0.331182 0.132906
0.189794 0.332474 0.134198
0.210765 0.333765 0.135489
0.231737 0.335057 0.136781
0.252709 0.336349 0.138073
0.273680 0.337640 0.139364
0.294652 0.338932 0.140656
0.315624 0.340224 0.141948
0.336595 0.341515 0.143239
0.357567 0.342807 0.144531
0.378539 0.344099 0.145823
0.399510 0.345390 0.147114
0.420482 0.346682 0.148406
0.441454 0.347974 0.149698
0.462425 0.349265 0.150989
0.483397 0.350557 0.152281
0.504369 0.351849 0.153573
0.525340 0.353140 0.154864
0.546312 0.354432 0.156156
0.567284 0.355724 0.157448
0.588256 0.357016 0.158740
0.609227 0.358307 0.160031
0.630199 0.359599 0.161323
0.651171 0.360891 0.162615
0.672142 0.362182 0.163906
0.693114 0.363474 0.165198
0.714086 0.364766 0.166490
0.735057 0.366057 0.167781
0.756029 0.367349 0.169073
0.777001 0.368641 0.170365
0.108601 0.350911 0.131725
0.129573 0.352203 0.133017
0.150545 0.353495 0.134309
0.171516 0.354786 0.135600
0.192488 0.356078 0.136892
0.213460 0.357370 0.138184
0.234431 0.358661 0.139475
0.255403 0.359953 0.140767
0.276375 0.361245 0.142059
0.297346 0.362536 0.143350
0.318318 0.363828 0.144642
0.339290 0.365120 0.145934
0.360261 0.366411 0.147225
0.381233 0.367703 0.148517
0.402205 0.368995 0.149809
0.423176 0.370286 0.151100
0.444148 0.371578 0.152392
0.465120 0.372870 0.153684
0.486091 0.374161 0.154975
0.507063 0.375453 0.156267
0.528035 0.376745 0.157559
0.549006 0.378036 0.158850
0.569978 0.379328 0.160142
0.590950 0.380620 0.161434
0.611922 0.381912 0.162726
0.632893 0.383203 0.164017
0.653865 0.384495 0.165309
0.674837 0.385787 0.166601
0.695808 0.387078 0.167892
0.716780 0.388370 0.169184
0.737752 0.389662 0.170476
0.758723 0.390953 0.171767
0.779695 0.392245 0.173059
0.111296 0.374516 0.134420
0.132267 0.375807 0.135711
0.153239 0.377099 0.137003
0.174211 0.378391 0.138295
0.195182 0.379682 0.139586
0.216154 0.380974 0.140878
0.237126 0.382266 0.142170
0.258097 0.383557 0.143461
0.279069 0.384849 0.144753
0.300041 0.386141 0.146045
0.321012 0.387432 0.147336
0.341984 0.388724 0.148628
0.362956 0.390016 0.149920
0.383927 0.391307 0.151211
0.404899 0.392599 0.152503
0.425871 0.393891 0.153795
0.446842 0.395182 0.155086
0.467814 0.396474 0.156378
0.488786 0.397766 0.157670
0.509757 0.399057 0.158961
0.530729 0.400349 0.160253
0.551701 0.401641 0.161545
0.572672 0.402932 0.162836
0.593644 0.404224 0.164128
0.614616 0.405516 0.165420
0.635588 0.406808 0.166712
0.656559 0.408099 0.168003
0.677531 0.409391 0.169295
0.698503 0.410683 0.170587
0.719474 0.411974 0.171878
0.740446 0.413266 0.173170
0.761418 0.414558 0.174462
0.782389 0.415849 0.175753
0.113990 0.398120 0.137114
0.134962 0.399412 0.138406
0.155933 0.400703 0.139697
0.176905 0.401995 0.140989
0.197877 0.403287 0.142281
0.218848 0.404578 0.143572
0.239820 0.405870 0.144864
0.260792 0.407162 0.146156
0.281763 0.408453 0.147447
0.302735 0.409745 0.148739
0.323707 0.411037 0.150031
0.344678 0.412328 0.151322
0.365650 0.413620 0.152614
0.386622 0.414912 0.153906
0.407593 0.416203 0.155197
0.428565 0.417495 0.156489
0.449537 0.418787 0.157781
0.470508 0.420078 0.159072
0.491480 0.421370 0.160364
0.512452 0.422662 0.161656
0.533423 0.423953 0.162947
0.554395 0.425245 0.164239
0.575367 0.426537 0.165531
0.596338 0.427828 0.166822
0.617310 0.429120 0.168114
0.638282 0.430412 0.169406
0.659254 0.431704 0.170698
0.680225 0.432995 0.171989
0.701197 0.434287 0.173281
0.722169 0.435579 0.174573
0.743140 0.436870 0.175864
0.764112 0.438162 0.177156
0.785084 0.439454 0.178448
0.116684 0.421724 0.139808
0.137656 0.423016 0.141100
0.158628 0.424308 0.142392
0.179599 0.425599 0.143683
0.200571 0.426891 0.144975
0.221543 0.428183 0.146267
0.242514 0.429474 0.147558
0.263486 0.430766 0.148850
0.284458 0.432058 0.150142
0.305429 0.433349 0.151433
0.326401 0.434641 0.152725
0.347373 0.435933 0.154017
0.368344 0.437224 0.155308
0.389316 0.438516 0.156600
0.410288 0.439808 0.157892
0.431259 0.441099 0.159183
0.452231 0.442391 0.160475
0.473203 0.443683 0.161767
0.494174 0.444974 0.163058
0.515146 0.446266 0.164350
0.536118 0.447558 0.165642
0.557089 0.448849 0.166933
0.578061 0.450141 0.168225
0.599033 0.451433 0.169517
0.620005 0.452725 0.170809
0.640976 0.454016 0.172100
0.661948 0.455308 0.173392
0.682920 0.456600 0.174684
0.703891 0.457891 0.175975
0.724863 0.459183 0.177267
0.745835 0.460475 0.178559
0.766806 0.461766 0.179850
0.787778 0.463058 0.181142
0.119379 0.445329 0.142503
0.140350 0.446620 0.143794
0.161322 0.447912 0.145086
0.182294 0.449204 0.146378
0.203265 0.450495 0.147669
0.224237 0.451787 0.148961
0.245209 0.453079 0.150253
0.266180 0.454370 0.151544
0.287152 0.455662 0.152836
0.308124 0.456954 0.154128
0.329095 0.458245 0.155419
0.350067 0.459537 0.156711
0.371039 0.460829 0.158003
0.392010 0.462120 0.159294
0.412982 0.463412 0.160586
0.433954 0.464704 0.161878
0.454925 0.465995 0.163169
0.475897 0.467287 0.164461
0.496869 0.468579 0.165753
0.517840 0.469870 0.167044
0.538812 0.471162 0.168336
0.559784 0.472454 0.169628
0.580755 0.473745 0.170919
0.601727 0.475037 0.172211
0.622699 0.476329 0.173503
0.643671 0.477621 0.174795
0.664642 0.478912 0.176086
0.685614 0.480204 0.177378
0.706586 0.481496 0.178670
0.727557 0.482787 0.179961
0.748529 0.484079 0.181253
0.769501 0.485371 0.182545
0.790472 0.486662 0.183836
0.122073 0.468933 0.145197
0.143045 0.470225 0.146489
0.164016 0.471516 0.147780
0.184988 0.472808 0.149072
0.205960 0.474100 0.150364
0.226931 0.475391 0.151655
0.247903 0.476683 0.152947
0.268875 0.477975 0.154239
0.289846 0.479266 0.155530
0.310818 0.480558 0.156822
0.331790 0.481850 0.158114
0.352761 0.483141 0.159405
0.373733 0.484433 0.160697
0.394705 0.485725 0.161989
0.415676 0.487016 0.163280
0.436648 0.488308 0.164572
0.457620 0.489600 0.165864
0.478591 0.490891 0.167155
0.499563 0.492183 0.168447
0.520535 0.493475 0.169739
0.541506 0.494766 0.171030
0.562478 0.496058 0.172322
0.583450 0.497350 0.173614
0.604421 0.498641 0.174905
0.625393 0.499933 0.176197
0.646365 0.501225 0.177489
0.667337 0.502517 0.178781
0.688308 0.503808 0.180072
0.709280 0.505100 0.181364
0.730252 0.506392 0.182656
0.751223 0.507683 0.183947
0.772195 0.508975 0.185239
0.793167 0.510267 0.186531
0.124767 0.492537 0.147891
0.145739 0.493829 0.149183
0.166711 0.495121 0.150475
0.187682 0.496412 0.151766
0.208654 0.497704 0.153058
0.229626 0.498996 0.154350
0.250597 0.500287 0.155641
0.271569 0.501579 0.156933
0.292541 0.502871 0.158225
0.313512 0.504162 0.159516
0.334484 0.505454 0.160808
0.355456 0.506746 0.162100
0.376427 0.508037 0.163391
0.397399 0.509329 0.164683
0.418371 0.510621 0.165975
0.439342 0.511912 0.167266
0.460314 0.513204 0.168558
0.481286 0.514496 0.169850
0.502257 0.515787 0.171141
0.523229 0.517079 0.172433
0.544201 0.518371 0.173725
0.565172 0.519662 0.175016
0.586144 0.520954 0.176308
0.607116 0.522246 0.177600
0.628087 0.523537 0.178891
0.649059 0.524829 0.180183
0.670031 0.526121 0.181475
0.691003 0.527413 0.182767
0.711974 0.528704 0.184058
0.732946 0.529996 0.185350
0.753918 0.531288 0.186642
0.774889 0.532579 0.187933
0.795861 0.533871 0.189225
0.127462 0.516142 0.150586
0.148433 0.517433 0.151877
0.169405 0.518725 0.153169
0.190377 0.520017 0.154461
0.211348 0.521308 0.155752
0.232320 0.522600 0.157044
0.253292 0.523892 0.158336
0.274263 0.525183 0.159627
0.295235 0.526475 0.160919
0.316207 0.527767 0.162211
0.337178 0.529058 0.163502
0.358150 0.530350 0.164794
0.379122 0.531642 0.166086
0.400093 0.532933 0.167377
0.421065 0.534225 0.168669
0.442037 0.535517 0.169961
0.463008 0.536808 0.171252
0.483980 0.538100 0.172544
0.504952 0.539392 0.173836
0.525923 0.540683 0.175127
0.546895 0.541975 0.176419
0.567867 0.543267 0.177711
0.588838 0.544558 0.179002
0.609810 0.545850 0.180294
0.630782 0.547142 0.181586
0.651754 0.548434 0.182878
0.672725 0.549725 0.184169
0.693697 0.551017 0.185461
0.714669 0.552309 0.186753
0.735640 0.553600 0.188044
0.756612 0.554892 0.189336
0.777584 0.556184 0.190628
0.798555 0.557475 0.191919
0.130156 0.539746 0.153280
0.151128 0.541038 0.154572
0.172099 0.542329 0.155863
0.193071 0.543621 0.157155
0.214043 0.544913 0.158447
0.235014 0.546204 0.159738
0.255986 0.547496 0.161030
0.276958 0.548788 0.162322
0.297929 0.550079 0.163613
0.318901 0.551371 0.164905
0.339873 0.552663 0.166197
0.360844 0.553954 0.167488
0.381816 0.555246 0.168780
0.402788 0.556538 0.170072
0.423759 0.557829 0.171363
0.444731 0.559121 0.172655
0.465703 0.560413 0.173947
0.486674 0.561704 0.175238
0.507646 0.562996 0.176530
0.528618 0.564288 0.177822
0.549589 0.565579 0.179113
0.570561 0.566871 0.180405
0.591533 0.568163 0.181697
0.612504 0.569454 0.182988
0.633476 0.570746 0.184280
0.654448 0.572038 0.185572
0.675420 0.573330 0.186864
0.696391 0.574621 0.188155
0.717363 0.575913 0.189447
0.738335 0.577205 0.190739
0.759306 0.578496 0.192030
0.780278 0.579788 0.193322
0.801250 0.581080 0.194614
0.132850 0.563350 0.155974
0.153822 0.564642 0.157266
0.174794 0.565934 0.158558
0.195765 0.567225 0.159849
0.216737 0.568517 0.161141
0.237709 0.569809 0.162433
0.258680 0.571100 0.163724
0.279652 0.572392 0.165016
0.300624 0.573684 0.166308
0.321595 0.574975 0.167599
0.342567 0.576267 0.168891
0.363539 0.577559 0.170183
0.384510 0.578850 0.171474
0.405482 0.580142 0.172766
0.426454 0.581434 0.174058
0.447425 0.582725 0.175349
0.468397 0.584017 0.176641
0.489369 0.585309 0.177933
0.510340 0.586600 0.179224
0.531312 0.587892 0.180516
0.552284 0.589184 0.181808
0.573255 0.590475 0.183099
0.594227 0.591767 0.184391
0.615199 0.593059 0.185683
0.636170 0.594350 0.186974
0.657142 0.595642 0.188266
0.678114 0.596934 0.189558
0.699086 0.598226 0.190850
0.720057 0.599517 0.192141
0.741029 0.600809 0.193433
0.762001 0.602101 0.194725
0.782972 0.603392 0.196016
0.803944 0.604684 0.197308
0.135544 0.586954 0.158668
0.156516 0.588246 0.159960
0.177488 0.589538 0.161252
0.198460 0.590830 0.162544
0.219431 0.592121 0.163835
0.240403 0.593413 0.165127
0.261375 0.594705 0.166419
0.282346 0.595996 0.167710
0.303318 0.597288 0.169002
0.324290 0.598580 0.170294
0.345261 0.599871 0.171585
0.366233 0.601163 0.172877
0.387205 0.602455 0.174169
0.408176 0.603746 0.175460
0.429148 0.605038 0.176752
0.450120 0.606330 0.178044
0.471091 0.607621 0.179335
0.492063 0.608913 0.180627
0.513035 0.610205 0.181919
0.534006 0.611496 0.183210
0.554978 0.612788 0.184502
0.575950 0.614080 0.185794
0.596921 0.615371 0.187085
0.617893 0.616663 0.188377
0.638865 0.617955 0.189669
0.659836 0.619246 0.190960
0.680808 0.620538 0.192252
0.701780 0.621830 0.193544
0.722752 0.623122 0.194836
0.743723 0.624413 0.196127
0.764695 0.625705 0.197419
0.785667 0.626997 0.198711
0.806638 0.628288 0.200002
0.138239 0.610559 0.161363
0.159211 0.611851 0.162655
0.180182 0.613142 0.163946
0.201154 0.614434 0.165238
0.222126 0.615726 0.166530
0.243097 0.617017 0.167821
0.264069 0.618309 0.169113
0.285041 0.619601 0.170405
0.306012 0.620892 0.171696
0.326984 0.622184 0.172988
0.347956 0.623476 0.174280
0.368927 0.624767 0.175571
0.389899 0.626059 0.176863
0.410871 0.627351 0.178155
0.431842 0.628642 0.179446
0.452814 0.629934 0.180738
0.473786 0.631226 0.182030
0.494757 0.632517 0.183321
0.515729 0.633809 0.184613
0.536701 0.635101 0.185905
0.557672 0.636392 0.187196
0.578644 0.637684 0.188488
0.599616 0.638976 0.189780
0.620587 0.640267 0.191071
0.641559 0.641559 0.192363
0.662531 0.642851 0.193655
0.683503 0.644143 0.194947
0.704474 0.645434 0.196238
0.725446 0.646726 0.197530
0.746418 0.648018 0.198822
0.767389 0.649309 0.200113
0.788361 0.650601 0.201405
0.809333 0.651893 0.202697
0.140933 0.634163 0.164057
0.161905 0.635455 0.165349
0.182877 0.636747 0.166641
0.203848 0.638038 0.167932
0.224820 0.639330 0.169224
0.245792 0.640622 0.170516
0.266763 0.641913 0.171807
0.287735 0.643205 0.173099
0.308707 0.644497 0.174391
0.329678 0.645788 0.175682
0.350650 0.647080 0.176974
0.371622 0.648372 0.178266
0.392593 0.649663 0.179557
0.413565 0.650955 0.180849
0.434537 0.652247 0.182141
0.455508 0.653538 0.183432
0.476480 0.654830 0.184724
0.497452 0.656122 0.186016
0.518423 0.657413 0.187307
0.539395 0.658705 0.188599
0.560367 0.659997 0.189891
0.581338 0.661288 0.191182
0.602310 0.662580 0.192474
0.623282 0.663872 0.193766
0.644253 0.665163 0.195057
0.665225 0.666455 0.196349
0.686197 0.667747 0.197641
0.707169 0.669039 0.198933
0.728140 0.670330 0.200224
0.749112 0.671622 0.201516
0.770084 0.672914 0.202808
0.791055 0.674205 0.204099
0.812027 0.675497 0.205391
0.143627 0.657767 0.166751
0.164599 0.659059 0.168043
0.185571 0.660351 0.169335
0.206543 0.661643 0.170627
0.227514 0.662934 0.171918
0.248486 0.664226 0.173210
0.269458 0.665518 0.174502
0.290429 0.666809 0.175793
0.311401 0.668101 0.177085
0.332373 0.669393 0.178377
0.353344 0.670684 0.179668
0.374316 0.671976 0.180960
0.395288 0.673268 0.182252
0.416259 0.674559 0.183543
0.437231 0.675851 0.184835
0.458203 0.677143 0.186127
0.479174 0.678434 0.187418
0.500146 0.679726 0.188710
0.521118 0.681018 0.190002
0.542089 0.682309 0.191293
0.563061 0.683601 0.192585
0.584033 0.684893 0.193877
0.605004 0.686184 0.195168
0.625976 0.687476 0.196460
0.646948 0.688768 0.197752
0.667919 0.690059 0.199043
0.688891 0.691351 0.200335
0.709863 0.692643 0.201627
0.730835 0.693935 0.202919
0.751806 0.695226 0.204210
0.772778 0.696518 0.205502
0.793750 0.697810 0.206794
0.814721 0.699101 0.208085
0.146322 0.681372 0.169446
0.167293 0.682663 0.170737
0.188265 0.683955 0.172029
0.209237 0.685247 0.173321
0.230209 0.686539 0.174613
0.251180 0.687830 0.175904
0.272152 0.689122 0.177196
0.293124 0.690414 0.178488
0.314095 0.691705 0.179779
0.335067 0.692997 0.181071
0.356039 0.694289 0.182363
0.377010 0.695580 0.183654
0.397982 0.696872 0.184946
0.418954 0.698164 0.186238
0.439925 0.699455 0.187529
0.460897 0.700747 0.188821
0.481869 0.702039 0.190113
0.502840 0.703330 0.191404
0.523812 0.704622 0.192696
0.544784 0.705914 0.193988
0.565755 0.707205 0.195279
0.586727 0.708497 0.196571
0.607699 0.709789 0.197863
0.628670 0.711080 0.199154
0.649642 0.712372 0.200446
0.670614 0.713664 0.201738
0.691585 0.714955 0.203029
0.712557 0.716247 0.204321
0.733529 0.717539 0.205613
0.754501 0.718831 0.206905
0.775472 0.720122 0.208196
0.796444 0.721414 0.209488
0.817416 0.722706 0.210780
0.149016 0.704976 0.172140
0.169988 0.706268 0.173432
0.190960 0.707560 0.174724
0.211931 0.708851 0.176015
0.232903 0.710143 0.177307
0.253875 0.711435 0.178599
0.274846 0.712726 0.179890
0.295818 0.714018 0.181182
0.316790 0.715310 0.182474
0.337761 0.716601 0.183765
0.358733 0.717893 0.185057
0.379705 0.719185 0.186349
0.400676 0.720476 0.187640
0.421648 0.721768 0.188932
0.442620 0.723060 0.190224
0.463591 0.724351 0.191515
0.484563 0.725643 0.192807
0.505535 0.726935 0.194099
0.526506 0.728226 0.195390
0.547478 0.729518 0.196682
0.568450 0.730810 0.197974
0.589421 0.732101 0.199265
0.610393 0.733393 0.200557
0.631365 0.734685 0.201849
