flutter_app/assets/lut/instant_polaroid.cube
TITLE "Instant Polaroid"
# Generated placeholder LUT for DAZZ development
# Replace with production-grade LUT before release
LUT_3D_SIZE 5
DOMAIN_MIN 0.0 0.0 0.0
DOMAIN_MAX 1.0 1.0 1.0
0.078964 0.091264 0.102088
0.246737 0.101597 0.112421
0.414510 0.111930 0.122754
0.582284 0.122264 0.133088
0.750057 0.132597 0.143421
0.100518 0.280098 0.123642
0.268292 0.290432 0.133976
0.436065 0.300765 0.144309
0.603839 0.311099 0.154643
0.771612 0.321432 0.164976
0.122073 0.468933 0.145197
0.289846 0.479266 0.155530
0.457620 0.489600 0.165864
0.625393 0.499933 0.176197
0.793167 0.510267 0.186531
0.143627 0.657767 0.166751
0.311401 0.668101 0.177085
0.479174 0.678434 0.187418
0.646948 0.688768 0.197752
0.814721 0.699101 0.208085
0.165182 0.846602 0.188306
0.332956 0.856936 0.198640
0.500729 0.867269 0.208973
0.668502 0.877602 0.219306
0.836276 0.887936 0.229640
0.083380 0.095680 0.283009
0.251154 0.106014 0.293343
0.418927 0.116347 0.303676
0.586701 0.126681 0.314010
0.754474 0.137014 0.324343
0.104935 0.284515 0.304564
0.272709 0.294849 0.314898
0.440482 0.305182 0.325231
0.608255 0.315515 0.335564
0.776029 0.325849 0.345898
0.126490 0.473350 0.326119
0.294263 0.483683 0.336452
0.462037 0.494017 0.346786
0.629810 0.504350 0.357119
0.797584 0.514684 0.367453
0.148044 0.662184 0.347673
0.315818 0.672518 0.358007
0.483591 0.682851 0.368340
0.651365 0.693185 0.378674
0.819138 0.703518 0.389007
0.169599 0.851019 0.369228
0.337372 0.861352 0.379561
0.505146 0.871686 0.389895
0.672919 0.882019 0.400228
0.840693 0.892353 0.410562
0.087797 0.100097 0.463931
0.255571 0.110431 0.474265
0.423344 0.120764 0.484598
0.591118 0.131098 0.494932
0.758891 0.141431 0.505265
0.109352 0.288932 0.485486
0.277126 0.299266 0.495820
0.444899 0.309599 0.506153
0.612672 0.319932 0.516486
0.780446 0.330266 0.526820
0.130907 0.477767 0.507041
0.298680 0.488100 0.517374
0.466454 0.498434 0.527708
0.634227 0.508767 0.538041
0.802000 0.519100 0.548374
0.152461 0.666601 0.528595
0.320235 0.676935 0.538929
0.488008 0.687268 0.549262
0.655782 0.697602 0.559596
0.823555 0.707935 0.569929
0.174016 0.855436 0.550150
0.341789 0.865769 0.560483
0.509563 0.876103 0.570817
0.677336 0.886436 0.581150
0.845110 0.896770 0.591484
0.092214 0.104514 0.644853
0.259988 0.114848 0.655187
0.427761 0.125181 0.665520
0.595535 0.135515 0.675854
0.763308 0.145848 0.686187
0.113769 0.293349 0.666408
0.281542 0.303682 0.676741
0.449316 0.314016 0.687075
0.617089 0.324349 0.697408
0.784863 0.334683 0.707742
0.135324 0.482184 0.687963
0.303097 0.492517 0.698296
0.470871 0.502851 0.708630
0.638644 0.513184 0.718963
0.806417 0.523517 0.729296
0.156878 0.671018 0.709517
0.324652 0.681352 0.719851
0.492425 0.691685 0.730184
0.660199 0.702019 0.740518
0.827972 0.712352 0.750851
0.178433 0.859853 0.731072
0.346206 0.870186 0.741405
0.513980 0.880520 0.751739
0.681753 0.890853 0.762072
0.849527 0.901187 0.772406
0.096631 0.108931 0.825775
0.264405 0.119265 0.836109
0.432178 0.129598 0.846442
0.599952 0.139932 0.856776
0.767725 0.150265 0.867109
0.118186 0.297766 0.847330
0.285959 0.308099 0.857663
0.453733 0.318433 0.867997
0.621506 0.328766 0.878330
0.789280 0.339100 0.888664
0.139741 0.486601 0.868885
0.307514 0.496934 0.879218
0.475287 0.507267 0.889551
0.643061 0.517601 0.899885
0.810834 0.527934 0.910218
0.161295 0.675435 0.890439
0.329069 0.685769 0.900773
0.496842 0.696102 0.911106
0.664616 0.706436 0.921440
0.832389 0.716769 0.931773
0.182850 0.864270 0.911994
0.350623 0.874603 0.922327
0.518397 0.884937 0.932661
0.686170 0.895270 0.942994
0.853944 0.905604 0.953328
