flutter_app/assets/lut/instant_polaroid.cube
TITLE "Instant Polaroid"
# Generated placeholder LUT for DAZZ development
# Replace with production-grade LUT before release
LUT_3D_SIZE 9
DOMAIN_MIN 0.0 0.0 0.0
DOMAIN_MAX 1.0 1.0 1.0
0.078964 0.091264 0.102088
0.162850 0.096430 0.107254
0.246737 0.101597 0.112421
0.330624 0.106764 0.117588
0.414510 0.111930 0.122754
0.498397 0.117097 0.127921
0.582284 0.122264 0.133088
0.666171 0.127431 0.138255
0.750057 0.132597 0.143421
0.089741 0.185681 0.112865
0.173628 0.190848 0.118032
0.257514 0.196014 0.123198
0.341401 0.201181 0.128365
0.425288 0.206348 0.133532
0.509174 0.211514 0.138698
0.593061 0.216681 0.143865
0.676948 0.221848 0.149032
0.760835 0.227015 0.154199
0.100518 0.280098 0.123642
0.184405 0.285265 0.128809
0.268292 0.290432 0.133976
0.352178 0.295598 0.139142
0.436065 0.300765 0.144309
0.519952 0.305932 0.149476
0.603839 0.311099 0.154643
0.687725 0.316265 0.159809
0.771612 0.321432 0.164976
0.111296 0.374516 0.134420
0.195182 0.379682 0.139586
0.279069 0.384849 0.144753
0.362956 0.390016 0.149920
0.446842 0.395182 0.155086
0.530729 0.400349 0.160253
0.614616 0.405516 0.165420
0.698503 0.410683 0.170587
0.782389 0.415849 0.175753
0.122073 0.468933 0.145197
0.205960 0.474100 0.150364
0.289846 0.479266 0.155530
0.373733 0.484433 0.160697
0.457620 0.489600 0.165864
0.541506 0.494766 0.171030
0.625393 0.499933 0.176197
0.709280 0.505100 0.181364
0.793167 0.510267 0.186531
0.132850 0.563350 0.155974
0.216737 0.568517 0.161141
0.300624 0.573684 0.166308
0.384510 0.578850 0.171474
0.468397 0.584017 0.176641
0.552284 0.589184 0.181808
0.636170 0.594350 0.186974
0.720057 0.599517 0.192141
0.803944 0.604684 0.197308
0.143627 0.657767 0.166751
0.227514 0.662934 0.171918
0.311401 0.668101 0.177085
0.395288 0.673268 0.182252
0.479174 0.678434 0.187418
0.563061 0.683601 0.192585
0.646948 0.688768 0.197752
0.730835 0.693935 0.202919
0.814721 0.699101 0.208085
0.154405 0.752185 0.177529
0.238292 0.757352 0.182696
0.322178 0.762518 0.187862
0.406065 0.767685 0.193029
0.489952 0.772852 0.198196
0.573838 0.778018 0.203362
0.657725 0.783185 0.208529
0.741612 0.788352 0.213696
0.825499 0.793519 0.218863
0.165182 0.846602 0.188306
0.249069 0.851769 0.193473
0.332956 0.856936 0.198640
0.416842 0.862102 0.203806
0.500729 0.867269 0.208973
0.584616 0.872436 0.214140
0.668502 0.877602 0.219306
0.752389 0.882769 0.224473
0.836276 0.887936 0.229640
0.081172 0.093472 0.192549
0.165059 0.098639 0.197715
0.248945 0.103805 0.202882
0.332832 0.108972 0.208049
0.416719 0.114139 0.213215
0.500606 0.119306 0.218382
0.584492 0.124472 0.223549
0.668379 0.129639 0.228716
0.752266 0.134806 0.233882
0.091949 0.187889 0.203326
0.175836 0.193056 0.208493
0.259723 0.198223 0.213659
0.343610 0.203390 0.218826
0.427496 0.208556 0.223993
0.511383 0.213723 0.229159
0.595270 0.218890 0.234326
0.679156 0.224056 0.239493
0.763043 0.229223 0.244660
0.102727 0.282307 0.214103
0.186613 0.287473 0.219270
0.270500 0.292640 0.224437
0.354387 0.297807 0.229603
0.438274 0.302974 0.234770
0.522160 0.308140 0.239937
0.606047 0.313307 0.245103
0.689934 0.318474 0.250270
0.773820 0.323640 0.255437
0.113504 0.376724 0.224880
0.197391 0.381891 0.230047
0.281277 0.387057 0.235214
0.365164 0.392224 0.240381
0.449051 0.397391 0.245547
0.532938 0.402558 0.250714
0.616824 0.407724 0.255881
0.700711 0.412891 0.261048
0.784598 0.418058 0.266214
0.124281 0.471141 0.235658
0.208168 0.476308 0.240825
0.292055 0.481475 0.245991
0.375941 0.486641 0.251158
0.459828 0.491808 0.256325
0.543715 0.496975 0.261491
0.627602 0.502142 0.266658
0.711488 0.507308 0.271825
0.795375 0.512475 0.276992
0.135059 0.565559 0.246435
0.218945 0.570725 0.251602
0.302832 0.575892 0.256769
0.386719 0.581059 0.261935
0.470606 0.586226 0.267102
0.554492 0.591392 0.272269
0.638379 0.596559 0.277435
0.722266 0.601726 0.282602
0.806152 0.606892 0.287769
0.145836 0.659976 0.257212
0.229723 0.665143 0.262379
0.313609 0.670309 0.267546
0.397496 0.675476 0.272713
0.481383 0.680643 0.277879
0.565270 0.685810 0.283046
0.649156 0.690976 0.288213
0.733043 0.696143 0.293379
0.816930 0.701310 0.298546
0.156613 0.754393 0.267990
0.240500 0.759560 0.273156
0.324387 0.764727 0.278323
0.408273 0.769893 0.283490
0.492160 0.775060 0.288657
0.576047 0.780227 0.293823
0.659934 0.785394 0.298990
0.743820 0.790560 0.304157
0.827707 0.795727 0.309324
0.167391 0.848811 0.278767
0.251277 0.853977 0.283934
0.335164 0.859144 0.289101
0.419051 0.864311 0.294267
0.502937 0.869477 0.299434
0.586824 0.874644 0.304601
0.670711 0.879811 0.309767
0.754598 0.884978 0.314934
0.838484 0.890144 0.320101
0.083380 0.095680 0.283009
0.167267 0.100847 0.288176
0.251154 0.106014 0.293343
0.335041 0.111181 0.298510
0.418927 0.116347 0.303676
0.502814 0.121514 0.308843
0.586701 0.126681 0.314010
0.670588 0.131848 0.319177
0.754474 0.137014 0.324343
0.094158 0.190098 0.293787
0.178045 0.195265 0.298954
0.261931 0.200431 0.304120
0.345818 0.205598 0.309287
0.429705 0.210765 0.314454
0.513591 0.215931 0.319620
0.597478 0.221098 0.324787
0.681365 0.226265 0.329954
0.765252 0.231432 0.335121
0.104935 0.284515 0.304564
0.188822 0.289682 0.309731
0.272709 0.294849 0.314898
0.356595 0.300015 0.320064
0.440482 0.305182 0.325231
0.524369 0.310349 0.330398
0.608255 0.315515 0.335564
0.692142 0.320682 0.340731
0.776029 0.325849 0.345898
0.115712 0.378932 0.315341
0.199599 0.384099 0.320508
0.283486 0.389266 0.325675
0.367373 0.394433 0.330842
0.451259 0.399599 0.336008
0.535146 0.404766 0.341175
0.619033 0.409933 0.346342
0.702919 0.415099 0.351508
0.786806 0.420266 0.356675
0.126490 0.473350 0.326119
0.210376 0.478516 0.331285
0.294263 0.483683 0.336452
0.378150 0.488850 0.341619
0.462037 0.494017 0.346786
0.545923 0.499183 0.351952
0.629810 0.504350 0.357119
0.713697 0.509517 0.362286
0.797584 0.514684 0.367453
0.137267 0.567767 0.336896
0.221154 0.572934 0.342063
0.305041 0.578101 0.347230
0.388927 0.583267 0.352396
0.472814 0.588434 0.357563
0.556701 0.593601 0.362730
0.640587 0.598767 0.367896
0.724474 0.603934 0.373063
0.808361 0.609101 0.378230
0.148044 0.662184 0.347673
0.231931 0.667351 0.352840
0.315818 0.672518 0.358007
0.399705 0.677685 0.363174
0.483591 0.682851 0.368340
0.567478 0.688018 0.373507
0.651365 0.693185 0.378674
0.735251 0.698351 0.383840
0.819138 0.703518 0.389007
0.158822 0.756602 0.358451
0.242708 0.761768 0.363617
0.326595 0.766935 0.368784
0.410482 0.772102 0.373951
0.494369 0.777269 0.379118
0.578255 0.782435 0.384284
0.662142 0.787602 0.389451
0.746029 0.792769 0.394618
0.829915 0.797935 0.399784
0.169599 0.851019 0.369228
0.253486 0.856186 0.374395
0.337372 0.861352 0.379561
0.421259 0.866519 0.384728
0.505146 0.871686 0.389895
0.589033 0.876853 0.395062
0.672919 0.882019 0.400228
0.756806 0.887186 0.405395
0.840693 0.892353 0.410562
0.085589 0.097889 0.373470
0.169476 0.103056 0.378637
0.253362 0.108222 0.383804
0.337249 0.113389 0.388971
0.421136 0.118556 0.394137
0.505023 0.123723 0.399304
0.588909 0.128889 0.404471
0.672796 0.134056 0.409637
0.756683 0.139223 0.414804
0.096366 0.192306 0.384248
0.180253 0.197473 0.389414
0.264140 0.202640 0.394581
0.348026 0.207806 0.399748
0.431913 0.212973 0.404915
0.515800 0.218140 0.410081
0.599687 0.223307 0.415248
0.683573 0.228473 0.420415
0.767460 0.233640 0.425582
0.107144 0.286724 0.395025
0.191030 0.291890 0.400192
0.274917 0.297057 0.405359
0.358804 0.302224 0.410525
0.442690 0.307390 0.415692
0.526577 0.312557 0.420859
0.610464 0.317724 0.426025
0.694351 0.322891 0.431192
0.778237 0.328057 0.436359
0.117921 0.381141 0.405802
0.201808 0.386308 0.410969
0.285694 0.391474 0.416136
0.369581 0.396641 0.421303
0.453468 0.401808 0.426469
0.537355 0.406975 0.431636
0.621241 0.412141 0.436803
0.705128 0.417308 0.441969
0.789015 0.422475 0.447136
0.128698 0.475558 0.416580
0.212585 0.480725 0.421746
0.296472 0.485892 0.426913
0.380358 0.491058 0.432080
0.464245 0.496225 0.437247
0.548132 0.501392 0.442413
0.632019 0.506559 0.447580
0.715905 0.511725 0.452747
0.799792 0.516892 0.457913
0.139476 0.569976 0.427357
0.223362 0.575142 0.432524
0.307249 0.580309 0.437690
0.391136 0.585476 0.442857
0.475022 0.590642 0.448024
0.558909 0.595809 0.453191
0.642796 0.600976 0.458357
0.726683 0.606143 0.463524
0.810569 0.611309 0.468691
0.150253 0.664393 0.438134
0.234140 0.669560 0.443301
0.318026 0.674726 0.448468
0.401913 0.679893 0.453635
0.485800 0.685060 0.458801
0.569686 0.690226 0.463968
0.653573 0.695393 0.469135
0.737460 0.700560 0.474301
0.821347 0.705727 0.479468
0.161030 0.758810 0.448912
0.244917 0.763977 0.454078
0.328804 0.769144 0.459245
0.412690 0.774310 0.464412
0.496577 0.779477 0.469579
0.580464 0.784644 0.474745
0.664351 0.789811 0.479912
0.748237 0.794977 0.485079
0.832124 0.800144 0.490245
0.171808 0.853228 0.459689
0.255694 0.858394 0.464856
0.339581 0.863561 0.470022
0.423468 0.868728 0.475189
0.507354 0.873894 0.480356
0.591241 0.879061 0.485523
0.675128 0.884228 0.490689
0.759015 0.889395 0.495856
0.842901 0.894561 0.501023
0.087797 0.100097 0.463931
0.171684 0.105264 0.469098
0.255571 0.110431 0.474265
0.339458 0.115598 0.479432
0.423344 0.120764 0.484598
0.507231 0.125931 0.489765
0.591118 0.131098 0.494932
0.675004 0.136264 0.500098
0.758891 0.141431 0.505265
0.098575 0.194515 0.474709
0.182461 0.199681 0.479875
0.266348 0.204848 0.485042
0.350235 0.210015 0.490209
0.434122 0.215182 0.495376
0.518008 0.220348 0.500542
0.601895 0.225515 0.505709
0.685782 0.230682 0.510876
0.769669 0.235849 0.516043
0.109352 0.288932 0.485486
0.193239 0.294099 0.490653
0.277126 0.299266 0.495820
0.361012 0.304432 0.500986
0.444899 0.309599 0.506153
0.528786 0.314766 0.511320
0.612672 0.319932 0.516486
0.696559 0.325099 0.521653
0.780446 0.330266 0.526820
0.120129 0.383349 0.496263
0.204016 0.388516 0.501430
0.287903 0.393683 0.506597
0.371790 0.398850 0.511764
0.455676 0.404016 0.516930
0.539563 0.409183 0.522097
0.623450 0.414350 0.527264
0.707336 0.419516 0.532430
0.791223 0.424683 0.537597
0.130907 0.477767 0.507041
0.214793 0.482933 0.512207
0.298680 0.488100 0.517374
0.382567 0.493267 0.522541
0.466454 0.498434 0.527708
0.550340 0.503600 0.532874
0.634227 0.508767 0.538041
0.718114 0.513934 0.543208
0.802000 0.519100 0.548374
0.141684 0.572184 0.517818
0.225571 0.577351 0.522985
0.309457 0.582517 0.528151
0.393344 0.587684 0.533318
0.477231 0.592851 0.538485
0.561118 0.598018 0.543652
0.645004 0.603184 0.548818
0.728891 0.608351 0.553985
0.812778 0.613518 0.559152
0.152461 0.666601 0.528595
0.236348 0.671768 0.533762
0.320235 0.676935 0.538929
0.404122 0.682102 0.544096
0.488008 0.687268 0.549262
0.571895 0.692435 0.554429
0.655782 0.697602 0.559596
0.739668 0.702768 0.564762
0.823555 0.707935 0.569929
0.163239 0.761019 0.539373
0.247125 0.766185 0.544539
0.331012 0.771352 0.549706
0.414899 0.776519 0.554873
0.498786 0.781686 0.560040
0.582672 0.786852 0.565206
0.666559 0.792019 0.570373
0.750446 0.797186 0.575540
0.834332 0.802352 0.580706
0.174016 0.855436 0.550150
0.257903 0.860603 0.555317
0.341789 0.865769 0.560483
0.425676 0.870936 0.565650
0.509563 0.876103 0.570817
0.593450 0.881270 0.575984
0.677336 0.886436 0.581150
0.761223 0.891603 0.586317
0.845110 0.896770 0.591484
0.090006 0.102306 0.554392
0.173893 0.107473 0.559559
0.257779 0.112639 0.564726
0.341666 0.117806 0.569893
0.425553 0.122973 0.575059
0.509439 0.128139 0.580226
0.593326 0.133306 0.585393
0.677213 0.138473 0.590559
0.761100 0.143640 0.595726
0.100783 0.196723 0.565170
0.184670 0.201890 0.570336
0.268557 0.207057 0.575503
0.352443 0.212223 0.580670
0.436330 0.217390 0.585837
0.520217 0.222557 0.591003
0.604104 0.227724 0.596170
0.687990 0.232890 0.601337
0.771877 0.238057 0.606503
0.111561 0.291141 0.575947
0.195447 0.296307 0.581114
0.279334 0.301474 0.586280
0.363221 0.306641 0.591447
0.447107 0.311807 0.596614
0.530994 0.316974 0.601781
0.614881 0.322141 0.606947
0.698768 0.327308 0.612114
0.782654 0.332474 0.617281
0.122338 0.385558 0.586724
0.206225 0.390725 0.591891
0.290111 0.395891 0.597058
0.373998 0.401058 0.602225
0.457885 0.406225 0.607391
0.541771 0.411391 0.612558
0.625658 0.416558 0.617725
0.709545 0.421725 0.622891
0.793432 0.426892 0.628058
0.133115 0.479975 0.597502
0.217002 0.485142 0.602668
0.300889 0.490309 0.607835
0.384775 0.495475 0.613002
0.468662 0.500642 0.618169
0.552549 0.505809 0.623335
0.636435 0.510975 0.628502
0.720322 0.516142 0.633669
0.804209 0.521309 0.638835
0.143892 0.574392 0.608279
0.227779 0.579559 0.613446
0.311666 0.584726 0.618612
0.395553 0.589893 0.623779
0.479439 0.595059 0.628946
0.563326 0.600226 0.634113
0.647213 0.605393 0.639279
0.731100 0.610560 0.644446
0.814986 0.615726 0.649613
0.154670 0.668810 0.619056
0.238557 0.673977 0.624223
0.322443 0.679143 0.629390
0.406330 0.684310 0.634556
0.490217 0.689477 0.639723
0.574103 0.694643 0.644890
0.657990 0.699810 0.650057
0.741877 0.704977 0.655223
0.825764 0.710144 0.660390
0.165447 0.763227 0.629834
0.249334 0.768394 0.635000
0.333221 0.773561 0.640167
0.417107 0.778727 0.645334
0.500994 0.783894 0.650501
0.584881 0.789061 0.655667
0.668767 0.794227 0.660834
0.752654 0.799394 0.666001
0.836541 0.804561 0.671167
0.176224 0.857644 0.640611
0.260111 0.862811 0.645778
0.343998 0.867978 0.650944
0.427885 0.873145 0.656111
0.511771 0.878311 0.661278
0.595658 0.883478 0.666445
0.679545 0.888645 0.671611
0.763431 0.893811 0.676778
0.847318 0.898978 0.681945
0.092214 0.104514 0.644853
0.176101 0.109681 0.650020
0.259988 0.114848 0.655187
0.343875 0.120015 0.660354
0.427761 0.125181 0.665520
0.511648 0.130348 0.670687
0.595535 0.135515 0.675854
0.679421 0.140681 0.681020
0.763308 0.145848 0.686187
0.102992 0.198932 0.655631
0.186878 0.204098 0.660797
0.270765 0.209265 0.665964
0.354652 0.214432 0.671131
0.438539 0.219599 0.676298
0.522425 0.224765 0.681464
0.606312 0.229932 0.686631
0.690199 0.235099 0.691798
0.774085 0.240265 0.696964
0.113769 0.293349 0.666408
0.197656 0.298516 0.671575
0.281542 0.303682 0.676741
0.365429 0.308849 0.681908
0.449316 0.314016 0.687075
0.533203 0.319183 0.692242
0.617089 0.324349 0.697408
0.700976 0.329516 0.702575
0.784863 0.334683 0.707742
0.124546 0.387766 0.677185
0.208433 0.392933 0.682352
0.292320 0.398100 0.687519
0.376206 0.403266 0.692685
0.460093 0.408433 0.697852
0.543980 0.413600 0.703019
0.627867 0.418767 0.708186
0.711753 0.423933 0.713352
0.795640 0.429100 0.718519
0.135324 0.482184 0.687963
0.219210 0.487350 0.693129
0.303097 0.492517 0.698296
0.386984 0.497684 0.703463
0.470871 0.502851 0.708630
0.554757 0.508017 0.713796
0.638644 0.513184 0.718963
0.722531 0.518351 0.724130
0.806417 0.523517 0.729296
0.146101 0.576601 0.698740
0.229988 0.581768 0.703907
0.313874 0.586934 0.709073
0.397761 0.592101 0.714240
0.481648 0.597268 0.719407
0.565535 0.602435 0.724574
0.649421 0.607601 0.729740
0.733308 0.612768 0.734907
0.817195 0.617935 0.740074
0.156878 0.671018 0.709517
0.240765 0.676185 0.714684
0.324652 0.681352 0.719851
0.408538 0.686518 0.725017
0.492425 0.691685 0.730184
0.576312 0.696852 0.735351
0.660199 0.702019 0.740518
0.744085 0.707185 0.745684
0.827972 0.712352 0.750851
0.167656 0.765436 0.720295
0.251542 0.770602 0.725461
0.335429 0.775769 0.730628
0.419316 0.780936 0.735795
0.503202 0.786102 0.740961
0.587089 0.791269 0.746128
0.670976 0.796436 0.751295
0.754863 0.801603 0.756462
0.838749 0.806769 0.761628
0.178433 0.859853 0.731072
0.262320 0.865020 0.736239
0.346206 0.870186 0.741405
0.430093 0.875353 0.746572
0.513980 0.880520 0.751739
0.597867 0.885687 0.756906
0.681753 0.890853 0.762072
0.765640 0.896020 0.767239
0.849527 0.901187 0.772406
0.094423 0.106723 0.735314
0.178310 0.111890 0.740481
0.262196 0.117056 0.745648
0.346083 0.122223 0.750814
0.429970 0.127390 0.755981
0.513856 0.132556 0.761148
0.597743 0.137723 0.766315
0.681630 0.142890 0.771481
0.765517 0.148057 0.776648
0.105200 0.201140 0.746092
0.189087 0.206307 0.751258
0.272974 0.211474 0.756425
0.356860 0.216640 0.761592
0.440747 0.221807 0.766759
0.524634 0.226974 0.771925
0.608520 0.232140 0.777092
0.692407 0.237307 0.782259
0.776294 0.242474 0.787425
0.115977 0.295557 0.756869
0.199864 0.300724 0.762036
0.283751 0.305891 0.767202
0.367638 0.311058 0.772369
0.451524 0.316224 0.777536
0.535411 0.321391 0.782703
0.619298 0.326558 0.787869
0.703184 0.331724 0.793036
0.787071 0.336891 0.798203
0.126755 0.389975 0.767646
0.210641 0.395141 0.772813
0.294528 0.400308 0.777980
0.378415 0.405475 0.783146
0.462302 0.410642 0.788313
0.546188 0.415808 0.793480
0.630075 0.420975 0.798647
0.713962 0.426142 0.803813
0.797849 0.431309 0.808980
0.137532 0.484392 0.778424
0.221419 0.489559 0.783590
0.305306 0.494726 0.788757
0.389192 0.499892 0.793924
0.473079 0.505059 0.799090
0.556966 0.510226 0.804257
0.640852 0.515392 0.809424
0.724739 0.520559 0.814591
0.808626 0.525726 0.819757
0.148309 0.578809 0.789201
0.232196 0.583976 0.794368
0.316083 0.589143 0.799534
0.399970 0.594310 0.804701
0.483856 0.599476 0.809868
0.567743 0.604643 0.815035
0.651630 0.609810 0.820201
0.735516 0.614976 0.825368
0.819403 0.620143 0.830535
0.159087 0.673227 0.799978
0.242973 0.678393 0.805145
0.326860 0.683560 0.810312
0.410747 0.688727 0.815478
0.494634 0.693894 0.820645
0.578520 0.699060 0.825812
0.662407 0.704227 0.830979
0.746294 0.709394 0.836145
0.830180 0.714560 0.841312
0.169864 0.767644 0.810756
0.253751 0.772811 0.815922
0.337637 0.777977 0.821089
0.421524 0.783144 0.826256
0.505411 0.788311 0.831422
0.589298 0.793478 0.836589
0.673184 0.798644 0.841756
0.757071 0.803811 0.846923
0.840958 0.808978 0.852089
0.180641 0.862061 0.821533
0.264528 0.867228 0.826700
0.348415 0.872395 0.831866
0.432302 0.877562 0.837033
0.516188 0.882728 0.842200
0.600075 0.887895 0.847366
0.683962 0.893062 0.852533
0.767848 0.898228 0.857700
0.851735 0.903395 0.862867
0.096631 0.108931 0.825775
0.180518 0.114098 0.830942
0.264405 0.119265 0.836109
0.348291 0.124431 0.841275
0.432178 0.129598 0.846442
0.516065 0.134765 0.851609
0.599952 0.139932 0.856776
0.683838 0.145098 0.861942
0.767725 0.150265 0.867109
0.107409 0.203349 0.836553
0.191295 0.208515 0.841719
0.275182 0.213682 0.846886
0.359069 0.218849 0.852053
0.442955 0.224015 0.857219
0.526842 0.229182 0.862386
0.610729 0.234349 0.867553
0.694616 0.239516 0.872720
0.778502 0.244682 0.877886
0.118186 0.297766 0.847330
0.202073 0.302933 0.852497
0.285959 0.308099 0.857663
0.369846 0.313266 0.862830
0.453733 0.318433 0.867997
0.537620 0.323600 0.873164
0.621506 0.328766 0.878330
0.705393 0.333933 0.883497
0.789280 0.339100 0.888664
0.128963 0.392183 0.858107
0.212850 0.397350 0.863274
0.296737 0.402517 0.868441
0.380623 0.407683 0.873607
0.464510 0.412850 0.878774
0.548397 0.418017 0.883941
0.632284 0.423184 0.889108
0.716170 0.428350 0.894274
0.800057 0.433517 0.899441
0.139741 0.486601 0.868885
0.223627 0.491767 0.874051
0.307514 0.496934 0.879218
0.391401 0.502101 0.884385
0.475287 0.507267 0.889551
0.559174 0.512434 0.894718
0.643061 0.517601 0.899885
0.726948 0.522768 0.905052
0.810834 0.527934 0.910218
0.150518 0.581018 0.879662
0.234405 0.586185 0.884829
0.318291 0.591351 0.889995
0.402178 0.596518 0.895162
0.486065 0.601685 0.900329
0.569951 0.606851 0.905495
0.653838 0.612018 0.910662
0.737725 0.617185 0.915829
0.821612 0.622352 0.920996
0.161295 0.675435 0.890439
0.245182 0.680602 0.895606
0.329069 0.685769 0.900773
0.412955 0.690935 0.905939
0.496842 0.696102 0.911106
0.580729 0.701269 0.916273
0.664616 0.706436 0.921440
0.748502 0.711602 0.926606
0.832389 0.716769 0.931773
0.172073 0.769853 0.901217
0.255959 0.775019 0.906383
0.339846 0.780186 0.911550
0.423733 0.785353 0.916717
0.507619 0.790519 0.921883
0.591506 0.795686 0.927050
0.675393 0.800853 0.932217
0.759280 0.806020 0.937384
0.843166 0.811186 0.942550
0.182850 0.864270 0.911994
0.266737 0.869437 0.917161
0.350623 0.874603 0.922327
0.434510 0.879770 0.927494
0.518397 0.884937 0.932661
0.602283 0.890103 0.937827
0.686170 0.895270 0.942994
0.770057 0.900437 0.948161
0.853944 0.905604 0.953328
