flutter_app/assets/lut/kodak_gold.cube
TITLE "Kodak Gold 200"
# Generated placeholder LUT for DAZZ development
# Replace with production-grade LUT before release
LUT_3D_SIZE 33
DOMAIN_MIN 0.0 0.0 0.0
DOMAIN_MAX 1.0 1.0 1.0
0.043040 0.029600 0.011960
0.075642 0.029600 0.011960
0.108245 0.029600 0.011960
0.140848 0.029600 0.011960
0.173450 0.029600 0.011960
0.206053 0.029600 0.011960
0.238655 0.029600 0.011960
0.271258 0.029600 0.011960
0.303860 0.029600 0.011960
0.336463 0.029600 0.011960
0.369065 0.029600 0.011960
0.401668 0.029600 0.011960
0.434270 0.029600 0.011960
0.466873 0.029600 0.011960
0.499475 0.029600 0.011960
0.532078 0.029600 0.011960
0.564680 0.029600 0.011960
0.597283 0.029600 0.011960
0.629885 0.029600 0.011960
0.662487 0.029600 0.011960
0.695090 0.029600 0.011960
0.727693 0.029600 0.011960
0.760295 0.029600 0.011960
0.792898 0.029600 0.011960
0.825500 0.029600 0.011960
0.858103 0.029600 0.011960
0.890705 0.029600 0.011960
0.923307 0.029600 0.011960
0.955910 0.029600 0.011960
0.988513 0.029600 0.011960
1.000000 0.029600 0.011960
1.000000 0.029600 0.011960
1.000000 0.029600 0.011960
0.043040 0.060995 0.011960
0.075642 0.060995 0.011960
0.108245 0.060995 0.011960
0.140848 0.060995 0.011960
0.173450 0.060995 0.011960
0.206053 0.060995 0.011960
0.238655 0.060995 0.011960
0.271258 0.060995 0.011960
0.303860 0.060995 0.011960
0.336463 0.060995 0.011960
0.369065 0.060995 0.011960
0.401668 0.060995 0.011960
0.434270 0.060995 0.011960
0.466873 0.060995 0.011960
0.499475 0.060995 0.011960
0.532078 0.060995 0.011960
0.564680 0.060995 0.011960
0.597283 0.060995 0.011960
0.629885 0.060995 0.011960
0.662487 0.060995 0.011960
0.695090 0.060995 0.011960
0.727693 0.060995 0.011960
0.760295 0.060995 0.011960
0.792898 0.060995 0.011960
0.825500 0.060995 0.011960
0.858103 0.060995 0.011960
0.890705 0.060995 0.011960
0.923307 0.060995 0.011960
0.955910 0.060995 0.011960
0.988513 0.060995 0.011960
1.000000 0.060995 0.011960
1.000000 0.060995 0.011960
1.000000 0.060995 0.011960
0.043040 0.092390 0.011960
0.075642 0.092390 0.011960
0.108245 0.092390 0.011960
0.140848 0.092390 0.011960
0.173450 0.092390 0.011960
0.206053 0.092390 0.011960
0.238655 0.092390 0.011960
0.271258 0.092390 0.011960
0.303860 0.092390 0.011960
0.336463 0.092390 0.011960
0.369065 0.092390 0.011960
0.401668 0.092390 0.011960
0.434270 0.092390 0.011960
0.466873 0.092390 0.011960
0.499475 0.092390 0.011960
0.532078 0.092390 0.011960
0.564680 0.092390 0.011960
0.597283 0.092390 0.011960
0.629885 0.092390 0.011960
0.662487 0.092390 0.011960
0.695090 0.092390 0.011960
0.727693 0.092390 0.011960
0.760295 0.092390 0.011960
0.792898 0.092390 0.011960
0.825500 0.092390 0.011960
0.858103 0.092390 0.011960
0.890705 0.092390 0.011960
0.923307 0.092390 0.011960
0.955910 0.092390 0.011960
0.988513 0.092390 0.011960
1.000000 0.092390 0.011960
1.000000 0.092390 0.011960
1.000000 0.092390 0.011960
0.043040 0.123785 0.011960
0.075642 0.123785 0.011960
0.108245 0.123785 0.011960
0.140848 0.123785 0.011960
0.173450 0.123785 0.011960
0.206053 0.123785 0.011960
0.238655 0.123785 0.011960
0.271258 0.123785 0.011960
0.303860 0.123785 0.011960
0.336463 0.123785 0.011960
0.369065 0.123785 0.011960
0.401668 0.123785 0.011960
0.434270 0.123785 0.011960
0.466873 0.123785 0.011960
0.499475 0.123785 0.011960
0.532078 0.123785 0.011960
0.564680 0.123785 0.011960
0.597283 0.123785 0.011960
0.629885 0.123785 0.011960
0.662487 0.123785 0.011960
0.695090 0.123785 0.011960
0.727693 0.123785 0.011960
0.760295 0.123785 0.011960
0.792898 0.123785 0.011960
0.825500 0.123785 0.011960
0.858103 0.123785 0.011960
0.890705 0.123785 0.011960
0.923307 0.123785 0.011960
0.955910 0.123785 0.011960
0.988513 0.123785 0.011960
1.000000 0.123785 0.011960
1.000000 0.123785 0.011960
1.000000 0.123785 0.011960
0.043040 0.155180 0.011960
0.075642 0.155180 0.011960
0.108245 0.155180 0.011960
0.140848 0.155180 0.011960
0.173450 0.155180 0.011960
0.206053 0.155180 0.011960
0.238655 0.155180 0.011960
0.271258 0.155180 0.011960
0.303860 0.155180 0.011960
0.336463 0.155180 0.011960
0.369065 0.155180 0.011960
0.401668 0.155180 0.011960
0.434270 0.155180 0.011960
0.466873 0.155180 0.011960
0.499475 0.155180 0.011960
0.532078 0.155180 0.011960
0.564680 0.155180 0.011960
0.597283 0.155180 0.011960
0.629885 0.155180 0.011960
0.662487 0.155180 0.011960
0.695090 0.155180 0.011960
0.727693 0.155180 0.011960
0.760295 0.155180 0.011960
0.792898 0.155180 0.011960
0.825500 0.155180 0.011960
0.858103 0.155180 0.011960
0.890705 0.155180 0.011960
0.923307 0.155180 0.011960
0.955910 0.155180 0.011960
0.988513 0.155180 0.011960
1.000000 0.155180 0.011960
1.000000 0.155180 0.011960
1.000000 0.155180 0.011960
0.043040 0.186575 0.011960
0.075642 0.186575 0.011960
0.108245 0.186575 0.011960
0.140848 0.186575 0.011960
0.173450 0.186575 0.011960
0.206053 0.186575 0.011960
0.238655 0.186575 0.011960
0.271258 0.186575 0.011960
0.303860 0.186575 0.011960
0.336463 0.186575 0.011960
0.369065 0.186575 0.011960
0.401668 0.186575 0.011960
0.434270 0.186575 0.011960
0.466873 0.186575 0.011960
0.499475 0.186575 0.011960
0.532078 0.186575 0.011960
0.564680 0.186575 0.011960
0.597283 0.186575 0.011960
0.629885 0.186575 0.011960
0.662487 0.186575 0.011960
0.695090 0.186575 0.011960
0.727693 0.186575 0.011960
0.760295 0.186575 0.011960
0.792898 0.186575 0.011960
0.825500 0.186575 0.011960
0.858103 0.186575 0.011960
0.890705 0.186575 0.011960
0.923307 0.186575 0.011960
0.955910 0.186575 0.011960
0.988513 0.186575 0.011960
1.000000 0.186575 0.011960
1.000000 0.186575 0.011960
1.000000 0.186575 0.011960
0.043040 0.217970 0.011960
0.075642 0.217970 0.011960
0.108245 0.217970 0.011960
0.140848 0.217970 0.011960
0.173450 0.217970 0.011960
0.206053 0.217970 0.011960
0.238655 0.217970 0.011960
0.271258 0.217970 0.011960
0.303860 0.217970 0.011960
0.336463 0.217970 0.011960
0.369065 0.217970 0.011960
0.401668 0.217970 0.011960
0.434270 0.217970 0.011960
0.466873 0.217970 0.011960
0.499475 0.217970 0.011960
0.532078 0.217970 0.011960
0.564680 0.217970 0.011960
0.597283 0.217970 0.011960
0.629885 0.217970 0.011960
0.662487 0.217970 0.011960
0.695090 0.217970 0.011960
0.727693 0.217970 0.011960
0.760295 0.217970 0.011960
0.792898 0.217970 0.011960
0.825500 0.217970 0.011960
0.858103 0.217970 0.011960
0.890705 0.217970 0.011960
0.923307 0.217970 0.011960
0.955910 0.217970 0.011960
0.988513 0.217970 0.011960
1.000000 0.217970 0.011960
1.000000 0.217970 0.011960
1.000000 0.217970 0.011960
0.043040 0.249365 0.011960
0.075642 0.249365 0.011960
0.108245 0.249365 0.011960
0.140848 0.249365 0.011960
0.173450 0.249365 0.011960
0.206053 0.249365 0.011960
0.238655 0.249365 0.011960
0.271258 0.249365 0.011960
0.303860 0.249365 0.011960
0.336463 0.249365 0.011960
0.369065 0.249365 0.011960
0.401668 0.249365 0.011960
0.434270 0.249365 0.011960
0.466873 0.249365 0.011960
0.499475 0.249365 0.011960
0.532078 0.249365 0.011960
0.564680 0.249365 0.011960
0.597283 0.249365 0.011960
0.629885 0.249365 0.011960
0.662487 0.249365 0.011960
0.695090 0.249365 0.011960
0.727693 0.249365 0.011960
0.760295 0.249365 0.011960
0.792898 0.249365 0.011960
0.825500 0.249365 0.011960
0.858103 0.249365 0.011960
0.890705 0.249365 0.011960
0.923307 0.249365 0.011960
0.955910 0.249365 0.011960
0.988513 0.249365 0.011960
1.000000 0.249365 0.011960
1.000000 0.249365 0.011960
1.000000 0.249365 0.011960
0.043040 0.280760 0.011960
0.075642 0.280760 0.011960
0.108245 0.280760 0.011960
0.140848 0.280760 0.011960
0.173450 0.280760 0.011960
0.206053 0.280760 0.011960
0.238655 0.280760 0.011960
0.271258 0.280760 0.011960
0.303860 0.280760 0.011960
0.336463 0.280760 0.011960
0.369065 0.280760 0.011960
0.401668 0.280760 0.011960
0.434270 0.280760 0.011960
0.466873 0.280760 0.011960
0.499475 0.280760 0.011960
0.532078 0.280760 0.011960
0.564680 0.280760 0.011960
0.597283 0.280760 0.011960
0.629885 0.280760 0.011960
0.662487 0.280760 0.011960
0.695090 0.280760 0.011960
0.727693 0.280760 0.011960
0.760295 0.280760 0.011960
0.792898 0.280760 0.011960
0.825500 0.280760 0.011960
0.858103 0.280760 0.011960
0.890705 0.280760 0.011960
0.923307 0.280760 0.011960
0.955910 0.280760 0.011960
0.988513 0.280760 0.011960
1.000000 0.280760 0.011960
1.000000 0.280760 0.011960
1.000000 0.280760 0.011960
0.043040 0.312155 0.011960
0.075642 0.312155 0.011960
0.108245 0.312155 0.011960
0.140848 0.312155 0.011960
0.173450 0.312155 0.011960
0.206053 0.312155 0.011960
0.238655 0.312155 0.011960
0.271258 0.312155 0.011960
0.303860 0.312155 0.011960
0.336463 0.312155 0.011960
0.369065 0.312155 0.011960
0.401668 0.312155 0.011960
0.434270 0.312155 0.011960
0.466873 0.312155 0.011960
0.499475 0.312155 0.011960
0.532078 0.312155 0.011960
0.564680 0.312155 0.011960
0.597283 0.312155 0.011960
0.629885 0.312155 0.011960
0.662487 0.312155 0.011960
0.695090 0.312155 0.011960
0.727693 0.312155 0.011960
0.760295 0.312155 0.011960
0.792898 0.312155 0.011960
0.825500 0.312155 0.011960
0.858103 0.312155 0.011960
0.890705 0.312155 0.011960
0.923307 0.312155 0.011960
0.955910 0.312155 0.011960
0.988513 0.312155 0.011960
1.000000 0.312155 0.011960
1.000000 0.312155 0.011960
1.000000 0.312155 0.011960
0.043040 0.343550 0.011960
0.075642 0.343550 0.011960
0.108245 0.343550 0.011960
0.140848 0.343550 0.011960
0.173450 0.343550 0.011960
0.206053 0.343550 0.011960
0.238655 0.343550 0.011960
0.271258 0.343550 0.011960
0.303860 0.343550 0.011960
0.336463 0.343550 0.011960
0.369065 0.343550 0.011960
0.401668 0.343550 0.011960
0.434270 0.343550 0.011960
0.466873 0.343550 0.011960
0.499475 0.343550 0.011960
0.532078 0.343550 0.011960
0.564680 0.343550 0.011960
0.597283 0.343550 0.011960
0.629885 0.343550 0.011960
0.662487 0.343550 0.011960
0.695090 0.343550 0.011960
0.727693 0.343550 0.011960
0.760295 0.343550 0.011960
0.792898 0.343550 0.011960
0.825500 0.343550 0.011960
0.858103 0.343550 0.011960
0.890705 0.343550 0.011960
0.923307 0.343550 0.011960
0.955910 0.343550 0.011960
0.988513 0.343550 0.011960
1.000000 0.343550 0.011960
1.000000 0.343550 0.011960
1.000000 0.343550 0.011960
0.043040 0.374945 0.011960
0.075642 0.374945 0.011960
0.108245 0.374945 0.011960
0.140848 0.374945 0.011960
0.173450 0.374945 0.011960
0.206053 0.374945 0.011960
0.238655 0.374945 0.011960
0.271258 0.374945 0.011960
0.303860 0.374945 0.011960
0.336463 0.374945 0.011960
0.369065 0.374945 0.011960
0.401668 0.374945 0.011960
0.434270 0.374945 0.011960
0.466873 0.374945 0.011960
0.499475 0.374945 0.011960
0.532078 0.374945 0.011960
0.564680 0.374945 0.011960
0.597283 0.374945 0.011960
0.629885 0.374945 0.011960
0.662487 0.374945 0.011960
0.695090 0.374945 0.011960
0.727693 0.374945 0.011960
0.760295 0.374945 0.011960
0.792898 0.374945 0.011960
0.825500 0.374945 0.011960
0.858103 0.374945 0.011960
0.890705 0.374945 0.011960
0.923307 0.374945 0.011960
0.955910 0.374945 0.011960
0.988513 0.374945 0.011960
1.000000 0.374945 0.011960
1.000000 0.374945 0.011960
1.000000 0.374945 0.011960
0.043040 0.406340 0.011960
0.075642 0.406340 0.011960
0.108245 0.406340 0.011960
0.140848 0.406340 0.011960
0.173450 0.406340 0.011960
0.206053 0.406340 0.011960
0.238655 0.406340 0.011960
0.271258 0.406340 0.011960
0.303860 0.406340 0.011960
0.336463 0.406340 0.011960
0.369065 0.406340 0.011960
0.401668 0.406340 0.011960
0.434270 0.406340 0.011960
0.466873 0.406340 0.011960
0.499475 0.406340 0.011960
0.532078 0.406340 0.011960
0.564680 0.406340 0.011960
0.597283 0.406340 0.011960
0.629885 0.406340 0.011960
0.662487 0.406340 0.011960
0.695090 0.406340 0.011960
0.727693 0.406340 0.011960
0.760295 0.406340 0.011960
0.792898 0.406340 0.011960
0.825500 0.406340 0.011960
0.858103 0.406340 0.011960
0.890705 0.406340 0.011960
0.923307 0.406340 0.011960
0.955910 0.406340 0.011960
0.988513 0.406340 0.011960
1.000000 0.406340 0.011960
1.000000 0.406340 0.011960
1.000000 0.406340 0.011960
0.043040 0.437735 0.011960
0.075642 0.437735 0.011960
0.108245 0.437735 0.011960
0.140848 0.437735 0.011960
0.173450 0.437735 0.011960
0.206053 0.437735 0.011960
0.238655 0.437735 0.011960
0.271258 0.437735 0.011960
0.303860 0.437735 0.011960
0.336463 0.437735 0.011960
0.369065 0.437735 0.011960
0.401668 0.437735 0.011960
0.434270 0.437735 0.011960
0.466873 0.437735 0.011960
0.499475 0.437735 0.011960
0.532078 0.437735 0.011960
0.564680 0.437735 0.011960
0.597283 0.437735 0.011960
0.629885 0.437735 0.011960
0.662487 0.437735 0.011960
0.695090 0.437735 0.011960
0.727693 0.437735 0.011960
0.760295 0.437735 0.011960
0.792898 0.437735 0.011960
0.825500 0.437735 0.011960
0.858103 0.437735 0.011960
0.890705 0.437735 0.011960
0.923307 0.437735 0.011960
0.955910 0.437735 0.011960
0.988513 0.437735 0.011960
1.000000 0.437735 0.011960
1.000000 0.437735 0.011960
1.000000 0.437735 0.011960
0.043040 0.469130 0.011960
0.075642 0.469130 0.011960
0.108245 0.469130 0.011960
0.140848 0.469130 0.011960
0.173450 0.469130 0.011960
0.206053 0.469130 0.011960
0.238655 0.469130 0.011960
0.271258 0.469130 0.011960
0.303860 0.469130 0.011960
0.336463 0.469130 0.011960
0.369065 0.469130 0.011960
0.401668 0.469130 0.011960
0.434270 0.469130 0.011960
0.466873 0.469130 0.011960
0.499475 0.469130 0.011960
0.532078 0.469130 0.011960
0.564680 0.469130 0.011960
0.597283 0.469130 0.011960
0.629885 0.469130 0.011960
0.662487 0.469130 0.011960
0.695090 0.469130 0.011960
0.727693 0.469130 0.011960
0.760295 0.469130 0.011960
0.792898 0.469130 0.011960
0.825500 0.469130 0.011960
0.858103 0.469130 0.011960
0.890705 0.469130 0.011960
0.923307 0.469130 0.011960
0.955910 0.469130 0.011960
0.988513 0.469130 0.011960
1.000000 0.469130 0.011960
1.000000 0.469130 0.011960
1.000000 0.469130 0.011960
0.043040 0.500525 0.011960
0.075642 0.500525 0.011960
0.108245 0.500525 0.011960
0.140848 0.500525 0.011960
0.173450 0.500525 0.011960
0.206053 0.500525 0.011960
0.238655 0.500525 0.011960
0.271258 0.500525 0.011960
0.303860 0.500525 0.011960
0.336463 0.500525 0.011960
0.369065 0.500525 0.011960
0.401668 0.500525 0.011960
0.434270 0.500525 0.011960
0.466873 0.500525 0.011960
0.499475 0.500525 0.011960
0.532078 0.500525 0.011960
0.564680 0.500525 0.011960
0.597283 0.500525 0.011960
0.629885 0.500525 0.011960
0.662487 0.500525 0.011960
0.695090 0.500525 0.011960
0.727693 0.500525 0.011960
0.760295 0.500525 0.011960
0.792898 0.500525 0.011960
0.825500 0.500525 0.011960
0.858103 0.500525 0.011960
0.890705 0.500525 0.011960
0.923307 0.500525 0.011960
0.955910 0.500525 0.011960
0.988513 0.500525 0.011960
1.000000 0.500525 0.011960
1.000000 0.500525 0.011960
1.000000 0.500525 0.011960
0.043040 0.531920 0.011960
0.075642 0.531920 0.011960
0.108245 0.531920 0.011960
0.140848 0.531920 0.011960
0.173450 0.531920 0.011960
0.206053 0.531920 0.011960
0.238655 0.531920 0.011960
0.271258 0.531920 0.011960
0.303860 0.531920 0.011960
0.336463 0.531920 0.011960
0.369065 0.531920 0.011960
0.401668 0.531920 0.011960
0.434270 0.531920 0.011960
0.466873 0.531920 0.011960
0.499475 0.531920 0.011960
0.532078 0.531920 0.011960
0.564680 0.531920 0.011960
0.597283 0.531920 0.011960
0.629885 0.531920 0.011960
0.662487 0.531920 0.011960
0.695090 0.531920 0.011960
0.727693 0.531920 0.011960
0.760295 0.531920 0.011960
0.792898 0.531920 0.011960
0.825500 0.531920 0.011960
0.858103 0.531920 0.011960
0.890705 0.531920 0.011960
0.923307 0.531920 0.011960
0.955910 0.531920 0.011960
0.988513 0.531920 0.011960
1.000000 0.531920 0.011960
1.000000 0.531920 0.011960
1.000000 0.531920 0.011960
0.043040 0.563315 0.011960
0.075642 0.563315 0.011960
0.108245 0.563315 0.011960
0.140848 0.563315 0.011960
0.173450 0.563315 0.011960
0.206053 0.563315 0.011960
0.238655 0.563315 0.011960
0.271258 0.563315 0.011960
0.303860 0.563315 0.011960
0.336463 0.563315 0.011960
0.369065 0.563315 0.011960
0.401668 0.563315 0.011960
0.434270 0.563315 0.011960
0.466873 0.563315 0.011960
0.499475 0.563315 0.011960
0.532078 0.563315 0.011960
0.564680 0.563315 0.011960
0.597283 0.563315 0.011960
0.629885 0.563315 0.011960
0.662487 0.563315 0.011960
0.695090 0.563315 0.011960
0.727693 0.563315 0.011960
0.760295 0.563315 0.011960
0.792898 0.563315 0.011960
0.825500 0.563315 0.011960
0.858103 0.563315 0.011960
0.890705 0.563315 0.011960
0.923307 0.563315 0.011960
0.955910 0.563315 0.011960
0.988513 0.563315 0.011960
1.000000 0.563315 0.011960
1.000000 0.563315 0.011960
1.000000 0.563315 0.011960
0.043040 0.594710 0.011960
0.075642 0.594710 0.011960
0.108245 0.594710 0.011960
0.140848 0.594710 0.011960
0.173450 0.594710 0.011960
0.206053 0.594710 0.011960
0.238655 0.594710 0.011960
0.271258 0.594710 0.011960
0.303860 0.594710 0.011960
0.336463 0.594710 0.011960
0.369065 0.594710 0.011960
0.401668 0.594710 0.011960
0.434270 0.594710 0.011960
0.466873 0.594710 0.011960
0.499475 0.594710 0.011960
0.532078 0.594710 0.011960
0.564680 0.594710 0.011960
0.597283 0.594710 0.011960
0.629885 0.594710 0.011960
0.662487 0.594710 0.011960
0.695090 0.594710 0.011960
0.727693 0.594710 0.011960
0.760295 0.594710 0.011960
0.792898 0.594710 0.011960
0.825500 0.594710 0.011960
0.858103 0.594710 0.011960
0.890705 0.594710 0.011960
0.923307 0.594710 0.011960
0.955910 0.594710 0.011960
0.988513 0.594710 0.011960
1.000000 0.594710 0.011960
1.000000 0.594710 0.011960
1.000000 0.594710 0.011960
0.043040 0.626105 0.011960
0.075642 0.626105 0.011960
0.108245 0.626105 0.011960
0.140848 0.626105 0.011960
0.173450 0.626105 0.011960
0.206053 0.626105 0.011960
0.238655 0.626105 0.011960
0.271258 0.626105 0.011960
0.303860 0.626105 0.011960
0.336463 0.626105 0.011960
0.369065 0.626105 0.011960
0.401668 0.626105 0.011960
0.434270 0.626105 0.011960
0.466873 0.626105 0.011960
0.499475 0.626105 0.011960
0.532078 0.626105 0.011960
0.564680 0.626105 0.011960
0.597283 0.626105 0.011960
0.629885 0.626105 0.011960
0.662487 0.626105 0.011960
0.695090 0.626105 0.011960
0.727693 0.626105 0.011960
0.760295 0.626105 0.011960
0.792898 0.626105 0.011960
0.825500 0.626105 0.011960
0.858103 0.626105 0.011960
0.890705 0.626105 0.011960
0.923307 0.626105 0.011960
0.955910 0.626105 0.011960
0.988513 0.626105 0.011960
1.000000 0.626105 0.011960
1.000000 0.626105 0.011960
1.000000 0.626105 0.011960
0.043040 0.657500 0.011960
0.075642 0.657500 0.011960
0.108245 0.657500 0.011960
0.140848 0.657500 0.011960
0.173450 0.657500 0.011960
0.206053 0.657500 0.011960
0.238655 0.657500 0.011960
0.271258 0.657500 0.011960
0.303860 0.657500 0.011960
0.336463 0.657500 0.011960
0.369065 0.657500 0.011960
0.401668 0.657500 0.011960
0.434270 0.657500 0.011960
0.466873 0.657500 0.011960
0.499475 0.657500 0.011960
0.532078 0.657500 0.011960
0.564680 0.657500 0.011960
0.597283 0.657500 0.011960
0.629885 0.657500 0.011960
0.662487 0.657500 0.011960
0.695090 0.657500 0.011960
0.727693 0.657500 0.011960
0.760295 0.657500 0.011960
0.792898 0.657500 0.011960
0.825500 0.657500 0.011960
0.858103 0.657500 0.011960
0.890705 0.657500 0.011960
0.923307 0.657500 0.011960
0.955910 0.657500 0.011960
0.988513 0.657500 0.011960
1.000000 0.657500 0.011960
1.000000 0.657500 0.011960
1.000000 0.657500 0.011960
0.043040 0.688895 0.011960
0.075642 0.688895 0.011960
0.108245 0.688895 0.011960
0.140848 0.688895 0.011960
0.173450 0.688895 0.011960
0.206053 0.688895 0.011960
0.238655 0.688895 0.011960
0.271258 0.688895 0.011960
0.303860 0.688895 0.011960
0.336463 0.688895 0.011960
0.369065 0.688895 0.011960
0.401668 0.688895 0.011960
0.434270 0.688895 0.011960
0.466873 0.688895 0.011960
0.499475 0.688895 0.011960
0.532078 0.688895 0.011960
0.564680 0.688895 0.011960
0.597283 0.688895 0.011960
0.629885 0.688895 0.011960
0.662487 0.688895 0.011960
0.695090 0.688895 0.011960
0.727693 0.688895 0.011960
0.760295 0.688895 0.011960
0.792898 0.688895 0.011960
0.825500 0.688895 0.011960
0.858103 0.688895 0.011960
0.890705 0.688895 0.011960
0.923307 0.688895 0.011960
0.955910 0.688895 0.011960
0.988513 0.688895 0.011960
1.000000 0.688895 0.011960
1.000000 0.688895 0.011960
1.000000 0.688895 0.011960
0.043040 0.720290 0.011960
0.075642 0.720290 0.011960
0.108245 0.720290 0.011960
0.140848 0.720290 0.011960
0.173450 0.720290 0.011960
0.206053 0.720290 0.011960
0.238655 0.720290 0.011960
0.271258 0.720290 0.011960
0.303860 0.720290 0.011960
0.336463 0.720290 0.011960
0.369065 0.720290 0.011960
0.401668 0.720290 0.011960
0.434270 0.720290 0.011960
0.466873 0.720290 0.011960
0.499475 0.720290 0.011960
0.532078 0.720290 0.011960
0.564680 0.720290 0.011960
0.597283 0.720290 0.011960
0.629885 0.720290 0.011960
0.662487 0.720290 0.011960
0.695090 0.720290 0.011960
0.727693 0.720290 0.011960
0.760295 0.720290 0.011960
0.792898 0.720290 0.011960
0.825500 0.720290 0.011960
0.858103 0.720290 0.011960
0.890705 0.720290 0.011960
0.923307 0.720290 0.011960
0.955910 0.720290 0.011960
0.988513 0.720290 0.011960
1.000000 0.720290 0.011960
1.000000 0.720290 0.011960
1.000000 0.720290 0.011960
0.043040 0.751685 0.011960
0.075642 0.751685 0.011960
0.108245 0.751685 0.011960
0.140848 0.751685 0.011960
0.173450 0.751685 0.011960
0.206053 0.751685 0.011960
0.238655 0.751685 0.011960
0.271258 0.751685 0.011960
0.303860 0.751685 0.011960
0.336463 0.751685 0.011960
0.369065 0.751685 0.011960
0.401668 0.751685 0.011960
0.434270 0.751685 0.011960
0.466873 0.751685 0.011960
0.499475 0.751685 0.011960
0.532078 0.751685 0.011960
0.564680 0.751685 0.011960
0.597283 0.751685 0.011960
0.629885 0.751685 0.011960
0.662487 0.751685 0.011960
0.695090 0.751685 0.011960
0.727693 0.751685 0.011960
0.760295 0.751685 0.011960
0.792898 0.751685 0.011960
0.825500 0.751685 0.011960
0.858103 0.751685 0.011960
0.890705 0.751685 0.011960
0.923307 0.751685 0.011960
0.955910 0.751685 0.011960
0.988513 0.751685 0.011960
1.000000 0.751685 0.011960
1.000000 0.751685 0.011960
1.000000 0.751685 0.011960
0.043040 0.783080 0.011960
0.075642 0.783080 0.011960
0.108245 0.783080 0.011960
0.140848 0.783080 0.011960
0.173450 0.783080 0.011960
0.206053 0.783080 0.011960
0.238655 0.783080 0.011960
0.271258 0.783080 0.011960
0.303860 0.783080 0.011960
0.336463 0.783080 0.011960
0.369065 0.783080 0.011960
0.401668 0.783080 0.011960
0.434270 0.783080 0.011960
0.466873 0.783080 0.011960
0.499475 0.783080 0.011960
0.532078 0.783080 0.011960
0.564680 0.783080 0.011960
0.597283 0.783080 0.011960
0.629885 0.783080 0.011960
0.662487 0.783080 0.011960
0.695090 0.783080 0.011960
0.727693 0.783080 0.011960
0.760295 0.783080 0.011960
0.792898 0.783080 0.011960
0.825500 0.783080 0.011960
0.858103 0.783080 0.011960
0.890705 0.783080 0.011960
0.923307 0.783080 0.011960
0.955910 0.783080 0.011960
0.988513 0.783080 0.011960
1.000000 0.783080 0.011960
1.000000 0.783080 0.011960
1.000000 0.783080 0.011960
0.043040 0.814475 0.011960
0.075642 0.814475 0.011960
0.108245 0.814475 0.011960
0.140848 0.814475 0.011960
0.173450 0.814475 0.011960
0.206053 0.814475 0.011960
0.238655 0.814475 0.011960
0.271258 0.814475 0.011960
0.303860 0.814475 0.011960
0.336463 0.814475 0.011960
0.369065 0.814475 0.011960
0.401668 0.814475 0.011960
0.434270 0.814475 0.011960
0.466873 0.814475 0.011960
0.499475 0.814475 0.011960
0.532078 0.814475 0.011960
0.564680 0.814475 0.011960
0.597283 0.814475 0.011960
0.629885 0.814475 0.011960
0.662487 0.814475 0.011960
0.695090 0.814475 0.011960
0.727693 0.814475 0.011960
0.760295 0.814475 0.011960
0.792898 0.814475 0.011960
0.825500 0.814475 0.011960
0.858103 0.814475 0.011960
0.890705 0.814475 0.011960
0.923307 0.814475 0.011960
0.955910 0.814475 0.011960
0.988513 0.814475 0.011960
1.000000 0.814475 0.011960
1.000000 0.814475 0.011960
1.000000 0.814475 0.011960
0.043040 0.845870 0.011960
0.075642 0.845870 0.011960
0.108245 0.845870 0.011960
0.140848 0.845870 0.011960
0.173450 0.845870 0.011960
0.206053 0.845870 0.011960
0.238655 0.845870 0.011960
0.271258 0.845870 0.011960
0.303860 0.845870 0.011960
0.336463 0.845870 0.011960
0.369065 0.845870 0.011960
0.401668 0.845870 0.011960
0.434270 0.845870 0.011960
0.466873 0.845870 0.011960
0.499475 0.845870 0.011960
0.532078 0.845870 0.011960
0.564680 0.845870 0.011960
0.597283 0.845870 0.011960
0.629885 0.845870 0.011960
0.662487 0.845870 0.011960
0.695090 0.845870 0.011960
0.727693 0.845870 0.011960
0.760295 0.845870 0.011960
0.792898 0.845870 0.011960
