flutter_app/assets/lut/kodak_gold.cube
TITLE "Kodak Gold 200"
# Generated placeholder LUT for DAZZ development
# Replace with production-grade LUT before release
LUT_3D_SIZE 9
DOMAIN_MIN 0.0 0.0 0.0
DOMAIN_MAX 1.0 1.0 1.0
0.043040 0.029600 0.011960
0.173450 0.029600 0.011960
0.303860 0.029600 0.011960
0.434270 0.029600 0.011960
0.564680 0.029600 0.011960
0.695090 0.029600 0.011960
0.825500 0.029600 0.011960
0.955910 0.029600 0.011960
1.000000 0.029600 0.011960
0.043040 0.155180 0.011960
0.173450 0.155180 0.011960
0.303860 0.155180 0.011960
0.434270 0.155180 0.011960
0.564680 0.155180 0.011960
0.695090 0.155180 0.011960
0.825500 0.155180 0.011960
0.955910 0.155180 0.011960
1.000000 0.155180 0.011960
0.043040 0.280760 0.011960
0.173450 0.280760 0.011960
0.303860 0.280760 0.011960
0.434270 0.280760 0.011960
0.564680 0.280760 0.011960
0.695090 0.280760 0.011960
0.825500 0.280760 0.011960
0.955910 0.280760 0.011960
1.000000 0.280760 0.011960
0.043040 0.406340 0.011960
0.173450 0.406340 0.011960
0.303860 0.406340 0.011960
0.434270 0.406340 0.011960
0.564680 0.406340 0.011960
0.695090 0.406340 0.011960
0.825500 0.406340 0.011960
0.955910 0.406340 0.011960
1.000000 0.406340 0.011960
0.043040 0.531920 0.011960
0.173450 0.531920 0.011960
0.303860 0.531920 0.011960
0.434270 0.531920 0.011960
0.564680 0.531920 0.011960
0.695090 0.531920 0.011960
0.825500 0.531920 0.011960
0.955910 0.531920 0.011960
1.000000 0.531920 0.011960
0.043040 0.657500 0.011960
0.173450 0.657500 0.011960
0.303860 0.657500 0.011960
0.434270 0.657500 0.011960
0.564680 0.657500 0.011960
0.695090 0.657500 0.011960
0.825500 0.657500 0.011960
0.955910 0.657500 0.011960
1.000000 0.657500 0.011960
0.043040 0.783080 0.011960
0.173450 0.783080 0.011960
0.303860 0.783080 0.011960
0.434270 0.783080 0.011960
0.564680 0.783080 0.011960
0.695090 0.783080 0.011960
0.825500 0.783080 0.011960
0.955910 0.783080 0.011960
1.000000 0.783080 0.011960
0.043040 0.908660 0.011960
0.173450 0.908660 0.011960
0.303860 0.908660 0.011960
0.434270 0.908660 0.011960
0.564680 0.908660 0.011960
0.695090 0.908660 0.011960
0.825500 0.908660 0.011960
0.955910 0.908660 0.011960
1.000000 0.908660 0.011960
0.043040 1.000000 0.011960
0.173450 1.000000 0.011960
0.303860 1.000000 0.011960
0.434270 1.000000 0.011960
0.564680 1.000000 0.011960
0.695090 1.000000 0.011960
0.825500 1.000000 0.011960
0.955910 1.000000 0.011960
1.000000 1.000000 0.011960
0.043040 0.029600 0.115910
0.173450 0.029600 0.115910
0.303860 0.029600 0.115910
0.434270 0.029600 0.115910
0.564680 0.029600 0.115910
0.695090 0.029600 0.115910
0.825500 0.029600 0.115910
0.955910 0.029600 0.115910
1.000000 0.029600 0.115910
0.043040 0.155180 0.115910
0.173450 0.155180 0.115910
0.303860 0.155180 0.115910
0.434270 0.155180 0.115910
0.564680 0.155180 0.115910
0.695090 0.155180 0.115910
0.825500 0.155180 0.115910
0.955910 0.155180 0.115910
1.000000 0.155180 0.115910
0.043040 0.280760 0.115910
0.173450 0.280760 0.115910
0.303860 0.280760 0.115910
0.434270 0.280760 0.115910
0.564680 0.280760 0.115910
0.695090 0.280760 0.115910
0.825500 0.280760 0.115910
0.955910 0.280760 0.115910
1.000000 0.280760 0.115910
0.043040 0.406340 0.115910
0.173450 0.406340 0.115910
0.303860 0.406340 0.115910
0.434270 0.406340 0.115910
0.564680 0.406340 0.115910
0.695090 0.406340 0.115910
0.825500 0.406340 0.115910
0.955910 0.406340 0.115910
1.000000 0.406340 0.115910
0.043040 0.531920 0.115910
0.173450 0.531920 0.115910
0.303860 0.531920 0.115910
0.434270 0.531920 0.115910
0.564680 0.531920 0.115910
0.695090 0.531920 0.115910
0.825500 0.531920 0.115910
0.955910 0.531920 0.115910
1.000000 0.531920 0.115910
0.043040 0.657500 0.115910
0.173450 0.657500 0.115910
0.303860 0.657500 0.115910
0.434270 0.657500 0.115910
0.564680 0.657500 0.115910
0.695090 0.657500 0.115910
0.825500 0.657500 0.115910
0.955910 0.657500 0.115910
1.000000 0.657500 0.115910
0.043040 0.783080 0.115910
0.173450 0.783080 0.115910
0.303860 0.783080 0.115910
0.434270 0.783080 0.115910
0.564680 0.783080 0.115910
0.695090 0.783080 0.115910
0.825500 0.783080 0.115910
0.955910 0.783080 0.115910
1.000000 0.783080 0.115910
0.043040 0.908660 0.115910
0.173450 0.908660 0.115910
0.303860 0.908660 0.115910
0.434270 0.908660 0.115910
0.564680 0.908660 0.115910
0.695090 0.908660 0.115910
0.825500 0.908660 0.115910
0.955910 0.908660 0.115910
1.000000 0.908660 0.115910
0.043040 1.000000 0.115910
0.173450 1.000000 0.115910
0.303860 1.000000 0.115910
0.434270 1.000000 0.115910
0.564680 1.000000 0.115910
0.695090 1.000000 0.115910
0.825500 1.000000 0.115910
0.955910 1.000000 0.115910
1.000000 1.000000 0.115910
0.043040 0.029600 0.219860
0.173450 0.029600 0.219860
0.303860 0.029600 0.219860
0.434270 0.029600 0.219860
0.564680 0.029600 0.219860
0.695090 0.029600 0.219860
0.825500 0.029600 0.219860
0.955910 0.029600 0.219860
1.000000 0.029600 0.219860
0.043040 0.155180 0.219860
0.173450 0.155180 0.219860
0.303860 0.155180 0.219860
0.434270 0.155180 0.219860
0.564680 0.155180 0.219860
0.695090 0.155180 0.219860
0.825500 0.155180 0.219860
0.955910 0.155180 0.219860
1.000000 0.155180 0.219860
0.043040 0.280760 0.219860
0.173450 0.280760 0.219860
0.303860 0.280760 0.219860
0.434270 0.280760 0.219860
0.564680 0.280760 0.219860
0.695090 0.280760 0.219860
0.825500 0.280760 0.219860
0.955910 0.280760 0.219860
1.000000 0.280760 0.219860
0.043040 0.406340 0.219860
0.173450 0.406340 0.219860
0.303860 0.406340 0.219860
0.434270 0.406340 0.219860
0.564680 0.406340 0.219860
0.695090 0.406340 0.219860
0.825500 0.406340 0.219860
0.955910 0.406340 0.219860
1.000000 0.406340 0.219860
0.043040 0.531920 0.219860
0.173450 0.531920 0.219860
0.303860 0.531920 0.219860
0.434270 0.531920 0.219860
0.564680 0.531920 0.219860
0.695090 0.531920 0.219860
0.825500 0.531920 0.219860
0.955910 0.531920 0.219860
1.000000 0.531920 0.219860
0.043040 0.657500 0.219860
0.173450 0.657500 0.219860
0.303860 0.657500 0.219860
0.434270 0.657500 0.219860
0.564680 0.657500 0.219860
0.695090 0.657500 0.219860
0.825500 0.657500 0.219860
0.955910 0.657500 0.219860
1.000000 0.657500 0.219860
0.043040 0.783080 0.219860
0.173450 0.783080 0.219860
0.303860 0.783080 0.219860
0.434270 0.783080 0.219860
0.564680 0.783080 0.219860
0.695090 0.783080 0.219860
0.825500 0.783080 0.219860
0.955910 0.783080 0.219860
1.000000 0.783080 0.219860
0.043040 0.908660 0.219860
0.173450 0.908660 0.219860
0.303860 0.908660 0.219860
0.434270 0.908660 0.219860
0.564680 0.908660 0.219860
0.695090 0.908660 0.219860
0.825500 0.908660 0.219860
0.955910 0.908660 0.219860
1.000000 0.908660 0.219860
0.043040 1.000000 0.219860
0.173450 1.000000 0.219860
0.303860 1.000000 0.219860
0.434270 1.000000 0.219860
0.564680 1.000000 0.219860
0.695090 1.000000 0.219860
0.825500 1.000000 0.219860
0.955910 1.000000 0.219860
1.000000 1.000000 0.219860
0.043040 0.029600 0.323810
0.173450 0.029600 0.323810
0.303860 0.029600 0.323810
0.434270 0.029600 0.323810
0.564680 0.029600 0.323810
0.695090 0.029600 0.323810
0.825500 0.029600 0.323810
0.955910 0.029600 0.323810
1.000000 0.029600 0.323810
0.043040 0.155180 0.323810
0.173450 0.155180 0.323810
0.303860 0.155180 0.323810
0.434270 0.155180 0.323810
0.564680 0.155180 0.323810
0.695090 0.155180 0.323810
0.825500 0.155180 0.323810
0.955910 0.155180 0.323810
1.000000 0.155180 0.323810
0.043040 0.280760 0.323810
0.173450 0.280760 0.323810
0.303860 0.280760 0.323810
0.434270 0.280760 0.323810
0.564680 0.280760 0.323810
0.695090 0.280760 0.323810
0.825500 0.280760 0.323810
0.955910 0.280760 0.323810
1.000000 0.280760 0.323810
0.043040 0.406340 0.323810
0.173450 0.406340 0.323810
0.303860 0.406340 0.323810
0.434270 0.406340 0.323810
0.564680 0.406340 0.323810
0.695090 0.406340 0.323810
0.825500 0.406340 0.323810
0.955910 0.406340 0.323810
1.000000 0.406340 0.323810
0.043040 0.531920 0.323810
0.173450 0.531920 0.323810
0.303860 0.531920 0.323810
0.434270 0.531920 0.323810
0.564680 0.531920 0.323810
0.695090 0.531920 0.323810
0.825500 0.531920 0.323810
0.955910 0.531920 0.323810
1.000000 0.531920 0.323810
0.043040 0.657500 0.323810
0.173450 0.657500 0.323810
0.303860 0.657500 0.323810
0.434270 0.657500 0.323810
0.564680 0.657500 0.323810
0.695090 0.657500 0.323810
0.825500 0.657500 0.323810
0.955910 0.657500 0.323810
1.000000 0.657500 0.323810
0.043040 0.783080 0.323810
0.173450 0.783080 0.323810
0.303860 0.783080 0.323810
0.434270 0.783080 0.323810
0.564680 0.783080 0.323810
0.695090 0.783080 0.323810
0.825500 0.783080 0.323810
0.955910 0.783080 0.323810
1.000000 0.783080 0.323810
0.043040 0.908660 0.323810
0.173450 0.908660 0.323810
0.303860 0.908660 0.323810
0.434270 0.908660 0.323810
0.564680 0.908660 0.323810
0.695090 0.908660 0.323810
0.825500 0.908660 0.323810
0.955910 0.908660 0.323810
1.000000 0.908660 0.323810
0.043040 1.000000 0.323810
0.173450 1.000000 0.323810
0.303860 1.000000 0.323810
0.434270 1.000000 0.323810
0.564680 1.000000 0.323810
0.695090 1.000000 0.323810
0.825500 1.000000 0.323810
0.955910 1.000000 0.323810
1.000000 1.000000 0.323810
0.043040 0.029600 0.427760
0.173450 0.029600 0.427760
0.303860 0.029600 0.427760
0.434270 0.029600 0.427760
0.564680 0.029600 0.427760
0.695090 0.029600 0.427760
0.825500 0.029600 0.427760
0.955910 0.029600 0.427760
1.000000 0.029600 0.427760
0.043040 0.155180 0.427760
0.173450 0.155180 0.427760
0.303860 0.155180 0.427760
0.434270 0.155180 0.427760
0.564680 0.155180 0.427760
0.695090 0.155180 0.427760
0.825500 0.155180 0.427760
0.955910 0.155180 0.427760
1.000000 0.155180 0.427760
0.043040 0.280760 0.427760
0.173450 0.280760 0.427760
0.303860 0.280760 0.427760
0.434270 0.280760 0.427760
0.564680 0.280760 0.427760
0.695090 0.280760 0.427760
0.825500 0.280760 0.427760
0.955910 0.280760 0.427760
1.000000 0.280760 0.427760
0.043040 0.406340 0.427760
0.173450 0.406340 0.427760
0.303860 0.406340 0.427760
0.434270 0.406340 0.427760
0.564680 0.406340 0.427760
0.695090 0.406340 0.427760
0.825500 0.406340 0.427760
0.955910 0.406340 0.427760
1.000000 0.406340 0.427760
0.043040 0.531920 0.427760
0.173450 0.531920 0.427760
0.303860 0.531920 0.427760
0.434270 0.531920 0.427760
0.564680 0.531920 0.427760
0.695090 0.531920 0.427760
0.825500 0.531920 0.427760
0.955910 0.531920 0.427760
1.000000 0.531920 0.427760
0.043040 0.657500 0.427760
0.173450 0.657500 0.427760
0.303860 0.657500 0.427760
0.434270 0.657500 0.427760
0.564680 0.657500 0.427760
0.695090 0.657500 0.427760
0.825500 0.657500 0.427760
0.955910 0.657500 0.427760
1.000000 0.657500 0.427760
0.043040 0.783080 0.427760
0.173450 0.783080 0.427760
0.303860 0.783080 0.427760
0.434270 0.783080 0.427760
0.564680 0.783080 0.427760
0.695090 0.783080 0.427760
0.825500 0.783080 0.427760
0.955910 0.783080 0.427760
1.000000 0.783080 0.427760
0.043040 0.908660 0.427760
0.173450 0.908660 0.427760
0.303860 0.908660 0.427760
0.434270 0.908660 0.427760
0.564680 0.908660 0.427760
0.695090 0.908660 0.427760
0.825500 0.908660 0.427760
0.955910 0.908660 0.427760
1.000000 0.908660 0.427760
0.043040 1.000000 0.427760
0.173450 1.000000 0.427760
0.303860 1.000000 0.427760
0.434270 1.000000 0.427760
0.564680 1.000000 0.427760
0.695090 1.000000 0.427760
0.825500 1.000000 0.427760
0.955910 1.000000 0.427760
1.000000 1.000000 0.427760
0.043040 0.029600 0.531710
0.173450 0.029600 0.531710
0.303860 0.029600 0.531710
0.434270 0.029600 0.531710
0.564680 0.029600 0.531710
0.695090 0.029600 0.531710
0.825500 0.029600 0.531710
0.955910 0.029600 0.531710
1.000000 0.029600 0.531710
0.043040 0.155180 0.531710
0.173450 0.155180 0.531710
0.303860 0.155180 0.531710
0.434270 0.155180 0.531710
0.564680 0.155180 0.531710
0.695090 0.155180 0.531710
0.825500 0.155180 0.531710
0.955910 0.155180 0.531710
1.000000 0.155180 0.531710
0.043040 0.280760 0.531710
0.173450 0.280760 0.531710
0.303860 0.280760 0.531710
0.434270 0.280760 0.531710
0.564680 0.280760 0.531710
0.695090 0.280760 0.531710
0.825500 0.280760 0.531710
0.955910 0.280760 0.531710
1.000000 0.280760 0.531710
0.043040 0.406340 0.531710
0.173450 0.406340 0.531710
0.303860 0.406340 0.531710
0.434270 0.406340 0.531710
0.564680 0.406340 0.531710
0.695090 0.406340 0.531710
0.825500 0.406340 0.531710
0.955910 0.406340 0.531710
1.000000 0.406340 0.531710
0.043040 0.531920 0.531710
0.173450 0.531920 0.531710
0.303860 0.531920 0.531710
0.434270 0.531920 0.531710
0.564680 0.531920 0.531710
0.695090 0.531920 0.531710
0.825500 0.531920 0.531710
0.955910 0.531920 0.531710
1.000000 0.531920 0.531710
0.043040 0.657500 0.531710
0.173450 0.657500 0.531710
0.303860 0.657500 0.531710
0.434270 0.657500 0.531710
0.564680 0.657500 0.531710
0.695090 0.657500 0.531710
0.825500 0.657500 0.531710
0.955910 0.657500 0.531710
1.000000 0.657500 0.531710
0.043040 0.783080 0.531710
0.173450 0.783080 0.531710
0.303860 0.783080 0.531710
0.434270 0.783080 0.531710
0.564680 0.783080 0.531710
0.695090 0.783080 0.531710
0.825500 0.783080 0.531710
0.955910 0.783080 0.531710
1.000000 0.783080 0.531710
0.043040 0.908660 0.531710
0.173450 0.908660 0.531710
0.303860 0.908660 0.531710
0.434270 0.908660 0.531710
0.564680 0.908660 0.531710
0.695090 0.908660 0.531710
0.825500 0.908660 0.531710
0.955910 0.908660 0.531710
1.000000 0.908660 0.531710
0.043040 1.000000 0.531710
0.173450 1.000000 0.531710
0.303860 1.000000 0.531710
0.434270 1.000000 0.531710
0.564680 1.000000 0.531710
0.695090 1.000000 0.531710
0.825500 1.000000 0.531710
0.955910 1.000000 0.531710
1.000000 1.000000 0.531710
0.043040 0.029600 0.635660
0.173450 0.029600 0.635660
0.303860 0.029600 0.635660
0.434270 0.029600 0.635660
0.564680 0.029600 0.635660
0.695090 0.029600 0.635660
0.825500 0.029600 0.635660
0.955910 0.029600 0.635660
1.000000 0.029600 0.635660
0.043040 0.155180 0.635660
0.173450 0.155180 0.635660
0.303860 0.155180 0.635660
0.434270 0.155180 0.635660
0.564680 0.155180 0.635660
0.695090 0.155180 0.635660
0.825500 0.155180 0.635660
0.955910 0.155180 0.635660
1.000000 0.155180 0.635660
0.043040 0.280760 0.635660
0.173450 0.280760 0.635660
0.303860 0.280760 0.635660
0.434270 0.280760 0.635660
0.564680 0.280760 0.635660
0.695090 0.280760 0.635660
0.825500 0.280760 0.635660
0.955910 0.280760 0.635660
1.000000 0.280760 0.635660
0.043040 0.406340 0.635660
0.173450 0.406340 0.635660
0.303860 0.406340 0.635660
0.434270 0.406340 0.635660
0.564680 0.406340 0.635660
0.695090 0.406340 0.635660
0.825500 0.406340 0.635660
0.955910 0.406340 0.635660
1.000000 0.406340 0.635660
0.043040 0.531920 0.635660
0.173450 0.531920 0.635660
0.303860 0.531920 0.635660
0.434270 0.531920 0.635660
0.564680 0.531920 0.635660
0.695090 0.531920 0.635660
0.825500 0.531920 0.635660
0.955910 0.531920 0.635660
1.000000 0.531920 0.635660
0.043040 0.657500 0.635660
0.173450 0.657500 0.635660
0.303860 0.657500 0.635660
0.434270 0.657500 0.635660
0.564680 0.657500 0.635660
0.695090 0.657500 0.635660
0.825500 0.657500 0.635660
0.955910 0.657500 0.635660
1.000000 0.657500 0.635660
0.043040 0.783080 0.635660
0.173450 0.783080 0.635660
0.303860 0.783080 0.635660
0.434270 0.783080 0.635660
0.564680 0.783080 0.635660
0.695090 0.783080 0.635660
0.825500 0.783080 0.635660
0.955910 0.783080 0.635660
1.000000 0.783080 0.635660
0.043040 0.908660 0.635660
0.173450 0.908660 0.635660
0.303860 0.908660 0.635660
0.434270 0.908660 0.635660
0.564680 0.908660 0.635660
0.695090 0.908660 0.635660
0.825500 0.908660 0.635660
0.955910 0.908660 0.635660
1.000000 0.908660 0.635660
0.043040 1.000000 0.635660
0.173450 1.000000 0.635660
0.303860 1.000000 0.635660
0.434270 1.000000 0.635660
0.564680 1.000000 0.635660
0.695090 1.000000 0.635660
0.825500 1.000000 0.635660
0.955910 1.000000 0.635660
1.000000 1.000000 0.635660
0.043040 0.029600 0.739610
0.173450 0.029600 0.739610
0.303860 0.029600 0.739610
0.434270 0.029600 0.739610
0.564680 0.029600 0.739610
0.695090 0.029600 0.739610
0.825500 0.029600 0.739610
0.955910 0.029600 0.739610
1.000000 0.029600 0.739610
0.043040 0.155180 0.739610
0.173450 0.155180 0.739610
0.303860 0.155180 0.739610
0.434270 0.155180 0.739610
0.564680 0.155180 0.739610
0.695090 0.155180 0.739610
0.825500 0.155180 0.739610
0.955910 0.155180 0.739610
1.000000 0.155180 0.739610
0.043040 0.280760 0.739610
0.173450 0.280760 0.739610
0.303860 0.280760 0.739610
0.434270 0.280760 0.739610
0.564680 0.280760 0.739610
0.695090 0.280760 0.739610
0.825500 0.280760 0.739610
0.955910 0.280760 0.739610
1.000000 0.280760 0.739610
0.043040 0.406340 0.739610
0.173450 0.406340 0.739610
0.303860 0.406340 0.739610
0.434270 0.406340 0.739610
0.564680 0.406340 0.739610
0.695090 0.406340 0.739610
0.825500 0.406340 0.739610
0.955910 0.406340 0.739610
1.000000 0.406340 0.739610
0.043040 0.531920 0.739610
0.173450 0.531920 0.739610
0.303860 0.531920 0.739610
0.434270 0.531920 0.739610
0.564680 0.531920 0.739610
0.695090 0.531920 0.739610
0.825500 0.531920 0.739610
0.955910 0.531920 0.739610
1.000000 0.531920 0.739610
0.043040 0.657500 0.739610
0.173450 0.657500 0.739610
0.303860 0.657500 0.739610
0.434270 0.657500 0.739610
0.564680 0.657500 0.739610
0.695090 0.657500 0.739610
0.825500 0.657500 0.739610
0.955910 0.657500 0.739610
1.000000 0.657500 0.739610
0.043040 0.783080 0.739610
0.173450 0.783080 0.739610
0.303860 0.783080 0.739610
0.434270 0.783080 0.739610
0.564680 0.783080 0.739610
0.695090 0.783080 0.739610
0.825500 0.783080 0.739610
0.955910 0.783080 0.739610
1.000000 0.783080 0.739610
0.043040 0.908660 0.739610
0.173450 0.908660 0.739610
0.303860 0.908660 0.739610
0.434270 0.908660 0.739610
0.564680 0.908660 0.739610
0.695090 0.908660 0.739610
0.825500 0.908660 0.739610
0.955910 0.908660 0.739610
1.000000 0.908660 0.739610
0.043040 1.000000 0.739610
0.173450 1.000000 0.739610
0.303860 1.000000 0.739610
0.434270 1.000000 0.739610
0.564680 1.000000 0.739610
0.695090 1.000000 0.739610
0.825500 1.000000 0.739610
0.955910 1.000000 0.739610
1.000000 1.000000 0.739610
0.043040 0.029600 0.843560
0.173450 0.029600 0.843560
0.303860 0.029600 0.843560
0.434270 0.029600 0.843560
0.564680 0.029600 0.843560
0.695090 0.029600 0.843560
0.825500 0.029600 0.843560
0.955910 0.029600 0.843560
1.000000 0.029600 0.843560
0.043040 0.155180 0.843560
0.173450 0.155180 0.843560
0.303860 0.155180 0.843560
0.434270 0.155180 0.843560
0.564680 0.155180 0.843560
0.695090 0.155180 0.843560
0.825500 0.155180 0.843560
0.955910 0.155180 0.843560
1.000000 0.155180 0.843560
0.043040 0.280760 0.843560
0.173450 0.280760 0.843560
0.303860 0.280760 0.843560
0.434270 0.280760 0.843560
0.564680 0.280760 0.843560
0.695090 0.280760 0.843560
0.825500 0.280760 0.843560
0.955910 0.280760 0.843560
1.000000 0.280760 0.843560
0.043040 0.406340 0.843560
0.173450 0.406340 0.843560
0.303860 0.406340 0.843560
0.434270 0.406340 0.843560
0.564680 0.406340 0.843560
0.695090 0.406340 0.843560
0.825500 0.406340 0.843560
0.955910 0.406340 0.843560
1.000000 0.406340 0.843560
0.043040 0.531920 0.843560
0.173450 0.531920 0.843560
0.303860 0.531920 0.843560
0.434270 0.531920 0.843560
0.564680 0.531920 0.843560
0.695090 0.531920 0.843560
0.825500 0.531920 0.843560
0.955910 0.531920 0.843560
1.000000 0.531920 0.843560
0.043040 0.657500 0.843560
0.173450 0.657500 0.843560
0.303860 0.657500 0.843560
0.434270 0.657500 0.843560
0.564680 0.657500 0.843560
0.695090 0.657500 0.843560
0.825500 0.657500 0.843560
0.955910 0.657500 0.843560
1.000000 0.657500 0.843560
0.043040 0.783080 0.843560
0.173450 0.783080 0.843560
0.303860 0.783080 0.843560
0.434270 0.783080 0.843560
0.564680 0.783080 0.843560
0.695090 0.783080 0.843560
0.825500 0.783080 0.843560
0.955910 0.783080 0.843560
1.000000 0.783080 0.843560
0.043040 0.908660 0.843560
0.173450 0.908660 0.843560
0.303860 0.908660 0.843560
0.434270 0.908660 0.843560
0.564680 0.908660 0.843560
0.695090 0.908660 0.843560
0.825500 0.908660 0.843560
0.955910 0.908660 0.843560
1.000000 0.908660 0.843560
0.043040 1.000000 0.843560
0.173450 1.000000 0.843560
0.303860 1.000000 0.843560
0.434270 1.000000 0.843560
0.564680 1.000000 0.843560
0.695090 1.000000 0.843560
0.825500 1.000000 0.843560
0.955910 1.000000 0.843560
1.000000 1.000000 0.843560
