flutter_app/assets/lut/kodak_gold.cube
TITLE "Kodak Gold 200"
# Generated placeholder LUT for DAZZ development
# Replace with production-grade LUT before release
LUT_3D_SIZE 5
DOMAIN_MIN 0.0 0.0 0.0
DOMAIN_MAX 1.0 1.0 1.0
0.043040 0.029600 0.011960
0.303860 0.029600 0.011960
0.564680 0.029600 0.011960
0.825500 0.029600 0.011960
1.000000 0.029600 0.011960
0.043040 0.280760 0.011960
0.303860 0.280760 0.011960
0.564680 0.280760 0.011960
0.825500 0.280760 0.011960
1.000000 0.280760 0.011960
0.043040 0.531920 0.011960
0.303860 0.531920 0.011960
0.564680 0.531920 0.011960
0.825500 0.531920 0.011960
1.000000 0.531920 0.011960
0.043040 0.783080 0.011960
0.303860 0.783080 0.011960
0.564680 0.783080 0.011960
0.825500 0.783080 0.011960
1.000000 0.783080 0.011960
0.043040 1.000000 0.011960
0.303860 1.000000 0.011960
0.564680 1.000000 0.011960
0.825500 1.000000 0.011960
1.000000 1.000000 0.011960
0.043040 0.029600 0.219860
0.303860 0.029600 0.219860
0.564680 0.029600 0.219860
0.825500 0.029600 0.219860
1.000000 0.029600 0.219860
0.043040 0.280760 0.219860
0.303860 0.280760 0.219860
0.564680 0.280760 0.219860
0.825500 0.280760 0.219860
1.000000 0.280760 0.219860
0.043040 0.531920 0.219860
0.303860 0.531920 0.219860
0.564680 0.531920 0.219860
0.825500 0.531920 0.219860
1.000000 0.531920 0.219860
0.043040 0.783080 0.219860
0.303860 0.783080 0.219860
0.564680 0.783080 0.219860
0.825500 0.783080 0.219860
1.000000 0.783080 0.219860
0.043040 1.000000 0.219860
0.303860 1.000000 0.219860
0.564680 1.000000 0.219860
0.825500 1.000000 0.219860
1.000000 1.000000 0.219860
0.043040 0.029600 0.427760
0.303860 0.029600 0.427760
0.564680 0.029600 0.427760
0.825500 0.029600 0.427760
1.000000 0.029600 0.427760
0.043040 0.280760 0.427760
0.303860 0.280760 0.427760
0.564680 0.280760 0.427760
0.825500 0.280760 0.427760
1.000000 0.280760 0.427760
0.043040 0.531920 0.427760
0.303860 0.531920 0.427760
0.564680 0.531920 0.427760
0.825500 0.531920 0.427760
1.000000 0.531920 0.427760
0.043040 0.783080 0.427760
0.303860 0.783080 0.427760
0.564680 0.783080 0.427760
0.825500 0.783080 0.427760
1.000000 0.783080 0.427760
0.043040 1.000000 0.427760
0.303860 1.000000 0.427760
0.564680 1.000000 0.427760
0.825500 1.000000 0.427760
1.000000 1.000000 0.427760
0.043040 0.029600 0.635660
0.303860 0.029600 0.635660
0.564680 0.029600 0.635660
0.825500 0.029600 0.635660
1.000000 0.029600 0.635660
0.043040 0.280760 0.635660
0.303860 0.280760 0.635660
0.564680 0.280760 0.635660
0.825500 0.280760 0.635660
1.000000 0.280760 0.635660
0.043040 0.531920 0.635660
0.303860 0.531920 0.635660
0.564680 0.531920 0.635660
0.825500 0.531920 0.635660
1.000000 0.531920 0.635660
0.043040 0.783080 0.635660
0.303860 0.783080 0.635660
0.564680 0.783080 0.635660
0.825500 0.783080 0.635660
1.000000 0.783080 0.635660
0.043040 1.000000 0.635660
0.303860 1.000000 0.635660
0.564680 1.000000 0.635660
0.825500 1.000000 0.635660
1.000000 1.000000 0.635660
0.043040 0.029600 0.843560
0.303860 0.029600 0.843560
0.564680 0.029600 0.843560
0.825500 0.029600 0.843560
1.000000 0.029600 0.843560
0.043040 0.280760 0.843560
0.303860 0.280760 0.843560
0.564680 0.280760 0.843560
0.825500 0.280760 0.843560
1.000000 0.280760 0.843560
0.043040 0.531920 0.843560
0.303860 0.531920 0.843560
0.564680 0.531920 0.843560
0.825500 0.531920 0.843560
1.000000 0.531920 0.843560
0.043040 0.783080 0.843560
0.303860 0.783080 0.843560
0.564680 0.783080 0.843560
0.825500 0.783080 0.843560
1.000000 0.783080 0.843560
0.043040 1.000000 0.843560
0.303860 1.000000 0.843560
0.564680 1.000000 0.843560
0.825500 1.000000 0.843560
1.000000 1.000000 0.843560
