flutter_app/assets/lut/soft_portrait.cube
TITLE "Soft Portrait"
# Generated placeholder LUT for DAZZ development
# Replace with production-grade LUT before release
LUT_3D_SIZE 5
DOMAIN_MIN 0.0 0.0 0.0
DOMAIN_MAX 1.0 1.0 1.0
0.095490 0.083140 0.070600
0.317030 0.083140 0.070600
0.538570 0.083140 0.070600
0.760110 0.083140 0.070600
0.981650 0.083140 0.070600
0.095490 0.296320 0.070600
0.317030 0.296320 0.070600
0.538570 0.296320 0.070600
0.760110 0.296320 0.070600
0.981650 0.296320 0.070600
0.095490 0.509500 0.070600
0.317030 0.509500 0.070600
0.538570 0.509500 0.070600
0.760110 0.509500 0.070600
0.981650 0.509500 0.070600
0.095490 0.722680 0.070600
0.317030 0.722680 0.070600
0.538570 0.722680 0.070600
0.760110 0.722680 0.070600
0.981650 0.722680 0.070600
0.095490 0.935860 0.070600
0.317030 0.935860 0.070600
0.538570 0.935860 0.070600
0.760110 0.935860 0.070600
0.981650 0.935860 0.070600
0.095490 0.083140 0.271240
0.317030 0.083140 0.271240
0.538570 0.083140 0.271240
0.760110 0.083140 0.271240
0.981650 0.083140 0.271240
0.095490 0.296320 0.271240
0.317030 0.296320 0.271240
0.538570 0.296320 0.271240
0.760110 0.296320 0.271240
0.981650 0.296320 0.271240
0.095490 0.509500 0.271240
0.317030 0.509500 0.271240
0.538570 0.509500 0.271240
0.760110 0.509500 0.271240
0.981650 0.509500 0.271240
0.095490 0.722680 0.271240
0.317030 0.722680 0.271240
0.538570 0.722680 0.271240
0.760110 0.722680 0.271240
0.981650 0.722680 0.271240
0.095490 0.935860 0.271240
0.317030 0.935860 0.271240
0.538570 0.935860 0.271240
0.760110 0.935860 0.271240
0.981650 0.935860 0.271240
0.095490 0.083140 0.471880
0.317030 0.083140 0.471880
0.538570 0.083140 0.471880
0.760110 0.083140 0.471880
0.981650 0.083140 0.471880
0.095490 0.296320 0.471880
0.317030 0.296320 0.471880
0.538570 0.296320 0.471880
0.760110 0.296320 0.471880
0.981650 0.296320 0.471880
0.095490 0.509500 0.471880
0.317030 0.509500 0.471880
0.538570 0.509500 0.471880
0.760110 0.509500 0.471880
0.981650 0.509500 0.471880
0.095490 0.722680 0.471880
0.317030 0.722680 0.471880
0.538570 0.722680 0.471880
0.760110 0.722680 0.471880
0.981650 0.722680 0.471880
0.095490 0.935860 0.471880
0.317030 0.935860 0.471880
0.538570 0.935860 0.471880
0.760110 0.935860 0.471880
0.981650 0.935860 0.471880
0.095490 0.083140 0.672520
0.317030 0.083140 0.672520
0.538570 0.083140 0.672520
0.760110 0.083140 0.672520
0.981650 0.083140 0.672520
0.095490 0.296320 0.672520
0.317030 0.296320 0.672520
0.538570 0.296320 0.672520
0.760110 0.296320 0.672520
0.981650 0.296320 0.672520
0.095490 0.509500 0.672520
0.317030 0.509500 0.672520
0.538570 0.509500 0.672520
0.760110 0.509500 0.672520
0.981650 0.509500 0.672520
0.095490 0.722680 0.672520
0.317030 0.722680 0.672520
0.538570 0.722680 0.672520
0.760110 0.722680 0.672520
0.981650 0.722680 0.672520
0.095490 0.935860 0.672520
0.317030 0.935860 0.672520
0.538570 0.935860 0.672520
0.760110 0.935860 0.672520
0.981650 0.935860 0.672520
0.095490 0.083140 0.873160
0.317030 0.083140 0.873160
0.538570 0.083140 0.873160
0.760110 0.083140 0.873160
0.981650 0.083140 0.873160
0.095490 0.296320 0.873160
0.317030 0.296320 0.873160
0.538570 0.296320 0.873160
0.760110 0.296320 0.873160
0.981650 0.296320 0.873160
0.095490 0.509500 0.873160
0.317030 0.509500 0.873160
0.538570 0.509500 0.873160
0.760110 0.509500 0.873160
0.981650 0.509500 0.873160
0.095490 0.722680 0.873160
0.317030 0.722680 0.873160
0.538570 0.722680 0.873160
0.760110 0.722680 0.873160
0.981650 0.722680 0.873160
0.095490 0.935860 0.873160
0.317030 0.935860 0.873160
0.538570 0.935860 0.873160
0.760110 0.935860 0.873160
0.981650 0.935860 0.873160
