flutter_app/assets/lut/soft_portrait.cube
TITLE "Soft Portrait"
# Generated placeholder LUT for DAZZ development
# Replace with production-grade LUT before release
LUT_3D_SIZE 33
DOMAIN_MIN 0.0 0.0 0.0
DOMAIN_MAX 1.0 1.0 1.0
0.095490 0.083140 0.070600
0.123183 0.083140 0.070600
0.150875 0.083140 0.070600
0.178568 0.083140 0.070600
0.206260 0.083140 0.070600
0.233953 0.083140 0.070600
0.261645 0.083140 0.070600
0.289338 0.083140 0.070600
0.317030 0.083140 0.070600
0.344723 0.083140 0.070600
0.372415 0.083140 0.070600
0.400108 0.083140 0.070600
0.427800 0.083140 0.070600
0.455493 0.083140 0.070600
0.483185 0.083140 0.070600
0.510877 0.083140 0.070600
0.538570 0.083140 0.070600
0.566263 0.083140 0.070600
0.593955 0.083140 0.070600
0.621648 0.083140 0.070600
0.649340 0.083140 0.070600
0.677033 0.083140 0.070600
0.704725 0.083140 0.070600
0.732417 0.083140 0.070600
0.760110 0.083140 0.070600
0.787802 0.083140 0.070600
0.815495 0.083140 0.070600
0.843187 0.083140 0.070600
0.870880 0.083140 0.070600
0.898572 0.083140 0.070600
0.926265 0.083140 0.070600
0.953958 0.083140 0.070600
0.981650 0.083140 0.070600
0.095490 0.109788 0.070600
0.123183 0.109788 0.070600
0.150875 0.109788 0.070600
0.178568 0.109788 0.070600
0.206260 0.109788 0.070600
0.233953 0.109788 0.070600
0.261645 0.109788 0.070600
0.289338 0.109788 0.070600
0.317030 0.109788 0.070600
0.344723 0.109788 0.070600
0.372415 0.109788 0.070600
0.400108 0.109788 0.070600
0.427800 0.109788 0.070600
0.455493 0.109788 0.070600
0.483185 0.109788 0.070600
0.510877 0.109788 0.070600
0.538570 0.109788 0.070600
0.566263 0.109788 0.070600
0.593955 0.109788 0.070600
0.621648 0.109788 0.070600
0.649340 0.109788 0.070600
0.677033 0.109788 0.070600
0.704725 0.109788 0.070600
0.732417 0.109788 0.070600
0.760110 0.109788 0.070600
0.787802 0.109788 0.070600
0.815495 0.109788 0.070600
0.843187 0.109788 0.070600
0.870880 0.109788 0.070600
0.898572 0.109788 0.070600
0.926265 0.109788 0.070600
0.953958 0.109788 0.070600
0.981650 0.109788 0.070600
0.095490 0.136435 0.070600
0.123183 0.136435 0.070600
0.150875 0.136435 0.070600
0.178568 0.136435 0.070600
0.206260 0.136435 0.070600
0.233953 0.136435 0.070600
0.261645 0.136435 0.070600
0.289338 0.136435 0.070600
0.317030 0.136435 0.070600
0.344723 0.136435 0.070600
0.372415 0.136435 0.070600
0.400108 0.136435 0.070600
0.427800 0.136435 0.070600
0.455493 0.136435 0.070600
0.483185 0.136435 0.070600
0.510877 0.136435 0.070600
0.538570 0.136435 0.070600
0.566263 0.136435 0.070600
0.593955 0.136435 0.070600
0.621648 0.136435 0.070600
0.649340 0.136435 0.070600
0.677033 0.136435 0.070600
0.704725 0.136435 0.070600
0.732417 0.136435 0.070600
0.760110 0.136435 0.070600
0.787802 0.136435 0.070600
0.815495 0.136435 0.070600
0.843187 0.136435 0.070600
0.870880 0.136435 0.070600
0.898572 0.136435 0.070600
0.926265 0.136435 0.070600
0.953958 0.136435 0.070600
0.981650 0.136435 0.070600
0.095490 0.163083 0.070600
0.123183 0.163083 0.070600
0.150875 0.163083 0.070600
0.178568 0.163083 0.070600
0.206260 0.163083 0.070600
0.233953 0.163083 0.070600
0.261645 0.163083 0.070600
0.289338 0.163083 0.070600
0.317030 0.163083 0.070600
0.344723 0.163083 0.070600
0.372415 0.163083 0.070600
0.400108 0.163083 0.070600
0.427800 0.163083 0.070600
0.455493 0.163083 0.070600
0.483185 0.163083 0.070600
0.510877 0.163083 0.070600
0.538570 0.163083 0.070600
0.566263 0.163083 0.070600
0.593955 0.163083 0.070600
0.621648 0.163083 0.070600
0.649340 0.163083 0.070600
0.677033 0.163083 0.070600
0.704725 0.163083 0.070600
0.732417 0.163083 0.070600
0.760110 0.163083 0.070600
0.787802 0.163083 0.070600
0.815495 0.163083 0.070600
0.843187 0.163083 0.070600
0.870880 0.163083 0.070600
0.898572 0.163083 0.070600
0.926265 0.163083 0.070600
0.953958 0.163083 0.070600
0.981650 0.163083 0.070600
0.095490 0.189730 0.070600
0.123183 0.189730 0.070600
0.150875 0.189730 0.070600
0.178568 0.189730 0.070600
0.206260 0.189730 0.070600
0.233953 0.189730 0.070600
0.261645 0.189730 0.070600
0.289338 0.189730 0.070600
0.317030 0.189730 0.070600
0.344723 0.189730 0.070600
0.372415 0.189730 0.070600
0.400108 0.189730 0.070600
0.427800 0.189730 0.070600
0.455493 0.189730 0.070600
0.483185 0.189730 0.070600
0.510877 0.189730 0.070600
0.538570 0.189730 0.070600
0.566263 0.189730 0.070600
0.593955 0.189730 0.070600
0.621648 0.189730 0.070600
0.649340 0.189730 0.070600
0.677033 0.189730 0.070600
0.704725 0.189730 0.070600
0.732417 0.189730 0.070600
0.760110 0.189730 0.070600
0.787802 0.189730 0.070600
0.815495 0.189730 0.070600
0.843187 0.189730 0.070600
0.870880 0.189730 0.070600
0.898572 0.189730 0.070600
0.926265 0.189730 0.070600
0.953958 0.189730 0.070600
0.981650 0.189730 0.070600
0.095490 0.216378 0.070600
0.123183 0.216378 0.070600
0.150875 0.216378 0.070600
0.178568 0.216378 0.070600
0.206260 0.216378 0.070600
0.233953 0.216378 0.070600
0.261645 0.216378 0.070600
0.289338 0.216378 0.070600
0.317030 0.216378 0.070600
0.344723 0.216378 0.070600
0.372415 0.216378 0.070600
0.400108 0.216378 0.070600
0.427800 0.216378 0.070600
0.455493 0.216378 0.070600
0.483185 0.216378 0.070600
0.510877 0.216378 0.070600
0.538570 0.216378 0.070600
0.566263 0.216378 0.070600
0.593955 0.216378 0.070600
0.621648 0.216378 0.070600
0.649340 0.216378 0.070600
0.677033 0.216378 0.070600
0.704725 0.216378 0.070600
0.732417 0.216378 0.070600
0.760110 0.216378 0.070600
0.787802 0.216378 0.070600
0.815495 0.216378 0.070600
0.843187 0.216378 0.070600
0.870880 0.216378 0.070600
0.898572 0.216378 0.070600
0.926265 0.216378 0.070600
0.953958 0.216378 0.070600
0.981650 0.216378 0.070600
0.095490 0.243025 0.070600
0.123183 0.243025 0.070600
0.150875 0.243025 0.070600
0.178568 0.243025 0.070600
0.206260 0.243025 0.070600
0.233953 0.243025 0.070600
0.261645 0.243025 0.070600
0.289338 0.243025 0.070600
0.317030 0.243025 0.070600
0.344723 0.243025 0.070600
0.372415 0.243025 0.070600
0.400108 0.243025 0.070600
0.427800 0.243025 0.070600
0.455493 0.243025 0.070600
0.483185 0.243025 0.070600
0.510877 0.243025 0.070600
0.538570 0.243025 0.070600
0.566263 0.243025 0.070600
0.593955 0.243025 0.070600
0.621648 0.243025 0.070600
0.649340 0.243025 0.070600
0.677033 0.243025 0.070600
0.704725 0.243025 0.070600
0.732417 0.243025 0.070600
0.760110 0.243025 0.070600
0.787802 0.243025 0.070600
0.815495 0.243025 0.070600
0.843187 0.243025 0.070600
0.870880 0.243025 0.070600
0.898572 0.243025 0.070600
0.926265 0.243025 0.070600
0.953958 0.243025 0.070600
0.981650 0.243025 0.070600
0.095490 0.269672 0.070600
0.123183 0.269672 0.070600
0.150875 0.269672 0.070600
0.178568 0.269672 0.070600
0.206260 0.269672 0.070600
0.233953 0.269672 0.070600
0.261645 0.269672 0.070600
0.289338 0.269672 0.070600
0.317030 0.269672 0.070600
0.344723 0.269672 0.070600
0.372415 0.269672 0.070600
0.400108 0.269672 0.070600
0.427800 0.269672 0.070600
0.455493 0.269672 0.070600
0.483185 0.269672 0.070600
0.510877 0.269672 0.070600
0.538570 0.269672 0.070600
0.566263 0.269672 0.070600
0.593955 0.269672 0.070600
0.621648 0.269672 0.070600
0.649340 0.269672 0.070600
0.677033 0.269672 0.070600
0.704725 0.269672 0.070600
0.732417 0.269672 0.070600
0.760110 0.269672 0.070600
0.787802 0.269672 0.070600
0.815495 0.269672 0.070600
0.843187 0.269672 0.070600
0.870880 0.269672 0.070600
0.898572 0.269672 0.070600
0.926265 0.269672 0.070600
0.953958 0.269672 0.070600
0.981650 0.269672 0.070600
0.095490 0.296320 0.070600
0.123183 0.296320 0.070600
0.150875 0.296320 0.070600
0.178568 0.296320 0.070600
0.206260 0.296320 0.070600
0.233953 0.296320 0.070600
0.261645 0.296320 0.070600
0.289338 0.296320 0.070600
0.317030 0.296320 0.070600
0.344723 0.296320 0.070600
0.372415 0.296320 0.070600
0.400108 0.296320 0.070600
0.427800 0.296320 0.070600
0.455493 0.296320 0.070600
0.483185 0.296320 0.070600
0.510877 0.296320 0.070600
0.538570 0.296320 0.070600
0.566263 0.296320 0.070600
0.593955 0.296320 0.070600
0.621648 0.296320 0.070600
0.649340 0.296320 0.070600
0.677033 0.296320 0.070600
0.704725 0.296320 0.070600
0.732417 0.296320 0.070600
0.760110 0.296320 0.070600
0.787802 0.296320 0.070600
0.815495 0.296320 0.070600
0.843187 0.296320 0.070600
0.870880 0.296320 0.070600
0.898572 0.296320 0.070600
0.926265 0.296320 0.070600
0.953958 0.296320 0.070600
0.981650 0.296320 0.070600
0.095490 0.322967 0.070600
0.123183 0.322967 0.070600
0.150875 0.322967 0.070600
0.178568 0.322967 0.070600
0.206260 0.322967 0.070600
0.233953 0.322967 0.070600
0.261645 0.322967 0.070600
0.289338 0.322967 0.070600
0.317030 0.322967 0.070600
0.344723 0.322967 0.070600
0.372415 0.322967 0.070600
0.400108 0.322967 0.070600
0.427800 0.322967 0.070600
0.455493 0.322967 0.070600
0.483185 0.322967 0.070600
0.510877 0.322967 0.070600
0.538570 0.322967 0.070600
0.566263 0.322967 0.070600
0.593955 0.322967 0.070600
0.621648 0.322967 0.070600
0.649340 0.322967 0.070600
0.677033 0.322967 0.070600
0.704725 0.322967 0.070600
0.732417 0.322967 0.070600
0.760110 0.322967 0.070600
0.787802 0.322967 0.070600
0.815495 0.322967 0.070600
0.843187 0.322967 0.070600
0.870880 0.322967 0.070600
0.898572 0.322967 0.070600
0.926265 0.322967 0.070600
0.953958 0.322967 0.070600
0.981650 0.322967 0.070600
0.095490 0.349615 0.070600
0.123183 0.349615 0.070600
0.150875 0.349615 0.070600
0.178568 0.349615 0.070600
0.206260 0.349615 0.070600
0.233953 0.349615 0.070600
0.261645 0.349615 0.070600
0.289338 0.349615 0.070600
0.317030 0.349615 0.070600
0.344723 0.349615 0.070600
0.372415 0.349615 0.070600
0.400108 0.349615 0.070600
0.427800 0.349615 0.070600
0.455493 0.349615 0.070600
0.483185 0.349615 0.070600
0.510877 0.349615 0.070600
0.538570 0.349615 0.070600
0.566263 0.349615 0.070600
0.593955 0.349615 0.070600
0.621648 0.349615 0.070600
0.649340 0.349615 0.070600
0.677033 0.349615 0.070600
0.704725 0.349615 0.070600
0.732417 0.349615 0.070600
0.760110 0.349615 0.070600
0.787802 0.349615 0.070600
0.815495 0.349615 0.070600
0.843187 0.349615 0.070600
0.870880 0.349615 0.070600
0.898572 0.349615 0.070600
0.926265 0.349615 0.070600
0.953958 0.349615 0.070600
0.981650 0.349615 0.070600
0.095490 0.376262 0.070600
0.123183 0.376262 0.070600
0.150875 0.376262 0.070600
0.178568 0.376262 0.070600
0.206260 0.376262 0.070600
0.233953 0.376262 0.070600
0.261645 0.376262 0.070600
0.289338 0.376262 0.070600
0.317030 0.376262 0.070600
0.344723 0.376262 0.070600
0.372415 0.376262 0.070600
0.400108 0.376262 0.070600
0.427800 0.376262 0.070600
0.455493 0.376262 0.070600
0.483185 0.376262 0.070600
0.510877 0.376262 0.070600
0.538570 0.376262 0.070600
0.566263 0.376262 0.070600
0.593955 0.376262 0.070600
0.621648 0.376262 0.070600
0.649340 0.376262 0.070600
0.677033 0.376262 0.070600
0.704725 0.376262 0.070600
0.732417 0.376262 0.070600
0.760110 0.376262 0.070600
0.787802 0.376262 0.070600
0.815495 0.376262 0.070600
0.843187 0.376262 0.070600
0.870880 0.376262 0.070600
0.898572 0.376262 0.070600
0.926265 0.376262 0.070600
0.953958 0.376262 0.070600
0.981650 0.376262 0.070600
0.095490 0.402910 0.070600
0.123183 0.402910 0.070600
0.150875 0.402910 0.070600
0.178568 0.402910 0.070600
0.206260 0.402910 0.070600
0.233953 0.402910 0.070600
0.261645 0.402910 0.070600
0.289338 0.402910 0.070600
0.317030 0.402910 0.070600
0.344723 0.402910 0.070600
0.372415 0.402910 0.070600
0.400108 0.402910 0.070600
0.427800 0.402910 0.070600
0.455493 0.402910 0.070600
0.483185 0.402910 0.070600
0.510877 0.402910 0.070600
0.538570 0.402910 0.070600
0.566263 0.402910 0.070600
0.593955 0.402910 0.070600
0.621648 0.402910 0.070600
0.649340 0.402910 0.070600
0.677033 0.402910 0.070600
0.704725 0.402910 0.070600
0.732417 0.402910 0.070600
0.760110 0.402910 0.070600
0.787802 0.402910 0.070600
0.815495 0.402910 0.070600
0.843187 0.402910 0.070600
0.870880 0.402910 0.070600
0.898572 0.402910 0.070600
0.926265 0.402910 0.070600
0.953958 0.402910 0.070600
0.981650 0.402910 0.070600
0.095490 0.429558 0.070600
0.123183 0.429558 0.070600
0.150875 0.429558 0.070600
0.178568 0.429558 0.070600
0.206260 0.429558 0.070600
0.233953 0.429558 0.070600
0.261645 0.429558 0.070600
0.289338 0.429558 0.070600
0.317030 0.429558 0.070600
0.344723 0.429558 0.070600
0.372415 0.429558 0.070600
0.400108 0.429558 0.070600
0.427800 0.429558 0.070600
0.455493 0.429558 0.070600
0.483185 0.429558 0.070600
0.510877 0.429558 0.070600
0.538570 0.429558 0.070600
0.566263 0.429558 0.070600
0.593955 0.429558 0.070600
0.621648 0.429558 0.070600
0.649340 0.429558 0.070600
0.677033 0.429558 0.070600
0.704725 0.429558 0.070600
0.732417 0.429558 0.070600
0.760110 0.429558 0.070600
0.787802 0.429558 0.070600
0.815495 0.429558 0.070600
0.843187 0.429558 0.070600
0.870880 0.429558 0.070600
0.898572 0.429558 0.070600
0.926265 0.429558 0.070600
0.953958 0.429558 0.070600
0.981650 0.429558 0.070600
0.095490 0.456205 0.070600
0.123183 0.456205 0.070600
0.150875 0.456205 0.070600
0.178568 0.456205 0.070600
0.206260 0.456205 0.070600
0.233953 0.456205 0.070600
0.261645 0.456205 0.070600
0.289338 0.456205 0.070600
0.317030 0.456205 0.070600
0.344723 0.456205 0.070600
0.372415 0.456205 0.070600
0.400108 0.456205 0.070600
0.427800 0.456205 0.070600
0.455493 0.456205 0.070600
0.483185 0.456205 0.070600
0.510877 0.456205 0.070600
0.538570 0.456205 0.070600
0.566263 0.456205 0.070600
0.593955 0.456205 0.070600
0.621648 0.456205 0.070600
0.649340 0.456205 0.070600
0.677033 0.456205 0.070600
0.704725 0.456205 0.070600
0.732417 0.456205 0.070600
0.760110 0.456205 0.070600
0.787802 0.456205 0.070600
0.815495 0.456205 0.070600
0.843187 0.456205 0.070600
0.870880 0.456205 0.070600
0.898572 0.456205 0.070600
0.926265 0.456205 0.070600
0.953958 0.456205 0.070600
0.981650 0.456205 0.070600
0.095490 0.482853 0.070600
0.123183 0.482853 0.070600
0.150875 0.482853 0.070600
0.178568 0.482853 0.070600
0.206260 0.482853 0.070600
0.233953 0.482853 0.070600
0.261645 0.482853 0.070600
0.289338 0.482853 0.070600
0.317030 0.482853 0.070600
0.344723 0.482853 0.070600
0.372415 0.482853 0.070600
0.400108 0.482853 0.070600
0.427800 0.482853 0.070600
0.455493 0.482853 0.070600
0.483185 0.482853 0.070600
0.510877 0.482853 0.070600
0.538570 0.482853 0.070600
0.566263 0.482853 0.070600
0.593955 0.482853 0.070600
0.621648 0.482853 0.070600
0.649340 0.482853 0.070600
0.677033 0.482853 0.070600
0.704725 0.482853 0.070600
0.732417 0.482853 0.070600
0.760110 0.482853 0.070600
0.787802 0.482853 0.070600
0.815495 0.482853 0.070600
0.843187 0.482853 0.070600
0.870880 0.482853 0.070600
0.898572 0.482853 0.070600
0.926265 0.482853 0.070600
0.953958 0.482853 0.070600
0.981650 0.482853 0.070600
0.095490 0.509500 0.070600
0.123183 0.509500 0.070600
0.150875 0.509500 0.070600
0.178568 0.509500 0.070600
0.206260 0.509500 0.070600
0.233953 0.509500 0.070600
0.261645 0.509500 0.070600
0.289338 0.509500 0.070600
0.317030 0.509500 0.070600
0.344723 0.509500 0.070600
0.372415 0.509500 0.070600
0.400108 0.509500 0.070600
0.427800 0.509500 0.070600
0.455493 0.509500 0.070600
0.483185 0.509500 0.070600
0.510877 0.509500 0.070600
0.538570 0.509500 0.070600
0.566263 0.509500 0.070600
0.593955 0.509500 0.070600
0.621648 0.509500 0.070600
0.649340 0.509500 0.070600
0.677033 0.509500 0.070600
0.704725 0.509500 0.070600
0.732417 0.509500 0.070600
0.760110 0.509500 0.070600
0.787802 0.509500 0.070600
0.815495 0.509500 0.070600
0.843187 0.509500 0.070600
0.870880 0.509500 0.070600
0.898572 0.509500 0.070600
0.926265 0.509500 0.070600
0.953958 0.509500 0.070600
0.981650 0.509500 0.070600
0.095490 0.536148 0.070600
0.123183 0.536148 0.070600
0.150875 0.536148 0.070600
0.178568 0.536148 0.070600
0.206260 0.536148 0.070600
0.233953 0.536148 0.070600
0.261645 0.536148 0.070600
0.289338 0.536148 0.070600
0.317030 0.536148 0.070600
0.344723 0.536148 0.070600
0.372415 0.536148 0.070600
0.400108 0.536148 0.070600
0.427800 0.536148 0.070600
0.455493 0.536148 0.070600
0.483185 0.536148 0.070600
0.510877 0.536148 0.070600
0.538570 0.536148 0.070600
0.566263 0.536148 0.070600
0.593955 0.536148 0.070600
0.621648 0.536148 0.070600
0.649340 0.536148 0.070600
0.677033 0.536148 0.070600
0.704725 0.536148 0.070600
0.732417 0.536148 0.070600
0.760110 0.536148 0.070600
0.787802 0.536148 0.070600
0.815495 0.536148 0.070600
0.843187 0.536148 0.070600
0.870880 0.536148 0.070600
0.898572 0.536148 0.070600
0.926265 0.536148 0.070600
0.953958 0.536148 0.070600
0.981650 0.536148 0.070600
0.095490 0.562795 0.070600
0.123183 0.562795 0.070600
0.150875 0.562795 0.070600
0.178568 0.562795 0.070600
0.206260 0.562795 0.070600
0.233953 0.562795 0.070600
0.261645 0.562795 0.070600
0.289338 0.562795 0.070600
0.317030 0.562795 0.070600
0.344723 0.562795 0.070600
0.372415 0.562795 0.070600
0.400108 0.562795 0.070600
0.427800 0.562795 0.070600
0.455493 0.562795 0.070600
0.483185 0.562795 0.070600
0.510877 0.562795 0.070600
0.538570 0.562795 0.070600
0.566263 0.562795 0.070600
0.593955 0.562795 0.070600
0.621648 0.562795 0.070600
0.649340 0.562795 0.070600
0.677033 0.562795 0.070600
0.704725 0.562795 0.070600
0.732417 0.562795 0.070600
0.760110 0.562795 0.070600
0.787802 0.562795 0.070600
0.815495 0.562795 0.070600
0.843187 0.562795 0.070600
0.870880 0.562795 0.070600
0.898572 0.562795 0.070600
0.926265 0.562795 0.070600
0.953958 0.562795 0.070600
0.981650 0.562795 0.070600
0.095490 0.589443 0.070600
0.123183 0.589443 0.070600
0.150875 0.589443 0.070600
0.178568 0.589443 0.070600
0.206260 0.589443 0.070600
0.233953 0.589443 0.070600
0.261645 0.589443 0.070600
0.289338 0.589443 0.070600
0.317030 0.589443 0.070600
0.344723 0.589443 0.070600
0.372415 0.589443 0.070600
0.400108 0.589443 0.070600
0.427800 0.589443 0.070600
0.455493 0.589443 0.070600
0.483185 0.589443 0.070600
0.510877 0.589443 0.070600
0.538570 0.589443 0.070600
0.566263 0.589443 0.070600
0.593955 0.589443 0.070600
0.621648 0.589443 0.070600
0.649340 0.589443 0.070600
0.677033 0.589443 0.070600
0.704725 0.589443 0.070600
0.732417 0.589443 0.070600
0.760110 0.589443 0.070600
0.787802 0.589443 0.070600
0.815495 0.589443 0.070600
0.843187 0.589443 0.070600
0.870880 0.589443 0.070600
0.898572 0.589443 0.070600
0.926265 0.589443 0.070600
0.953958 0.589443 0.070600
0.981650 0.589443 0.070600
0.095490 0.616090 0.070600
0.123183 0.616090 0.070600
0.150875 0.616090 0.070600
0.178568 0.616090 0.070600
0.206260 0.616090 0.070600
0.233953 0.616090 0.070600
0.261645 0.616090 0.070600
0.289338 0.616090 0.070600
0.317030 0.616090 0.070600
0.344723 0.616090 0.070600
0.372415 0.616090 0.070600
0.400108 0.616090 0.070600
0.427800 0.616090 0.070600
0.455493 0.616090 0.070600
0.483185 0.616090 0.070600
0.510877 0.616090 0.070600
0.538570 0.616090 0.070600
0.566263 0.616090 0.070600
0.593955 0.616090 0.070600
0.621648 0.616090 0.070600
0.649340 0.616090 0.070600
0.677033 0.616090 0.070600
0.704725 0.616090 0.070600
0.732417 0.616090 0.070600
0.760110 0.616090 0.070600
0.787802 0.616090 0.070600
0.815495 0.616090 0.070600
0.843187 0.616090 0.070600
0.870880 0.616090 0.070600
0.898572 0.616090 0.070600
0.926265 0.616090 0.070600
0.953958 0.616090 0.070600
0.981650 0.616090 0.070600
0.095490 0.642737 0.070600
0.123183 0.642737 0.070600
0.150875 0.642737 0.070600
0.178568 0.642737 0.070600
0.206260 0.642737 0.070600
0.233953 0.642737 0.070600
0.261645 0.642737 0.070600
0.289338 0.642737 0.070600
0.317030 0.642737 0.070600
0.344723 0.642737 0.070600
0.372415 0.642737 0.070600
0.400108 0.642737 0.070600
0.427800 0.642737 0.070600
0.455493 0.642737 0.070600
0.483185 0.642737 0.070600
0.510877 0.642737 0.070600
0.538570 0.642737 0.070600
0.566263 0.642737 0.070600
0.593955 0.642737 0.070600
0.621648 0.642737 0.070600
0.649340 0.642737 0.070600
0.677033 0.642737 0.070600
0.704725 0.642737 0.070600
0.732417 0.642737 0.070600
0.760110 0.642737 0.070600
0.787802 0.642737 0.070600
0.815495 0.642737 0.070600
0.843187 0.642737 0.070600
0.870880 0.642737 0.070600
0.898572 0.642737 0.070600
0.926265 0.642737 0.070600
0.953958 0.642737 0.070600
0.981650 0.642737 0.070600
0.095490 0.669385 0.070600
0.123183 0.669385 0.070600
0.150875 0.669385 0.070600
0.178568 0.669385 0.070600
0.206260 0.669385 0.070600
0.233953 0.669385 0.070600
0.261645 0.669385 0.070600
0.289338 0.669385 0.070600
0.317030 0.669385 0.070600
0.344723 0.669385 0.070600
0.372415 0.669385 0.070600
0.400108 0.669385 0.070600
0.427800 0.669385 0.070600
0.455493 0.669385 0.070600
0.483185 0.669385 0.070600
0.510877 0.669385 0.070600
0.538570 0.669385 0.070600
0.566263 0.669385 0.070600
0.593955 0.669385 0.070600
0.621648 0.669385 0.070600
0.649340 0.669385 0.070600
0.677033 0.669385 0.070600
0.704725 0.669385 0.070600
0.732417 0.669385 0.070600
0.760110 0.669385 0.070600
0.787802 0.669385 0.070600
0.815495 0.669385 0.070600
0.843187 0.669385 0.070600
0.870880 0.669385 0.070600
0.898572 0.669385 0.070600
0.926265 0.669385 0.070600
0.953958 0.669385 0.070600
0.981650 0.669385 0.070600
0.095490 0.696032 0.070600
0.123183 0.696032 0.070600
0.150875 0.696032 0.070600
0.178568 0.696032 0.070600
0.206260 0.696032 0.070600
0.233953 0.696032 0.070600
0.261645 0.696032 0.070600
0.289338 0.696032 0.070600
0.317030 0.696032 0.070600
0.344723 0.696032 0.070600
0.372415 0.696032 0.070600
0.400108 0.696032 0.070600
0.427800 0.696032 0.070600
0.455493 0.696032 0.070600
0.483185 0.696032 0.070600
0.510877 0.696032 0.070600
0.538570 0.696032 0.070600
0.566263 0.696032 0.070600
0.593955 0.696032 0.070600
0.621648 0.696032 0.070600
0.649340 0.696032 0.070600
0.677033 0.696032 0.070600
0.704725 0.696032 0.070600
0.732417 0.696032 0.070600
0.760110 0.696032 0.070600
0.787802 0.696032 0.070600
0.815495 0.696032 0.070600
0.843187 0.696032 0.070600
0.870880 0.696032 0.070600
0.898572 0.696032 0.070600
0.926265 0.696032 0.070600
0.953958 0.696032 0.070600
0.981650 0.696032 0.070600
0.095490 0.722680 0.070600
0.123183 0.722680 0.070600
0.150875 0.722680 0.070600
0.178568 0.722680 0.070600
0.206260 0.722680 0.070600
0.233953 0.722680 0.070600
0.261645 0.722680 0.070600
0.289338 0.722680 0.070600
0.317030 0.722680 0.070600
0.344723 0.722680 0.070600
0.372415 0.722680 0.070600
0.400108 0.722680 0.070600
0.427800 0.722680 0.070600
0.455493 0.722680 0.070600
0.483185 0.722680 0.070600
0.510877 0.722680 0.070600
0.538570 0.722680 0.070600
0.566263 0.722680 0.070600
0.593955 0.722680 0.070600
0.621648 0.722680 0.070600
0.649340 0.722680 0.070600
0.677033 0.722680 0.070600
0.704725 0.722680 0.070600
0.732417 0.722680 0.070600
0.760110 0.722680 0.070600
0.787802 0.722680 0.070600
0.815495 0.722680 0.070600
0.843187 0.722680 0.070600
0.870880 0.722680 0.070600
0.898572 0.722680 0.070600
0.926265 0.722680 0.070600
0.953958 0.722680 0.070600
0.981650 0.722680 0.070600
0.095490 0.749328 0.070600
0.123183 0.749328 0.070600
0.150875 0.749328 0.070600
0.178568 0.749328 0.070600
0.206260 0.749328 0.070600
0.233953 0.749328 0.070600
0.261645 0.749328 0.070600
0.289338 0.749328 0.070600
0.317030 0.749328 0.070600
0.344723 0.749328 0.070600
0.372415 0.749328 0.070600
0.400108 0.749328 0.070600
0.427800 0.749328 0.070600
0.455493 0.749328 0.070600
0.483185 0.749328 0.070600
0.510877 0.749328 0.070600
0.538570 0.749328 0.070600
0.566263 0.749328 0.070600
0.593955 0.749328 0.070600
0.621648 0.749328 0.070600
0.649340 0.749328 0.070600
0.677033 0.749328 0.070600
0.704725 0.749328 0.070600
0.732417 0.749328 0.070600
0.760110 0.749328 0.070600
0.787802 0.749328 0.070600
0.815495 0.749328 0.070600
0.843187 0.749328 0.070600
0.870880 0.749328 0.070600
0.898572 0.749328 0.070600
0.926265 0.749328 0.070600
0.953958 0.749328 0.070600
0.981650 0.749328 0.070600
0.095490 0.775975 0.070600
0.123183 0.775975 0.070600
0.150875 0.775975 0.070600
0.178568 0.775975 0.070600
0.206260 0.775975 0.070600
0.233953 0.775975 0.070600
0.261645 0.775975 0.070600
0.289338 0.775975 0.070600
0.317030 0.775975 0.070600
0.344723 0.775975 0.070600
0.372415 0.775975 0.070600
0.400108 0.775975 0.070600
0.427800 0.775975 0.070600
0.455493 0.775975 0.070600
0.483185 0.775975 0.070600
0.510877 0.775975 0.070600
0.538570 0.775975 0.070600
0.566263 0.775975 0.070600
0.593955 0.775975 0.070600
0.621648 0.775975 0.070600
0.649340 0.775975 0.070600
0.677033 0.775975 0.070600
0.704725 0.775975 0.070600
0.732417 0.775975 0.070600
