flutter_app/assets/lut/soft_portrait.cube
TITLE "Soft Portrait"
# Generated placeholder LUT for DAZZ development
# Replace with production-grade LUT before release
LUT_3D_SIZE 9
DOMAIN_MIN 0.0 0.0 0.0
DOMAIN_MAX 1.0 1.0 1.0
0.095490 0.083140 0.070600
0.206260 0.083140 0.070600
0.317030 0.083140 0.070600
0.427800 0.083140 0.070600
0.538570 0.083140 0.070600
0.649340 0.083140 0.070600
0.760110 0.083140 0.070600
0.870880 0.083140 0.070600
0.981650 0.083140 0.070600
0.095490 0.189730 0.070600
0.206260 0.189730 0.070600
0.317030 0.189730 0.070600
0.427800 0.189730 0.070600
0.538570 0.189730 0.070600
0.649340 0.189730 0.070600
0.760110 0.189730 0.070600
0.870880 0.189730 0.070600
0.981650 0.189730 0.070600
0.095490 0.296320 0.070600
0.206260 0.296320 0.070600
0.317030 0.296320 0.070600
0.427800 0.296320 0.070600
0.538570 0.296320 0.070600
0.649340 0.296320 0.070600
0.760110 0.296320 0.070600
0.870880 0.296320 0.070600
0.981650 0.296320 0.070600
0.095490 0.402910 0.070600
0.206260 0.402910 0.070600
0.317030 0.402910 0.070600
0.427800 0.402910 0.070600
0.538570 0.402910 0.070600
0.649340 0.402910 0.070600
0.760110 0.402910 0.070600
0.870880 0.402910 0.070600
0.981650 0.402910 0.070600
0.095490 0.509500 0.070600
0.206260 0.509500 0.070600
0.317030 0.509500 0.070600
0.427800 0.509500 0.070600
0.538570 0.509500 0.070600
0.649340 0.509500 0.070600
0.760110 0.509500 0.070600
0.870880 0.509500 0.070600
0.981650 0.509500 0.070600
0.095490 0.616090 0.070600
0.206260 0.616090 0.070600
0.317030 0.616090 0.070600
0.427800 0.616090 0.070600
0.538570 0.616090 0.070600
0.649340 0.616090 0.070600
0.760110 0.616090 0.070600
0.870880 0.616090 0.070600
0.981650 0.616090 0.070600
0.095490 0.722680 0.070600
0.206260 0.722680 0.070600
0.317030 0.722680 0.070600
0.427800 0.722680 0.070600
0.538570 0.722680 0.070600
0.649340 0.722680 0.070600
0.760110 0.722680 0.070600
0.870880 0.722680 0.070600
0.981650 0.722680 0.070600
0.095490 0.829270 0.070600
0.206260 0.829270 0.070600
0.317030 0.829270 0.070600
0.427800 0.829270 0.070600
0.538570 0.829270 0.070600
0.649340 0.829270 0.070600
0.760110 0.829270 0.070600
0.870880 0.829270 0.070600
0.981650 0.829270 0.070600
0.095490 0.935860 0.070600
0.206260 0.935860 0.070600
0.317030 0.935860 0.070600
0.427800 0.935860 0.070600
0.538570 0.935860 0.070600
0.649340 0.935860 0.070600
0.760110 0.935860 0.070600
0.870880 0.935860 0.070600
0.981650 0.935860 0.070600
0.095490 0.083140 0.170920
0.206260 0.083140 0.170920
0.317030 0.083140 0.170920
0.427800 0.083140 0.170920
0.538570 0.083140 0.170920
0.649340 0.083140 0.170920
0.760110 0.083140 0.170920
0.870880 0.083140 0.170920
0.981650 0.083140 0.170920
0.095490 0.189730 0.170920
0.206260 0.189730 0.170920
0.317030 0.189730 0.170920
0.427800 0.189730 0.170920
0.538570 0.189730 0.170920
0.649340 0.189730 0.170920
0.760110 0.189730 0.170920
0.870880 0.189730 0.170920
0.981650 0.189730 0.170920
0.095490 0.296320 0.170920
0.206260 0.296320 0.170920
0.317030 0.296320 0.170920
0.427800 0.296320 0.170920
0.538570 0.296320 0.170920
0.649340 0.296320 0.170920
0.760110 0.296320 0.170920
0.870880 0.296320 0.170920
0.981650 0.296320 0.170920
0.095490 0.402910 0.170920
0.206260 0.402910 0.170920
0.317030 0.402910 0.170920
0.427800 0.402910 0.170920
0.538570 0.402910 0.170920
0.649340 0.402910 0.170920
0.760110 0.402910 0.170920
0.870880 0.402910 0.170920
0.981650 0.402910 0.170920
0.095490 0.509500 0.170920
0.206260 0.509500 0.170920
0.317030 0.509500 0.170920
0.427800 0.509500 0.170920
0.538570 0.509500 0.170920
0.649340 0.509500 0.170920
0.760110 0.509500 0.170920
0.870880 0.509500 0.170920
0.981650 0.509500 0.170920
0.095490 0.616090 0.170920
0.206260 0.616090 0.170920
0.317030 0.616090 0.170920
0.427800 0.616090 0.170920
0.538570 0.616090 0.170920
0.649340 0.616090 0.170920
0.760110 0.616090 0.170920
0.870880 0.616090 0.170920
0.981650 0.616090 0.170920
0.095490 0.722680 0.170920
0.206260 0.722680 0.170920
0.317030 0.722680 0.170920
0.427800 0.722680 0.170920
0.538570 0.722680 0.170920
0.649340 0.722680 0.170920
0.760110 0.722680 0.170920
0.870880 0.722680 0.170920
0.981650 0.722680 0.170920
0.095490 0.829270 0.170920
0.206260 0.829270 0.170920
0.317030 0.829270 0.170920
0.427800 0.829270 0.170920
0.538570 0.829270 0.170920
0.649340 0.829270 0.170920
0.760110 0.829270 0.170920
0.870880 0.829270 0.170920
0.981650 0.829270 0.170920
0.095490 0.935860 0.170920
0.206260 0.935860 0.170920
0.317030 0.935860 0.170920
0.427800 0.935860 0.170920
0.538570 0.935860 0.170920
0.649340 0.935860 0.170920
0.760110 0.935860 0.170920
0.870880 0.935860 0.170920
0.981650 0.935860 0.170920
0.095490 0.083140 0.271240
0.206260 0.083140 0.271240
0.317030 0.083140 0.271240
0.427800 0.083140 0.271240
0.538570 0.083140 0.271240
0.649340 0.083140 0.271240
0.760110 0.083140 0.271240
0.870880 0.083140 0.271240
0.981650 0.083140 0.271240
0.095490 0.189730 0.271240
0.206260 0.189730 0.271240
0.317030 0.189730 0.271240
0.427800 0.189730 0.271240
0.538570 0.189730 0.271240
0.649340 0.189730 0.271240
0.760110 0.189730 0.271240
0.870880 0.189730 0.271240
0.981650 0.189730 0.271240
0.095490 0.296320 0.271240
0.206260 0.296320 0.271240
0.317030 0.296320 0.271240
0.427800 0.296320 0.271240
0.538570 0.296320 0.271240
0.649340 0.296320 0.271240
0.760110 0.296320 0.271240
0.870880 0.296320 0.271240
0.981650 0.296320 0.271240
0.095490 0.402910 0.271240
0.206260 0.402910 0.271240
0.317030 0.402910 0.271240
0.427800 0.402910 0.271240
0.538570 0.402910 0.271240
0.649340 0.402910 0.271240
0.760110 0.402910 0.271240
0.870880 0.402910 0.271240
0.981650 0.402910 0.271240
0.095490 0.509500 0.271240
0.206260 0.509500 0.271240
0.317030 0.509500 0.271240
0.427800 0.509500 0.271240
0.538570 0.509500 0.271240
0.649340 0.509500 0.271240
0.760110 0.509500 0.271240
0.870880 0.509500 0.271240
0.981650 0.509500 0.271240
0.095490 0.616090 0.271240
0.206260 0.616090 0.271240
0.317030 0.616090 0.271240
0.427800 0.616090 0.271240
0.538570 0.616090 0.271240
0.649340 0.616090 0.271240
0.760110 0.616090 0.271240
0.870880 0.616090 0.271240
0.981650 0.616090 0.271240
0.095490 0.722680 0.271240
0.206260 0.722680 0.271240
0.317030 0.722680 0.271240
0.427800 0.722680 0.271240
0.538570 0.722680 0.271240
0.649340 0.722680 0.271240
0.760110 0.722680 0.271240
0.870880 0.722680 0.271240
0.981650 0.722680 0.271240
0.095490 0.829270 0.271240
0.206260 0.829270 0.271240
0.317030 0.829270 0.271240
0.427800 0.829270 0.271240
0.538570 0.829270 0.271240
0.649340 0.829270 0.271240
0.760110 0.829270 0.271240
0.870880 0.829270 0.271240
0.981650 0.829270 0.271240
0.095490 0.935860 0.271240
0.206260 0.935860 0.271240
0.317030 0.935860 0.271240
0.427800 0.935860 0.271240
0.538570 0.935860 0.271240
0.649340 0.935860 0.271240
0.760110 0.935860 0.271240
0.870880 0.935860 0.271240
0.981650 0.935860 0.271240
0.095490 0.083140 0.371560
0.206260 0.083140 0.371560
0.317030 0.083140 0.371560
0.427800 0.083140 0.371560
0.538570 0.083140 0.371560
0.649340 0.083140 0.371560
0.760110 0.083140 0.371560
0.870880 0.083140 0.371560
0.981650 0.083140 0.371560
0.095490 0.189730 0.371560
0.206260 0.189730 0.371560
0.317030 0.189730 0.371560
0.427800 0.189730 0.371560
0.538570 0.189730 0.371560
0.649340 0.189730 0.371560
0.760110 0.189730 0.371560
0.870880 0.189730 0.371560
0.981650 0.189730 0.371560
0.095490 0.296320 0.371560
0.206260 0.296320 0.371560
0.317030 0.296320 0.371560
0.427800 0.296320 0.371560
0.538570 0.296320 0.371560
0.649340 0.296320 0.371560
0.760110 0.296320 0.371560
0.870880 0.296320 0.371560
0.981650 0.296320 0.371560
0.095490 0.402910 0.371560
0.206260 0.402910 0.371560
0.317030 0.402910 0.371560
0.427800 0.402910 0.371560
0.538570 0.402910 0.371560
0.649340 0.402910 0.371560
0.760110 0.402910 0.371560
0.870880 0.402910 0.371560
0.981650 0.402910 0.371560
0.095490 0.509500 0.371560
0.206260 0.509500 0.371560
0.317030 0.509500 0.371560
0.427800 0.509500 0.371560
0.538570 0.509500 0.371560
0.649340 0.509500 0.371560
0.760110 0.509500 0.371560
0.870880 0.509500 0.371560
0.981650 0.509500 0.371560
0.095490 0.616090 0.371560
0.206260 0.616090 0.371560
0.317030 0.616090 0.371560
0.427800 0.616090 0.371560
0.538570 0.616090 0.371560
0.649340 0.616090 0.371560
0.760110 0.616090 0.371560
0.870880 0.616090 0.371560
0.981650 0.616090 0.371560
0.095490 0.722680 0.371560
0.206260 0.722680 0.371560
0.317030 0.722680 0.371560
0.427800 0.722680 0.371560
0.538570 0.722680 0.371560
0.649340 0.722680 0.371560
0.760110 0.722680 0.371560
0.870880 0.722680 0.371560
0.981650 0.722680 0.371560
0.095490 0.829270 0.371560
0.206260 0.829270 0.371560
0.317030 0.829270 0.371560
0.427800 0.829270 0.371560
0.538570 0.829270 0.371560
0.649340 0.829270 0.371560
0.760110 0.829270 0.371560
0.870880 0.829270 0.371560
0.981650 0.829270 0.371560
0.095490 0.935860 0.371560
0.206260 0.935860 0.371560
0.317030 0.935860 0.371560
0.427800 0.935860 0.371560
0.538570 0.935860 0.371560
0.649340 0.935860 0.371560
0.760110 0.935860 0.371560
0.870880 0.935860 0.371560
0.981650 0.935860 0.371560
0.095490 0.083140 0.471880
0.206260 0.083140 0.471880
0.317030 0.083140 0.471880
0.427800 0.083140 0.471880
0.538570 0.083140 0.471880
0.649340 0.083140 0.471880
0.760110 0.083140 0.471880
0.870880 0.083140 0.471880
0.981650 0.083140 0.471880
0.095490 0.189730 0.471880
0.206260 0.189730 0.471880
0.317030 0.189730 0.471880
0.427800 0.189730 0.471880
0.538570 0.189730 0.471880
0.649340 0.189730 0.471880
0.760110 0.189730 0.471880
0.870880 0.189730 0.471880
0.981650 0.189730 0.471880
0.095490 0.296320 0.471880
0.206260 0.296320 0.471880
0.317030 0.296320 0.471880
0.427800 0.296320 0.471880
0.538570 0.296320 0.471880
0.649340 0.296320 0.471880
0.760110 0.296320 0.471880
0.870880 0.296320 0.471880
0.981650 0.296320 0.471880
0.095490 0.402910 0.471880
0.206260 0.402910 0.471880
0.317030 0.402910 0.471880
0.427800 0.402910 0.471880
0.538570 0.402910 0.471880
0.649340 0.402910 0.471880
0.760110 0.402910 0.471880
0.870880 0.402910 0.471880
0.981650 0.402910 0.471880
0.095490 0.509500 0.471880
0.206260 0.509500 0.471880
0.317030 0.509500 0.471880
0.427800 0.509500 0.471880
0.538570 0.509500 0.471880
0.649340 0.509500 0.471880
0.760110 0.509500 0.471880
0.870880 0.509500 0.471880
0.981650 0.509500 0.471880
0.095490 0.616090 0.471880
0.206260 0.616090 0.471880
0.317030 0.616090 0.471880
0.427800 0.616090 0.471880
0.538570 0.616090 0.471880
0.649340 0.616090 0.471880
0.760110 0.616090 0.471880
0.870880 0.616090 0.471880
0.981650 0.616090 0.471880
0.095490 0.722680 0.471880
0.206260 0.722680 0.471880
0.317030 0.722680 0.471880
0.427800 0.722680 0.471880
0.538570 0.722680 0.471880
0.649340 0.722680 0.471880
0.760110 0.722680 0.471880
0.870880 0.722680 0.471880
0.981650 0.722680 0.471880
0.095490 0.829270 0.471880
0.206260 0.829270 0.471880
0.317030 0.829270 0.471880
0.427800 0.829270 0.471880
0.538570 0.829270 0.471880
0.649340 0.829270 0.471880
0.760110 0.829270 0.471880
0.870880 0.829270 0.471880
0.981650 0.829270 0.471880
0.095490 0.935860 0.471880
0.206260 0.935860 0.471880
0.317030 0.935860 0.471880
0.427800 0.935860 0.471880
0.538570 0.935860 0.471880
0.649340 0.935860 0.471880
0.760110 0.935860 0.471880
0.870880 0.935860 0.471880
0.981650 0.935860 0.471880
0.095490 0.083140 0.572200
0.206260 0.083140 0.572200
0.317030 0.083140 0.572200
0.427800 0.083140 0.572200
0.538570 0.083140 0.572200
0.649340 0.083140 0.572200
0.760110 0.083140 0.572200
0.870880 0.083140 0.572200
0.981650 0.083140 0.572200
0.095490 0.189730 0.572200
0.206260 0.189730 0.572200
0.317030 0.189730 0.572200
0.427800 0.189730 0.572200
0.538570 0.189730 0.572200
0.649340 0.189730 0.572200
0.760110 0.189730 0.572200
0.870880 0.189730 0.572200
0.981650 0.189730 0.572200
0.095490 0.296320 0.572200
0.206260 0.296320 0.572200
0.317030 0.296320 0.572200
0.427800 0.296320 0.572200
0.538570 0.296320 0.572200
0.649340 0.296320 0.572200
0.760110 0.296320 0.572200
0.870880 0.296320 0.572200
0.981650 0.296320 0.572200
0.095490 0.402910 0.572200
0.206260 0.402910 0.572200
0.317030 0.402910 0.572200
0.427800 0.402910 0.572200
0.538570 0.402910 0.572200
0.649340 0.402910 0.572200
0.760110 0.402910 0.572200
0.870880 0.402910 0.572200
0.981650 0.402910 0.572200
0.095490 0.509500 0.572200
0.206260 0.509500 0.572200
0.317030 0.509500 0.572200
0.427800 0.509500 0.572200
0.538570 0.509500 0.572200
0.649340 0.509500 0.572200
0.760110 0.509500 0.572200
0.870880 0.509500 0.572200
0.981650 0.509500 0.572200
0.095490 0.616090 0.572200
0.206260 0.616090 0.572200
0.317030 0.616090 0.572200
0.427800 0.616090 0.572200
0.538570 0.616090 0.572200
0.649340 0.616090 0.572200
0.760110 0.616090 0.572200
0.870880 0.616090 0.572200
0.981650 0.616090 0.572200
0.095490 0.722680 0.572200
0.206260 0.722680 0.572200
0.317030 0.722680 0.572200
0.427800 0.722680 0.572200
0.538570 0.722680 0.572200
0.649340 0.722680 0.572200
0.760110 0.722680 0.572200
0.870880 0.722680 0.572200
0.981650 0.722680 0.572200
0.095490 0.829270 0.572200
0.206260 0.829270 0.572200
0.317030 0.829270 0.572200
0.427800 0.829270 0.572200
0.538570 0.829270 0.572200
0.649340 0.829270 0.572200
0.760110 0.829270 0.572200
0.870880 0.829270 0.572200
0.981650 0.829270 0.572200
0.095490 0.935860 0.572200
0.206260 0.935860 0.572200
0.317030 0.935860 0.572200
0.427800 0.935860 0.572200
0.538570 0.935860 0.572200
0.649340 0.935860 0.572200
0.760110 0.935860 0.572200
0.870880 0.935860 0.572200
0.981650 0.935860 0.572200
0.095490 0.083140 0.672520
0.206260 0.083140 0.672520
0.317030 0.083140 0.672520
0.427800 0.083140 0.672520
0.538570 0.083140 0.672520
0.649340 0.083140 0.672520
0.760110 0.083140 0.672520
0.870880 0.083140 0.672520
0.981650 0.083140 0.672520
0.095490 0.189730 0.672520
0.206260 0.189730 0.672520
0.317030 0.189730 0.672520
0.427800 0.189730 0.672520
0.538570 0.189730 0.672520
0.649340 0.189730 0.672520
0.760110 0.189730 0.672520
0.870880 0.189730 0.672520
0.981650 0.189730 0.672520
0.095490 0.296320 0.672520
0.206260 0.296320 0.672520
0.317030 0.296320 0.672520
0.427800 0.296320 0.672520
0.538570 0.296320 0.672520
0.649340 0.296320 0.672520
0.760110 0.296320 0.672520
0.870880 0.296320 0.672520
0.981650 0.296320 0.672520
0.095490 0.402910 0.672520
0.206260 0.402910 0.672520
0.317030 0.402910 0.672520
0.427800 0.402910 0.672520
0.538570 0.402910 0.672520
0.649340 0.402910 0.672520
0.760110 0.402910 0.672520
0.870880 0.402910 0.672520
0.981650 0.402910 0.672520
0.095490 0.509500 0.672520
0.206260 0.509500 0.672520
0.317030 0.509500 0.672520
0.427800 0.509500 0.672520
0.538570 0.509500 0.672520
0.649340 0.509500 0.672520
0.760110 0.509500 0.672520
0.870880 0.509500 0.672520
0.981650 0.509500 0.672520
0.095490 0.616090 0.672520
0.206260 0.616090 0.672520
0.317030 0.616090 0.672520
0.427800 0.616090 0.672520
0.538570 0.616090 0.672520
0.649340 0.616090 0.672520
0.760110 0.616090 0.672520
0.870880 0.616090 0.672520
0.981650 0.616090 0.672520
0.095490 0.722680 0.672520
0.206260 0.722680 0.672520
0.317030 0.722680 0.672520
0.427800 0.722680 0.672520
0.538570 0.722680 0.672520
0.649340 0.722680 0.672520
0.760110 0.722680 0.672520
0.870880 0.722680 0.672520
0.981650 0.722680 0.672520
0.095490 0.829270 0.672520
0.206260 0.829270 0.672520
0.317030 0.829270 0.672520
0.427800 0.829270 0.672520
0.538570 0.829270 0.672520
0.649340 0.829270 0.672520
0.760110 0.829270 0.672520
0.870880 0.829270 0.672520
0.981650 0.829270 0.672520
0.095490 0.935860 0.672520
0.206260 0.935860 0.672520
0.317030 0.935860 0.672520
0.427800 0.935860 0.672520
0.538570 0.935860 0.672520
0.649340 0.935860 0.672520
0.760110 0.935860 0.672520
0.870880 0.935860 0.672520
0.981650 0.935860 0.672520
0.095490 0.083140 0.772840
0.206260 0.083140 0.772840
0.317030 0.083140 0.772840
0.427800 0.083140 0.772840
0.538570 0.083140 0.772840
0.649340 0.083140 0.772840
0.760110 0.083140 0.772840
0.870880 0.083140 0.772840
0.981650 0.083140 0.772840
0.095490 0.189730 0.772840
0.206260 0.189730 0.772840
0.317030 0.189730 0.772840
0.427800 0.189730 0.772840
0.538570 0.189730 0.772840
0.649340 0.189730 0.772840
0.760110 0.189730 0.772840
0.870880 0.189730 0.772840
0.981650 0.189730 0.772840
0.095490 0.296320 0.772840
0.206260 0.296320 0.772840
0.317030 0.296320 0.772840
0.427800 0.296320 0.772840
0.538570 0.296320 0.772840
0.649340 0.296320 0.772840
0.760110 0.296320 0.772840
0.870880 0.296320 0.772840
0.981650 0.296320 0.772840
0.095490 0.402910 0.772840
0.206260 0.402910 0.772840
0.317030 0.402910 0.772840
0.427800 0.402910 0.772840
0.538570 0.402910 0.772840
0.649340 0.402910 0.772840
0.760110 0.402910 0.772840
0.870880 0.402910 0.772840
0.981650 0.402910 0.772840
0.095490 0.509500 0.772840
0.206260 0.509500 0.772840
0.317030 0.509500 0.772840
0.427800 0.509500 0.772840
0.538570 0.509500 0.772840
0.649340 0.509500 0.772840
0.760110 0.509500 0.772840
0.870880 0.509500 0.772840
0.981650 0.509500 0.772840
0.095490 0.616090 0.772840
0.206260 0.616090 0.772840
0.317030 0.616090 0.772840
0.427800 0.616090 0.772840
0.538570 0.616090 0.772840
0.649340 0.616090 0.772840
0.760110 0.616090 0.772840
0.870880 0.616090 0.772840
0.981650 0.616090 0.772840
0.095490 0.722680 0.772840
0.206260 0.722680 0.772840
0.317030 0.722680 0.772840
0.427800 0.722680 0.772840
0.538570 0.722680 0.772840
0.649340 0.722680 0.772840
0.760110 0.722680 0.772840
0.870880 0.722680 0.772840
0.981650 0.722680 0.772840
0.095490 0.829270 0.772840
0.206260 0.829270 0.772840
0.317030 0.829270 0.772840
0.427800 0.829270 0.772840
0.538570 0.829270 0.772840
0.649340 0.829270 0.772840
0.760110 0.829270 0.772840
0.870880 0.829270 0.772840
0.981650 0.829270 0.772840
0.095490 0.935860 0.772840
0.206260 0.935860 0.772840
0.317030 0.935860 0.772840
0.427800 0.935860 0.772840
0.538570 0.935860 0.772840
0.649340 0.935860 0.772840
0.760110 0.935860 0.772840
0.870880 0.935860 0.772840
0.981650 0.935860 0.772840
0.095490 0.083140 0.873160
0.206260 0.083140 0.873160
0.317030 0.083140 0.873160
0.427800 0.083140 0.873160
0.538570 0.083140 0.873160
0.649340 0.083140 0.873160
0.760110 0.083140 0.873160
0.870880 0.083140 0.873160
0.981650 0.083140 0.873160
0.095490 0.189730 0.873160
0.206260 0.189730 0.873160
0.317030 0.189730 0.873160
0.427800 0.189730 0.873160
0.538570 0.189730 0.873160
0.649340 0.189730 0.873160
0.760110 0.189730 0.873160
0.870880 0.189730 0.873160
0.981650 0.189730 0.873160
0.095490 0.296320 0.873160
0.206260 0.296320 0.873160
0.317030 0.296320 0.873160
0.427800 0.296320 0.873160
0.538570 0.296320 0.873160
0.649340 0.296320 0.873160
0.760110 0.296320 0.873160
0.870880 0.296320 0.873160
0.981650 0.296320 0.873160
0.095490 0.402910 0.873160
0.206260 0.402910 0.873160
0.317030 0.402910 0.873160
0.427800 0.402910 0.873160
0.538570 0.402910 0.873160
0.649340 0.402910 0.873160
0.760110 0.402910 0.873160
0.870880 0.402910 0.873160
0.981650 0.402910 0.873160
0.095490 0.509500 0.873160
0.206260 0.509500 0.873160
0.317030 0.509500 0.873160
0.427800 0.509500 0.873160
0.538570 0.509500 0.873160
0.649340 0.509500 0.873160
0.760110 0.509500 0.873160
0.870880 0.509500 0.873160
0.981650 0.509500 0.873160
0.095490 0.616090 0.873160
0.206260 0.616090 0.873160
0.317030 0.616090 0.873160
0.427800 0.616090 0.873160
0.538570 0.616090 0.873160
0.649340 0.616090 0.873160
0.760110 0.616090 0.873160
0.870880 0.616090 0.873160
0.981650 0.616090 0.873160
0.095490 0.722680 0.873160
0.206260 0.722680 0.873160
0.317030 0.722680 0.873160
0.427800 0.722680 0.873160
0.538570 0.722680 0.873160
0.649340 0.722680 0.873160
0.760110 0.722680 0.873160
0.870880 0.722680 0.873160
0.981650 0.722680 0.873160
0.095490 0.829270 0.873160
0.206260 0.829270 0.873160
0.317030 0.829270 0.873160
0.427800 0.829270 0.873160
0.538570 0.829270 0.873160
0.649340 0.829270 0.873160
0.760110 0.829270 0.873160
0.870880 0.829270 0.873160
0.981650 0.829270 0.873160
0.095490 0.935860 0.873160
0.206260 0.935860 0.873160
0.317030 0.935860 0.873160
0.427800 0.935860 0.873160
0.538570 0.935860 0.873160
0.649340 0.935860 0.873160
0.760110 0.935860 0.873160
0.870880 0.935860 0.873160
0.981650 0.935860 0.873160
