flutter_app/assets/lut/superia.cube
TITLE "Fuji Superia"
# Generated placeholder LUT for DAZZ development
# Replace with production-grade LUT before release
LUT_3D_SIZE 5
DOMAIN_MIN 0.0 0.0 0.0
DOMAIN_MAX 1.0 1.0 1.0
0.000000 0.000000 0.000000
0.235150 0.000000 0.000000
0.510299 0.000000 0.000000
0.785449 0.000000 0.000000
1.000000 0.000000 0.000000
0.000000 0.260384 0.000000
0.214990 0.251278 0.000000
0.490139 0.242171 0.000000
0.765289 0.233065 0.000000
1.000000 0.223959 0.000000
0.000000 0.560768 0.000000
0.194830 0.551662 0.000000
0.469979 0.542555 0.000000
0.745129 0.533449 0.000000
1.000000 0.524343 0.000000
0.000000 0.861152 0.000000
0.174670 0.852046 0.000000
0.449820 0.842940 0.000000
0.724969 0.833833 0.000000
1.000000 0.824727 0.000000
0.000000 1.000000 0.000000
0.154510 1.000000 0.000000
0.429660 1.000000 0.000000
0.704809 1.000000 0.000000
0.979959 1.000000 0.000000
0.000000 0.000000 0.264681
0.231382 0.000000 0.255574
0.506532 0.000000 0.246468
0.781681 0.000000 0.237361
1.000000 0.000000 0.228255
0.000000 0.256617 0.244521
0.211222 0.247510 0.235414
0.486372 0.238404 0.226308
0.761522 0.229298 0.217202
1.000000 0.220191 0.208095
0.000000 0.557001 0.224361
0.191062 0.547894 0.215254
0.466212 0.538788 0.206148
0.741362 0.529682 0.197042
1.000000 0.520575 0.187935
0.000000 0.857385 0.204201
0.170902 0.848278 0.195094
0.446052 0.839172 0.185988
0.721202 0.830066 0.176882
0.996351 0.820959 0.167775
0.000000 1.000000 0.184041
0.150742 1.000000 0.174934
0.425892 1.000000 0.165828
0.701042 1.000000 0.156722
0.976191 1.000000 0.147615
0.000000 0.000000 0.569361
0.227615 0.000000 0.560255
0.502764 0.000000 0.551148
0.777914 0.000000 0.542042
1.000000 0.000000 0.532936
0.000000 0.252849 0.549201
0.207455 0.243743 0.540095
0.482604 0.234636 0.530988
0.757754 0.225530 0.521882
1.000000 0.216424 0.512776
0.000000 0.553233 0.529041
0.187295 0.544127 0.519935
0.462445 0.535021 0.510829
0.737594 0.525914 0.501722
1.000000 0.516808 0.492616
0.000000 0.853617 0.508881
0.167135 0.844511 0.499775
0.442285 0.835405 0.490669
0.717434 0.826298 0.481562
0.992584 0.817192 0.472456
0.000000 1.000000 0.488721
0.146975 1.000000 0.479615
0.422125 1.000000 0.470509
0.697274 1.000000 0.461402
0.972424 1.000000 0.452296
0.000000 0.000000 0.874042
0.223847 0.000000 0.864935
0.498997 0.000000 0.855829
0.774147 0.000000 0.846723
1.000000 0.000000 0.837616
0.000000 0.249082 0.853882
0.203687 0.239975 0.844775
0.478837 0.230869 0.835669
0.753987 0.221763 0.826563
1.000000 0.212656 0.817456
0.000000 0.549466 0.833722
0.183527 0.540359 0.824615
0.458677 0.531253 0.815509
0.733827 0.522147 0.806403
1.000000 0.513040 0.797296
0.000000 0.849850 0.813562
0.163367 0.840743 0.804455
0.438517 0.831637 0.795349
0.713667 0.822531 0.786243
0.988816 0.813424 0.777136
0.000000 1.000000 0.793402
0.143208 1.000000 0.784296
0.418357 1.000000 0.775189
0.693507 1.000000 0.766083
0.968656 1.000000 0.756976
0.000000 0.000000 1.000000
0.220080 0.000000 1.000000
0.495229 0.000000 1.000000
0.770379 0.000000 1.000000
1.000000 0.000000 1.000000
0.000000 0.245314 1.000000
0.199920 0.236208 1.000000
0.475069 0.227101 1.000000
0.750219 0.217995 1.000000
1.000000 0.208889 1.000000
0.000000 0.545698 1.000000
0.179760 0.536592 1.000000
0.454910 0.527486 1.000000
0.730059 0.518379 1.000000
1.000000 0.509273 1.000000
0.000000 0.846082 1.000000
0.159600 0.836976 1.000000
0.434750 0.827870 1.000000
0.709899 0.818763 1.000000
0.985049 0.809657 1.000000
0.000000 1.000000 1.000000
0.139440 1.000000 1.000000
0.414590 1.000000 1.000000
0.689739 1.000000 1.000000
0.964889 1.000000 1.000000
