flutter_app/assets/lut/superia.cube
TITLE "Fuji Superia"
# Generated placeholder LUT for DAZZ development
# Replace with production-grade LUT before release
LUT_3D_SIZE 9
DOMAIN_MIN 0.0 0.0 0.0
DOMAIN_MAX 1.0 1.0 1.0
0.000000 0.000000 0.000000
0.097575 0.000000 0.000000
0.235150 0.000000 0.000000
0.372724 0.000000 0.000000
0.510299 0.000000 0.000000
0.647874 0.000000 0.000000
0.785449 0.000000 0.000000
0.923024 0.000000 0.000000
1.000000 0.000000 0.000000
0.000000 0.110192 0.000000
0.087495 0.105639 0.000000
0.225070 0.101086 0.000000
0.362645 0.096533 0.000000
0.500219 0.091979 0.000000
0.637794 0.087426 0.000000
0.775369 0.082873 0.000000
0.912944 0.078320 0.000000
1.000000 0.073767 0.000000
0.000000 0.260384 0.000000
0.077415 0.255831 0.000000
0.214990 0.251278 0.000000
0.352565 0.246725 0.000000
0.490139 0.242171 0.000000
0.627714 0.237618 0.000000
0.765289 0.233065 0.000000
0.902864 0.228512 0.000000
1.000000 0.223959 0.000000
0.000000 0.410576 0.000000
0.067335 0.406023 0.000000
0.204910 0.401470 0.000000
0.342485 0.396917 0.000000
0.480059 0.392363 0.000000
0.617634 0.387810 0.000000
0.755209 0.383257 0.000000
0.892784 0.378704 0.000000
1.000000 0.374151 0.000000
0.000000 0.560768 0.000000
0.057255 0.556215 0.000000
0.194830 0.551662 0.000000
0.332405 0.547109 0.000000
0.469979 0.542555 0.000000
0.607554 0.538002 0.000000
0.745129 0.533449 0.000000
0.882704 0.528896 0.000000
1.000000 0.524343 0.000000
0.000000 0.710960 0.000000
0.047175 0.706407 0.000000
0.184750 0.701854 0.000000
0.322325 0.697301 0.000000
0.459899 0.692747 0.000000
0.597474 0.688194 0.000000
0.735049 0.683641 0.000000
0.872624 0.679088 0.000000
1.000000 0.674535 0.000000
0.000000 0.861152 0.000000
0.037095 0.856599 0.000000
0.174670 0.852046 0.000000
0.312245 0.847493 0.000000
0.449820 0.842940 0.000000
0.587394 0.838386 0.000000
0.724969 0.833833 0.000000
0.862544 0.829280 0.000000
1.000000 0.824727 0.000000
0.000000 1.000000 0.000000
0.027015 1.000000 0.000000
0.164590 1.000000 0.000000
0.302165 0.997685 0.000000
0.439740 0.993132 0.000000
0.577314 0.988578 0.000000
0.714889 0.984025 0.000000
0.852464 0.979472 0.000000
0.990039 0.974919 0.000000
0.000000 1.000000 0.000000
0.016935 1.000000 0.000000
0.154510 1.000000 0.000000
0.292085 1.000000 0.000000
0.429660 1.000000 0.000000
0.567234 1.000000 0.000000
0.704809 1.000000 0.000000
0.842384 1.000000 0.000000
0.979959 1.000000 0.000000
0.000000 0.000000 0.112340
0.095691 0.000000 0.107787
0.233266 0.000000 0.103234
0.370841 0.000000 0.098681
0.508416 0.000000 0.094128
0.645990 0.000000 0.089574
0.783565 0.000000 0.085021
0.921140 0.000000 0.080468
1.000000 0.000000 0.075915
0.000000 0.108308 0.102260
0.085611 0.103755 0.097707
0.223186 0.099202 0.093154
0.360761 0.094649 0.088601
0.498336 0.090096 0.084048
0.635910 0.085542 0.079494
0.773485 0.080989 0.074941
0.911060 0.076436 0.070388
1.000000 0.071883 0.065835
0.000000 0.258500 0.092180
0.075531 0.253947 0.087627
0.213106 0.249394 0.083074
0.350681 0.244841 0.078521
0.488256 0.240288 0.073968
0.625830 0.235734 0.069414
0.763405 0.231181 0.064861
0.900980 0.226628 0.060308
1.000000 0.222075 0.055755
0.000000 0.408692 0.082100
0.065451 0.404139 0.077547
0.203026 0.399586 0.072994
0.340601 0.395033 0.068441
0.478176 0.390480 0.063888
0.615751 0.385927 0.059335
0.753325 0.381373 0.054781
0.890900 0.376820 0.050228
1.000000 0.372267 0.045675
0.000000 0.558884 0.072020
0.055371 0.554331 0.067467
0.192946 0.549778 0.062914
0.330521 0.545225 0.058361
0.468096 0.540672 0.053808
0.605671 0.536119 0.049255
0.743245 0.531565 0.044701
0.880820 0.527012 0.040148
1.000000 0.522459 0.035595
0.000000 0.709076 0.061940
0.045291 0.704523 0.057387
0.182866 0.699970 0.052834
0.320441 0.695417 0.048281
0.458016 0.690864 0.043728
0.595591 0.686311 0.039175
0.733165 0.681757 0.034621
0.870740 0.677204 0.030068
1.000000 0.672651 0.025515
0.000000 0.859268 0.051860
0.035211 0.854715 0.047307
0.172786 0.850162 0.042754
0.310361 0.845609 0.038201
0.447936 0.841056 0.033648
0.585511 0.836503 0.029095
0.723085 0.831949 0.024541
0.860660 0.827396 0.019988
0.998235 0.822843 0.015435
0.000000 1.000000 0.041781
0.025131 1.000000 0.037227
0.162706 1.000000 0.032674
0.300281 0.995801 0.028121
0.437856 0.991248 0.023568
0.575431 0.986695 0.019015
0.713005 0.982141 0.014461
0.850580 0.977588 0.009908
0.988155 0.973035 0.005355
0.000000 1.000000 0.031701
0.015051 1.000000 0.027147
0.152626 1.000000 0.022594
0.290201 1.000000 0.018041
0.427776 1.000000 0.013488
0.565351 1.000000 0.008935
0.702926 1.000000 0.004382
0.840500 1.000000 0.000000
0.978075 1.000000 0.000000
0.000000 0.000000 0.264681
0.093807 0.000000 0.260127
0.231382 0.000000 0.255574
0.368957 0.000000 0.251021
0.506532 0.000000 0.246468
0.644107 0.000000 0.241915
0.781681 0.000000 0.237361
0.919256 0.000000 0.232808
1.000000 0.000000 0.228255
0.000000 0.106425 0.254601
0.083727 0.101871 0.250047
0.221302 0.097318 0.245494
0.358877 0.092765 0.240941
0.496452 0.088212 0.236388
0.634027 0.083659 0.231835
0.771602 0.079106 0.227282
0.909176 0.074552 0.222728
1.000000 0.069999 0.218175
0.000000 0.256617 0.244521
0.073647 0.252063 0.239967
0.211222 0.247510 0.235414
0.348797 0.242957 0.230861
0.486372 0.238404 0.226308
0.623947 0.233851 0.221755
0.761522 0.229298 0.217202
0.899096 0.224744 0.212648
1.000000 0.220191 0.208095
0.000000 0.406809 0.234441
0.063567 0.402255 0.229887
0.201142 0.397702 0.225334
0.338717 0.393149 0.220781
0.476292 0.388596 0.216228
0.613867 0.384043 0.211675
0.751442 0.379490 0.207122
0.889016 0.374936 0.202568
1.000000 0.370383 0.198015
0.000000 0.557001 0.224361
0.053487 0.552448 0.219807
0.191062 0.547894 0.215254
0.328637 0.543341 0.210701
0.466212 0.538788 0.206148
0.603787 0.534235 0.201595
0.741362 0.529682 0.197042
0.878936 0.525128 0.192488
1.000000 0.520575 0.187935
0.000000 0.707193 0.214281
0.043408 0.702640 0.209728
0.180982 0.698086 0.205174
0.318557 0.693533 0.200621
0.456132 0.688980 0.196068
0.593707 0.684427 0.191515
0.731282 0.679874 0.186962
0.868857 0.675321 0.182409
1.000000 0.670767 0.177855
0.000000 0.857385 0.204201
0.033328 0.852832 0.199648
0.170902 0.848278 0.195094
0.308477 0.843725 0.190541
0.446052 0.839172 0.185988
0.583627 0.834619 0.181435
0.721202 0.830066 0.176882
0.858777 0.825513 0.172329
0.996351 0.820959 0.167775
0.000000 1.000000 0.194121
0.023248 1.000000 0.189568
0.160822 0.998470 0.185014
0.298397 0.993917 0.180461
0.435972 0.989364 0.175908
0.573547 0.984811 0.171355
0.711122 0.980258 0.166802
0.848697 0.975705 0.162249
0.986271 0.971151 0.157695
0.000000 1.000000 0.184041
0.013168 1.000000 0.179488
0.150742 1.000000 0.174934
0.288317 1.000000 0.170381
0.425892 1.000000 0.165828
0.563467 1.000000 0.161275
0.701042 1.000000 0.156722
0.838617 1.000000 0.152169
0.976191 1.000000 0.147615
0.000000 0.000000 0.417021
0.091924 0.000000 0.412468
0.229498 0.000000 0.407914
0.367073 0.000000 0.403361
0.504648 0.000000 0.398808
0.642223 0.000000 0.394255
0.779798 0.000000 0.389702
0.917373 0.000000 0.385149
1.000000 0.000000 0.380595
0.000000 0.104541 0.406941
0.081844 0.099988 0.402388
0.219418 0.095434 0.397834
0.356993 0.090881 0.393281
0.494568 0.086328 0.388728
0.632143 0.081775 0.384175
0.769718 0.077222 0.379622
0.907293 0.072669 0.375069
1.000000 0.068115 0.370515
0.000000 0.254733 0.396861
0.071764 0.250180 0.392308
0.209339 0.245627 0.387755
0.346913 0.241073 0.383201
0.484488 0.236520 0.378648
0.622063 0.231967 0.374095
0.759638 0.227414 0.369542
0.897213 0.222861 0.364989
1.000000 0.218307 0.360435
0.000000 0.404925 0.386781
0.061684 0.400372 0.382228
0.199259 0.395819 0.377675
0.336833 0.391265 0.373121
0.474408 0.386712 0.368568
0.611983 0.382159 0.364015
0.749558 0.377606 0.359462
0.887133 0.373053 0.354909
1.000000 0.368500 0.350356
0.000000 0.555117 0.376701
0.051604 0.550564 0.372148
0.189179 0.546011 0.367595
0.326753 0.541457 0.363041
0.464328 0.536904 0.358488
0.601903 0.532351 0.353935
0.739478 0.527798 0.349382
0.877053 0.523245 0.344829
1.000000 0.518692 0.340276
0.000000 0.705309 0.366621
0.041524 0.700756 0.362068
0.179099 0.696203 0.357515
0.316673 0.691649 0.352961
0.454248 0.687096 0.348408
0.591823 0.682543 0.343855
0.729398 0.677990 0.339302
0.866973 0.673437 0.334749
1.000000 0.668884 0.330196
0.000000 0.855501 0.356541
0.031444 0.850948 0.351988
0.169019 0.846395 0.347435
0.306593 0.841841 0.342881
0.444168 0.837288 0.338328
0.581743 0.832735 0.333775
0.719318 0.828182 0.329222
0.856893 0.823629 0.324669
0.994468 0.819076 0.320116
0.000000 1.000000 0.346461
0.021364 1.000000 0.341908
0.158939 0.996587 0.337355
0.296514 0.992034 0.332802
0.434088 0.987480 0.328248
0.571663 0.982927 0.323695
0.709238 0.978374 0.319142
0.846813 0.973821 0.314589
0.984388 0.969268 0.310036
0.000000 1.000000 0.336381
0.011284 1.000000 0.331828
0.148859 1.000000 0.327275
0.286434 1.000000 0.322722
0.424008 1.000000 0.318168
0.561583 1.000000 0.313615
0.699158 1.000000 0.309062
0.836733 1.000000 0.304509
0.974308 1.000000 0.299956
0.000000 0.000000 0.569361
0.090040 0.000000 0.564808
0.227615 0.000000 0.560255
0.365190 0.000000 0.555702
0.502764 0.000000 0.551148
0.640339 0.000000 0.546595
0.777914 0.000000 0.542042
0.915489 0.000000 0.537489
1.000000 0.000000 0.532936
0.000000 0.102657 0.559281
0.079960 0.098104 0.554728
0.217535 0.093551 0.550175
0.355110 0.088998 0.545622
0.492684 0.084444 0.541068
0.630259 0.079891 0.536515
0.767834 0.075338 0.531962
0.905409 0.070785 0.527409
1.000000 0.066232 0.522856
0.000000 0.252849 0.549201
0.069880 0.248296 0.544648
0.207455 0.243743 0.540095
0.345030 0.239190 0.535542
0.482604 0.234636 0.530988
0.620179 0.230083 0.526435
0.757754 0.225530 0.521882
0.895329 0.220977 0.517329
1.000000 0.216424 0.512776
0.000000 0.403041 0.539121
0.059800 0.398488 0.534568
0.197375 0.393935 0.530015
0.334950 0.389382 0.525462
0.472524 0.384828 0.520908
0.610099 0.380275 0.516355
0.747674 0.375722 0.511802
0.885249 0.371169 0.507249
1.000000 0.366616 0.502696
0.000000 0.553233 0.529041
0.049720 0.548680 0.524488
0.187295 0.544127 0.519935
0.324870 0.539574 0.515382
0.462445 0.535021 0.510829
0.600019 0.530467 0.506275
0.737594 0.525914 0.501722
0.875169 0.521361 0.497169
1.000000 0.516808 0.492616
0.000000 0.703425 0.518961
0.039640 0.698872 0.514408
0.177215 0.694319 0.509855
0.314790 0.689766 0.505302
0.452365 0.685213 0.500749
0.589939 0.680659 0.496195
0.727514 0.676106 0.491642
0.865089 0.671553 0.487089
1.000000 0.667000 0.482536
0.000000 0.853617 0.508881
0.029560 0.849064 0.504328
0.167135 0.844511 0.499775
0.304710 0.839958 0.495222
0.442285 0.835405 0.490669
0.579859 0.830851 0.486115
0.717434 0.826298 0.481562
0.855009 0.821745 0.477009
0.992584 0.817192 0.472456
0.000000 1.000000 0.498801
0.019480 0.999256 0.494248
0.157055 0.994703 0.489695
0.294630 0.990150 0.485142
0.432205 0.985597 0.480589
0.569779 0.981043 0.476035
0.707354 0.976490 0.471482
0.844929 0.971937 0.466929
0.982504 0.967384 0.462376
0.000000 1.000000 0.488721
0.009400 1.000000 0.484168
0.146975 1.000000 0.479615
0.284550 1.000000 0.475062
0.422125 1.000000 0.470509
0.559699 1.000000 0.465955
0.697274 1.000000 0.461402
0.834849 1.000000 0.456849
0.972424 1.000000 0.452296
0.000000 0.000000 0.721701
0.088156 0.000000 0.717148
0.225731 0.000000 0.712595
0.363306 0.000000 0.708042
0.500881 0.000000 0.703489
0.638455 0.000000 0.698935
0.776030 0.000000 0.694382
0.913605 0.000000 0.689829
1.000000 0.000000 0.685276
0.000000 0.100773 0.711621
0.078076 0.096220 0.707068
0.215651 0.091667 0.702515
0.353226 0.087114 0.697962
0.490801 0.082561 0.693409
0.628375 0.078007 0.688855
0.765950 0.073454 0.684302
0.903525 0.068901 0.679749
1.000000 0.064348 0.675196
0.000000 0.250965 0.701541
0.067996 0.246412 0.696988
0.205571 0.241859 0.692435
0.343146 0.237306 0.687882
0.480721 0.232753 0.683329
0.618296 0.228200 0.678776
0.755870 0.223646 0.674222
0.893445 0.219093 0.669669
1.000000 0.214540 0.665116
0.000000 0.401157 0.691461
0.057916 0.396604 0.686908
0.195491 0.392051 0.682355
0.333066 0.387498 0.677802
0.470641 0.382945 0.673249
0.608216 0.378392 0.668696
0.745790 0.373838 0.664142
0.883365 0.369285 0.659589
1.000000 0.364732 0.655036
0.000000 0.551349 0.681381
0.047836 0.546796 0.676828
0.185411 0.542243 0.672275
0.322986 0.537690 0.667722
0.460561 0.533137 0.663169
0.598136 0.528584 0.658616
0.735710 0.524030 0.654062
0.873285 0.519477 0.649509
1.000000 0.514924 0.644956
0.000000 0.701542 0.671301
0.037756 0.696988 0.666748
0.175331 0.692435 0.662195
0.312906 0.687882 0.657642
0.450481 0.683329 0.653089
0.588056 0.678776 0.648536
0.725630 0.674222 0.643982
0.863205 0.669669 0.639429
1.000000 0.665116 0.634876
0.000000 0.851734 0.661222
0.027676 0.847180 0.656668
0.165251 0.842627 0.652115
0.302826 0.838074 0.647562
0.440401 0.833521 0.643009
0.577976 0.828968 0.638456
0.715551 0.824415 0.633903
0.853125 0.819861 0.629349
0.990700 0.815308 0.624796
0.000000 1.000000 0.651142
0.017596 0.997372 0.646588
0.155171 0.992819 0.642035
0.292746 0.988266 0.637482
0.430321 0.983713 0.632929
0.567896 0.979160 0.628376
0.705471 0.974607 0.623823
0.843045 0.970053 0.619269
0.980620 0.965500 0.614716
0.000000 1.000000 0.641062
0.007516 1.000000 0.636508
0.145091 1.000000 0.631955
0.282666 1.000000 0.627402
0.420241 1.000000 0.622849
0.557816 1.000000 0.618296
0.695391 1.000000 0.613743
0.832965 1.000000 0.609189
0.970540 1.000000 0.604636
0.000000 0.000000 0.874042
0.086272 0.000000 0.869488
0.223847 0.000000 0.864935
0.361422 0.000000 0.860382
0.498997 0.000000 0.855829
0.636572 0.000000 0.851276
0.774147 0.000000 0.846723
0.911721 0.000000 0.842169
1.000000 0.000000 0.837616
0.000000 0.098890 0.863962
0.076192 0.094336 0.859408
0.213767 0.089783 0.854855
0.351342 0.085230 0.850302
0.488917 0.080677 0.845749
0.626492 0.076124 0.841196
0.764067 0.071571 0.836643
0.901641 0.067017 0.832089
1.000000 0.062464 0.827536
0.000000 0.249082 0.853882
0.066112 0.244528 0.849328
0.203687 0.239975 0.844775
0.341262 0.235422 0.840222
0.478837 0.230869 0.835669
0.616412 0.226316 0.831116
0.753987 0.221763 0.826563
0.891561 0.217209 0.822009
1.000000 0.212656 0.817456
0.000000 0.399274 0.843802
0.056033 0.394721 0.839249
0.193607 0.390167 0.834695
0.331182 0.385614 0.830142
0.468757 0.381061 0.825589
0.606332 0.376508 0.821036
0.743907 0.371955 0.816483
0.881481 0.367401 0.811929
1.000000 0.362848 0.807376
0.000000 0.549466 0.833722
0.045953 0.544913 0.829169
0.183527 0.540359 0.824615
0.321102 0.535806 0.820062
0.458677 0.531253 0.815509
0.596252 0.526700 0.810956
0.733827 0.522147 0.806403
0.871402 0.517594 0.801850
1.000000 0.513040 0.797296
0.000000 0.699658 0.823642
0.035873 0.695105 0.819089
0.173447 0.690551 0.814535
0.311022 0.685998 0.809982
0.448597 0.681445 0.805429
0.586172 0.676892 0.800876
0.723747 0.672339 0.796323
0.861322 0.667786 0.791770
0.998896 0.663232 0.787216
0.000000 0.849850 0.813562
0.025793 0.845297 0.809009
0.163367 0.840743 0.804455
0.300942 0.836190 0.799902
0.438517 0.831637 0.795349
0.576092 0.827084 0.790796
0.713667 0.822531 0.786243
0.851242 0.817978 0.781690
0.988816 0.813424 0.777136
0.000000 1.000000 0.803482
0.015713 0.995489 0.798929
0.153287 0.990935 0.794375
0.290862 0.986382 0.789822
0.428437 0.981829 0.785269
0.566012 0.977276 0.780716
0.703587 0.972723 0.776163
0.841162 0.968170 0.771610
0.978736 0.963616 0.767056
0.000000 1.000000 0.793402
0.005633 1.000000 0.788849
0.143208 1.000000 0.784296
0.280782 1.000000 0.779742
0.418357 1.000000 0.775189
0.555932 1.000000 0.770636
0.693507 1.000000 0.766083
0.831082 1.000000 0.761530
0.968656 1.000000 0.756976
0.000000 0.000000 1.000000
0.084389 0.000000 1.000000
0.221964 0.000000 1.000000
0.359538 0.000000 1.000000
0.497113 0.000000 1.000000
0.634688 0.000000 1.000000
0.772263 0.000000 0.999063
0.909838 0.000000 0.994510
1.000000 0.000000 0.989956
0.000000 0.097006 1.000000
0.074309 0.092453 1.000000
0.211884 0.087900 1.000000
0.349458 0.083346 1.000000
0.487033 0.078793 0.998089
0.624608 0.074240 0.993536
0.762183 0.069687 0.988983
0.899758 0.065134 0.984430
1.000000 0.060581 0.979877
0.000000 0.247198 1.000000
0.064229 0.242645 1.000000
0.201804 0.238092 0.997116
0.339378 0.233538 0.992562
0.476953 0.228985 0.988009
0.614528 0.224432 0.983456
0.752103 0.219879 0.978903
0.889678 0.215326 0.974350
1.000000 0.210773 0.969797
0.000000 0.397390 0.996142
0.054149 0.392837 0.991589
0.191724 0.388284 0.987036
0.329298 0.383730 0.982482
0.466873 0.379177 0.977929
0.604448 0.374624 0.973376
0.742023 0.370071 0.968823
0.879598 0.365518 0.964270
1.000000 0.360965 0.959717
0.000000 0.547582 0.986062
0.044069 0.543029 0.981509
0.181644 0.538476 0.976956
0.319218 0.533922 0.972402
0.456793 0.529369 0.967849
0.594368 0.524816 0.963296
0.731943 0.520263 0.958743
0.869518 0.515710 0.954190
1.000000 0.511157 0.949637
0.000000 0.697774 0.975982
0.033989 0.693221 0.971429
0.171564 0.688668 0.966876
0.309139 0.684115 0.962323
0.446713 0.679561 0.957769
0.584288 0.675008 0.953216
0.721863 0.670455 0.948663
0.859438 0.665902 0.944110
0.997013 0.661349 0.939557
0.000000 0.847966 0.965902
0.023909 0.843413 0.961349
0.161484 0.838860 0.956796
0.299059 0.834307 0.952243
0.436633 0.829753 0.947689
0.574208 0.825200 0.943136
0.711783 0.820647 0.938583
0.849358 0.816094 0.934030
0.986933 0.811541 0.929477
0.000000 0.998158 0.955822
0.013829 0.993605 0.951269
0.151404 0.989052 0.946716
0.288979 0.984499 0.942163
0.426553 0.979945 0.937609
0.564128 0.975392 0.933056
0.701703 0.970839 0.928503
0.839278 0.966286 0.923950
0.976853 0.961733 0.919397
0.000000 1.000000 0.945742
0.003749 1.000000 0.941189
0.141324 1.000000 0.936636
0.278899 1.000000 0.932083
0.416473 1.000000 0.927529
0.554048 1.000000 0.922976
0.691623 1.000000 0.918423
0.829198 1.000000 0.913870
0.966773 1.000000 0.909317
0.000000 0.000000 1.000000
0.082505 0.000000 1.000000
0.220080 0.000000 1.000000
0.357655 0.000000 1.000000
0.495229 0.000000 1.000000
0.632804 0.000000 1.000000
0.770379 0.000000 1.000000
0.907954 0.000000 1.000000
1.000000 0.000000 1.000000
0.000000 0.095122 1.000000
0.072425 0.090569 1.000000
0.210000 0.086016 1.000000
0.347575 0.081463 1.000000
0.485149 0.076909 1.000000
0.622724 0.072356 1.000000
0.760299 0.067803 1.000000
0.897874 0.063250 1.000000
1.000000 0.058697 1.000000
0.000000 0.245314 1.000000
0.062345 0.240761 1.000000
0.199920 0.236208 1.000000
0.337495 0.231655 1.000000
0.475069 0.227101 1.000000
0.612644 0.222548 1.000000
0.750219 0.217995 1.000000
0.887794 0.213442 1.000000
1.000000 0.208889 1.000000
0.000000 0.395506 1.000000
0.052265 0.390953 1.000000
0.189840 0.386400 1.000000
0.327415 0.381847 1.000000
0.464990 0.377294 1.000000
0.602564 0.372740 1.000000
0.740139 0.368187 1.000000
0.877714 0.363634 1.000000
1.000000 0.359081 1.000000
0.000000 0.545698 1.000000
0.042185 0.541145 1.000000
0.179760 0.536592 1.000000
0.317335 0.532039 1.000000
0.454910 0.527486 1.000000
0.592484 0.522932 1.000000
0.730059 0.518379 1.000000
0.867634 0.513826 1.000000
1.000000 0.509273 1.000000
0.000000 0.695890 1.000000
0.032105 0.691337 1.000000
0.169680 0.686784 1.000000
0.307255 0.682231 1.000000
0.444830 0.677678 1.000000
0.582404 0.673124 1.000000
0.719979 0.668571 1.000000
0.857554 0.664018 1.000000
0.995129 0.659465 1.000000
0.000000 0.846082 1.000000
0.022025 0.841529 1.000000
0.159600 0.836976 1.000000
0.297175 0.832423 1.000000
0.434750 0.827870 1.000000
0.572324 0.823316 1.000000
0.709899 0.818763 1.000000
0.847474 0.814210 1.000000
0.985049 0.809657 1.000000
0.000000 0.996274 1.000000
0.011945 0.991721 1.000000
0.149520 0.987168 1.000000
0.287095 0.982615 1.000000
0.424670 0.978062 1.000000
0.562245 0.973509 1.000000
0.699819 0.968955 1.000000
0.837394 0.964402 1.000000
0.974969 0.959849 1.000000
0.000000 1.000000 1.000000
0.001865 1.000000 1.000000
0.139440 1.000000 1.000000
0.277015 1.000000 1.000000
0.414590 1.000000 1.000000
0.552165 1.000000 1.000000
0.689739 1.000000 1.000000
0.827314 1.000000 1.000000
0.964889 1.000000 1.000000
