flutter_app/assets/lut/superia.cube
TITLE "Fuji Superia"
# Generated placeholder LUT for DAZZ development
# Replace with production-grade LUT before release
LUT_3D_SIZE 33
DOMAIN_MIN 0.0 0.0 0.0
DOMAIN_MAX 1.0 1.0 1.0
0.000000 0.000000 0.000000
0.000000 0.000000 0.000000
0.028787 0.000000 0.000000
0.063181 0.000000 0.000000
0.097575 0.000000 0.000000
0.131969 0.000000 0.000000
0.166362 0.000000 0.000000
0.200756 0.000000 0.000000
0.235150 0.000000 0.000000
0.269543 0.000000 0.000000
0.303937 0.000000 0.000000
0.338331 0.000000 0.000000
0.372724 0.000000 0.000000
0.407118 0.000000 0.000000
0.441512 0.000000 0.000000
0.475906 0.000000 0.000000
0.510299 0.000000 0.000000
0.544693 0.000000 0.000000
0.579087 0.000000 0.000000
0.613480 0.000000 0.000000
0.647874 0.000000 0.000000
0.682268 0.000000 0.000000
0.716662 0.000000 0.000000
0.751055 0.000000 0.000000
0.785449 0.000000 0.000000
0.819843 0.000000 0.000000
0.854236 0.000000 0.000000
0.888630 0.000000 0.000000
0.923024 0.000000 0.000000
0.957418 0.000000 0.000000
0.991811 0.000000 0.000000
1.000000 0.000000 0.000000
1.000000 0.000000 0.000000
0.000000 0.000000 0.000000
0.000000 0.000000 0.000000
0.026267 0.000000 0.000000
0.060661 0.000000 0.000000
0.095055 0.000000 0.000000
0.129449 0.000000 0.000000
0.163842 0.000000 0.000000
0.198236 0.000000 0.000000
0.232630 0.000000 0.000000
0.267023 0.000000 0.000000
0.301417 0.000000 0.000000
0.335811 0.000000 0.000000
0.370204 0.000000 0.000000
0.404598 0.000000 0.000000
0.438992 0.000000 0.000000
0.473386 0.000000 0.000000
0.507779 0.000000 0.000000
0.542173 0.000000 0.000000
0.576567 0.000000 0.000000
0.610960 0.000000 0.000000
0.645354 0.000000 0.000000
0.679748 0.000000 0.000000
0.714142 0.000000 0.000000
0.748535 0.000000 0.000000
0.782929 0.000000 0.000000
0.817323 0.000000 0.000000
0.851716 0.000000 0.000000
0.886110 0.000000 0.000000
0.920504 0.000000 0.000000
0.954898 0.000000 0.000000
0.989291 0.000000 0.000000
1.000000 0.000000 0.000000
1.000000 0.000000 0.000000
0.000000 0.035096 0.000000
0.000000 0.033958 0.000000
0.023747 0.032819 0.000000
0.058141 0.031681 0.000000
0.092535 0.030543 0.000000
0.126929 0.029405 0.000000
0.161322 0.028266 0.000000
0.195716 0.027128 0.000000
0.230110 0.025990 0.000000
0.264503 0.024851 0.000000
0.298897 0.023713 0.000000
0.333291 0.022575 0.000000
0.367685 0.021437 0.000000
0.402078 0.020298 0.000000
0.436472 0.019160 0.000000
0.470866 0.018022 0.000000
0.505259 0.016883 0.000000
0.539653 0.015745 0.000000
0.574047 0.014607 0.000000
0.608440 0.013468 0.000000
0.642834 0.012330 0.000000
0.677228 0.011192 0.000000
0.711622 0.010054 0.000000
0.746015 0.008915 0.000000
0.780409 0.007777 0.000000
0.814803 0.006639 0.000000
0.849196 0.005500 0.000000
0.883590 0.004362 0.000000
0.917984 0.003224 0.000000
0.952378 0.002086 0.000000
0.986771 0.000947 0.000000
1.000000 0.000000 0.000000
1.000000 0.000000 0.000000
0.000000 0.072644 0.000000
0.000000 0.071506 0.000000
0.021227 0.070367 0.000000
0.055621 0.069229 0.000000
0.090015 0.068091 0.000000
0.124409 0.066953 0.000000
0.158802 0.065814 0.000000
0.193196 0.064676 0.000000
0.227590 0.063538 0.000000
0.261983 0.062399 0.000000
0.296377 0.061261 0.000000
0.330771 0.060123 0.000000
0.365165 0.058985 0.000000
0.399558 0.057846 0.000000
0.433952 0.056708 0.000000
0.468346 0.055570 0.000000
0.502739 0.054431 0.000000
0.537133 0.053293 0.000000
0.571527 0.052155 0.000000
0.605920 0.051016 0.000000
0.640314 0.049878 0.000000
0.674708 0.048740 0.000000
0.709102 0.047602 0.000000
0.743495 0.046463 0.000000
0.777889 0.045325 0.000000
0.812283 0.044187 0.000000
0.846676 0.043048 0.000000
0.881070 0.041910 0.000000
0.915464 0.040772 0.000000
0.949858 0.039634 0.000000
0.984251 0.038495 0.000000
1.000000 0.037357 0.000000
1.000000 0.036219 0.000000
0.000000 0.110192 0.000000
0.000000 0.109054 0.000000
0.018707 0.107915 0.000000
0.053101 0.106777 0.000000
0.087495 0.105639 0.000000
0.121889 0.104501 0.000000
0.156282 0.103362 0.000000
0.190676 0.102224 0.000000
0.225070 0.101086 0.000000
0.259463 0.099947 0.000000
0.293857 0.098809 0.000000
0.328251 0.097671 0.000000
0.362645 0.096533 0.000000
0.397038 0.095394 0.000000
0.431432 0.094256 0.000000
0.465826 0.093118 0.000000
0.500219 0.091979 0.000000
0.534613 0.090841 0.000000
0.569007 0.089703 0.000000
0.603400 0.088564 0.000000
0.637794 0.087426 0.000000
0.672188 0.086288 0.000000
0.706582 0.085150 0.000000
0.740975 0.084011 0.000000
0.775369 0.082873 0.000000
0.809763 0.081735 0.000000
0.844156 0.080596 0.000000
0.878550 0.079458 0.000000
0.912944 0.078320 0.000000
0.947338 0.077182 0.000000
0.981731 0.076043 0.000000
1.000000 0.074905 0.000000
1.000000 0.073767 0.000000
0.000000 0.147740 0.000000
0.000000 0.146602 0.000000
0.016187 0.145463 0.000000
0.050581 0.144325 0.000000
0.084975 0.143187 0.000000
0.119369 0.142049 0.000000
0.153762 0.140910 0.000000
0.188156 0.139772 0.000000
0.222550 0.138634 0.000000
0.256943 0.137495 0.000000
0.291337 0.136357 0.000000
0.325731 0.135219 0.000000
0.360125 0.134081 0.000000
0.394518 0.132942 0.000000
0.428912 0.131804 0.000000
0.463306 0.130666 0.000000
0.497699 0.129527 0.000000
0.532093 0.128389 0.000000
0.566487 0.127251 0.000000
0.600880 0.126112 0.000000
0.635274 0.124974 0.000000
0.669668 0.123836 0.000000
0.704062 0.122698 0.000000
0.738455 0.121559 0.000000
0.772849 0.120421 0.000000
0.807243 0.119283 0.000000
0.841636 0.118144 0.000000
0.876030 0.117006 0.000000
0.910424 0.115868 0.000000
0.944818 0.114730 0.000000
0.979211 0.113591 0.000000
1.000000 0.112453 0.000000
1.000000 0.111315 0.000000
0.000000 0.185288 0.000000
0.000000 0.184150 0.000000
0.013667 0.183011 0.000000
0.048061 0.181873 0.000000
0.082455 0.180735 0.000000
0.116849 0.179597 0.000000
0.151242 0.178458 0.000000
0.185636 0.177320 0.000000
0.220030 0.176182 0.000000
0.254423 0.175043 0.000000
0.288817 0.173905 0.000000
0.323211 0.172767 0.000000
0.357605 0.171629 0.000000
0.391998 0.170490 0.000000
0.426392 0.169352 0.000000
0.460786 0.168214 0.000000
0.495179 0.167075 0.000000
0.529573 0.165937 0.000000
0.563967 0.164799 0.000000
0.598360 0.163660 0.000000
0.632754 0.162522 0.000000
0.667148 0.161384 0.000000
0.701542 0.160246 0.000000
0.735935 0.159107 0.000000
0.770329 0.157969 0.000000
0.804723 0.156831 0.000000
0.839116 0.155692 0.000000
0.873510 0.154554 0.000000
0.907904 0.153416 0.000000
0.942298 0.152278 0.000000
0.976691 0.151139 0.000000
1.000000 0.150001 0.000000
1.000000 0.148863 0.000000
0.000000 0.222836 0.000000
0.000000 0.221698 0.000000
0.011147 0.220559 0.000000
0.045541 0.219421 0.000000
0.079935 0.218283 0.000000
0.114329 0.217145 0.000000
0.148722 0.216006 0.000000
0.183116 0.214868 0.000000
0.217510 0.213730 0.000000
0.251903 0.212591 0.000000
0.286297 0.211453 0.000000
0.320691 0.210315 0.000000
0.355085 0.209177 0.000000
0.389478 0.208038 0.000000
0.423872 0.206900 0.000000
0.458266 0.205762 0.000000
0.492659 0.204623 0.000000
0.527053 0.203485 0.000000
0.561447 0.202347 0.000000
0.595840 0.201208 0.000000
0.630234 0.200070 0.000000
0.664628 0.198932 0.000000
0.699022 0.197794 0.000000
0.733415 0.196655 0.000000
0.767809 0.195517 0.000000
0.802203 0.194379 0.000000
0.836596 0.193240 0.000000
0.870990 0.192102 0.000000
0.905384 0.190964 0.000000
0.939778 0.189826 0.000000
0.974171 0.188687 0.000000
1.000000 0.187549 0.000000
1.000000 0.186411 0.000000
0.000000 0.260384 0.000000
0.000000 0.259246 0.000000
0.008627 0.258107 0.000000
0.043021 0.256969 0.000000
0.077415 0.255831 0.000000
0.111809 0.254693 0.000000
0.146202 0.253554 0.000000
0.180596 0.252416 0.000000
0.214990 0.251278 0.000000
0.249383 0.250139 0.000000
0.283777 0.249001 0.000000
0.318171 0.247863 0.000000
0.352565 0.246725 0.000000
0.386958 0.245586 0.000000
0.421352 0.244448 0.000000
0.455746 0.243310 0.000000
0.490139 0.242171 0.000000
0.524533 0.241033 0.000000
0.558927 0.239895 0.000000
0.593321 0.238757 0.000000
0.627714 0.237618 0.000000
0.662108 0.236480 0.000000
0.696502 0.235342 0.000000
0.730895 0.234203 0.000000
0.765289 0.233065 0.000000
0.799683 0.231927 0.000000
0.834076 0.230788 0.000000
0.868470 0.229650 0.000000
0.902864 0.228512 0.000000
0.937258 0.227374 0.000000
0.971651 0.226235 0.000000
1.000000 0.225097 0.000000
1.000000 0.223959 0.000000
0.000000 0.297932 0.000000
0.000000 0.296794 0.000000
0.006107 0.295655 0.000000
0.040501 0.294517 0.000000
0.074895 0.293379 0.000000
0.109289 0.292241 0.000000
0.143682 0.291102 0.000000
0.178076 0.289964 0.000000
0.212470 0.288826 0.000000
0.246863 0.287687 0.000000
0.281257 0.286549 0.000000
0.315651 0.285411 0.000000
0.350045 0.284273 0.000000
0.384438 0.283134 0.000000
0.418832 0.281996 0.000000
0.453226 0.280858 0.000000
0.487619 0.279719 0.000000
0.522013 0.278581 0.000000
0.556407 0.277443 0.000000
0.590801 0.276305 0.000000
0.625194 0.275166 0.000000
0.659588 0.274028 0.000000
0.693982 0.272890 0.000000
0.728375 0.271751 0.000000
0.762769 0.270613 0.000000
0.797163 0.269475 0.000000
0.831556 0.268336 0.000000
0.865950 0.267198 0.000000
0.900344 0.266060 0.000000
0.934738 0.264922 0.000000
0.969131 0.263783 0.000000
1.000000 0.262645 0.000000
1.000000 0.261507 0.000000
0.000000 0.335480 0.000000
0.000000 0.334342 0.000000
0.003588 0.333204 0.000000
0.037981 0.332065 0.000000
0.072375 0.330927 0.000000
0.106769 0.329789 0.000000
0.141162 0.328650 0.000000
0.175556 0.327512 0.000000
0.209950 0.326374 0.000000
0.244343 0.325235 0.000000
0.278737 0.324097 0.000000
0.313131 0.322959 0.000000
0.347525 0.321821 0.000000
0.381918 0.320682 0.000000
0.416312 0.319544 0.000000
0.450706 0.318406 0.000000
0.485099 0.317267 0.000000
0.519493 0.316129 0.000000
0.553887 0.314991 0.000000
0.588281 0.313853 0.000000
0.622674 0.312714 0.000000
0.657068 0.311576 0.000000
0.691462 0.310438 0.000000
0.725855 0.309299 0.000000
0.760249 0.308161 0.000000
0.794643 0.307023 0.000000
0.829036 0.305884 0.000000
0.863430 0.304746 0.000000
0.897824 0.303608 0.000000
0.932218 0.302470 0.000000
0.966611 0.301331 0.000000
1.000000 0.300193 0.000000
1.000000 0.299055 0.000000
0.000000 0.373028 0.000000
0.000000 0.371890 0.000000
0.001068 0.370752 0.000000
0.035461 0.369613 0.000000
0.069855 0.368475 0.000000
0.104249 0.367337 0.000000
0.138642 0.366198 0.000000
0.173036 0.365060 0.000000
0.207430 0.363922 0.000000
0.241823 0.362783 0.000000
0.276217 0.361645 0.000000
0.310611 0.360507 0.000000
0.345005 0.359369 0.000000
0.379398 0.358230 0.000000
0.413792 0.357092 0.000000
0.448186 0.355954 0.000000
0.482579 0.354815 0.000000
0.516973 0.353677 0.000000
0.551367 0.352539 0.000000
0.585761 0.351401 0.000000
0.620154 0.350262 0.000000
0.654548 0.349124 0.000000
0.688942 0.347986 0.000000
0.723335 0.346847 0.000000
0.757729 0.345709 0.000000
0.792123 0.344571 0.000000
0.826516 0.343432 0.000000
0.860910 0.342294 0.000000
0.895304 0.341156 0.000000
0.929698 0.340018 0.000000
0.964091 0.338879 0.000000
0.998485 0.337741 0.000000
1.000000 0.336603 0.000000
0.000000 0.410576 0.000000
0.000000 0.409438 0.000000
0.000000 0.408300 0.000000
0.032941 0.407161 0.000000
0.067335 0.406023 0.000000
0.101729 0.404885 0.000000
0.136122 0.403746 0.000000
0.170516 0.402608 0.000000
0.204910 0.401470 0.000000
0.239303 0.400331 0.000000
0.273697 0.399193 0.000000
0.308091 0.398055 0.000000
0.342485 0.396917 0.000000
0.376878 0.395778 0.000000
0.411272 0.394640 0.000000
0.445666 0.393502 0.000000
0.480059 0.392363 0.000000
0.514453 0.391225 0.000000
0.548847 0.390087 0.000000
0.583241 0.388949 0.000000
0.617634 0.387810 0.000000
0.652028 0.386672 0.000000
0.686422 0.385534 0.000000
0.720815 0.384395 0.000000
0.755209 0.383257 0.000000
0.789603 0.382119 0.000000
0.823996 0.380980 0.000000
0.858390 0.379842 0.000000
0.892784 0.378704 0.000000
0.927178 0.377566 0.000000
0.961571 0.376427 0.000000
0.995965 0.375289 0.000000
1.000000 0.374151 0.000000
0.000000 0.448124 0.000000
0.000000 0.446986 0.000000
0.000000 0.445848 0.000000
0.030421 0.444709 0.000000
0.064815 0.443571 0.000000
0.099209 0.442433 0.000000
0.133602 0.441294 0.000000
0.167996 0.440156 0.000000
0.202390 0.439018 0.000000
0.236783 0.437879 0.000000
0.271177 0.436741 0.000000
0.305571 0.435603 0.000000
0.339965 0.434465 0.000000
0.374358 0.433326 0.000000
0.408752 0.432188 0.000000
0.443146 0.431050 0.000000
0.477539 0.429911 0.000000
0.511933 0.428773 0.000000
0.546327 0.427635 0.000000
0.580721 0.426497 0.000000
0.615114 0.425358 0.000000
0.649508 0.424220 0.000000
0.683902 0.423082 0.000000
0.718295 0.421943 0.000000
0.752689 0.420805 0.000000
0.787083 0.419667 0.000000
0.821476 0.418528 0.000000
0.855870 0.417390 0.000000
0.890264 0.416252 0.000000
0.924658 0.415114 0.000000
0.959051 0.413975 0.000000
0.993445 0.412837 0.000000
1.000000 0.411699 0.000000
0.000000 0.485672 0.000000
0.000000 0.484534 0.000000
0.000000 0.483396 0.000000
0.027901 0.482257 0.000000
0.062295 0.481119 0.000000
0.096689 0.479981 0.000000
0.131082 0.478842 0.000000
0.165476 0.477704 0.000000
0.199870 0.476566 0.000000
0.234263 0.475427 0.000000
0.268657 0.474289 0.000000
0.303051 0.473151 0.000000
0.337445 0.472013 0.000000
0.371838 0.470874 0.000000
0.406232 0.469736 0.000000
0.440626 0.468598 0.000000
0.475019 0.467459 0.000000
0.509413 0.466321 0.000000
0.543807 0.465183 0.000000
0.578201 0.464045 0.000000
0.612594 0.462906 0.000000
0.646988 0.461768 0.000000
0.681382 0.460630 0.000000
0.715775 0.459491 0.000000
0.750169 0.458353 0.000000
0.784563 0.457215 0.000000
0.818957 0.456077 0.000000
0.853350 0.454938 0.000000
0.887744 0.453800 0.000000
0.922138 0.452662 0.000000
0.956531 0.451523 0.000000
0.990925 0.450385 0.000000
1.000000 0.449247 0.000000
0.000000 0.523220 0.000000
0.000000 0.522082 0.000000
0.000000 0.520944 0.000000
0.025381 0.519805 0.000000
0.059775 0.518667 0.000000
0.094169 0.517529 0.000000
0.128562 0.516390 0.000000
0.162956 0.515252 0.000000
0.197350 0.514114 0.000000
0.231743 0.512975 0.000000
0.266137 0.511837 0.000000
0.300531 0.510699 0.000000
0.334925 0.509561 0.000000
0.369318 0.508422 0.000000
0.403712 0.507284 0.000000
0.438106 0.506146 0.000000
0.472499 0.505007 0.000000
0.506893 0.503869 0.000000
0.541287 0.502731 0.000000
0.575681 0.501593 0.000000
0.610074 0.500454 0.000000
0.644468 0.499316 0.000000
0.678862 0.498178 0.000000
0.713255 0.497039 0.000000
0.747649 0.495901 0.000000
0.782043 0.494763 0.000000
0.816437 0.493625 0.000000
0.850830 0.492486 0.000000
0.885224 0.491348 0.000000
0.919618 0.490210 0.000000
0.954011 0.489071 0.000000
0.988405 0.487933 0.000000
1.000000 0.486795 0.000000
0.000000 0.560768 0.000000
0.000000 0.559630 0.000000
0.000000 0.558492 0.000000
0.022861 0.557353 0.000000
0.057255 0.556215 0.000000
0.091649 0.555077 0.000000
0.126042 0.553938 0.000000
0.160436 0.552800 0.000000
0.194830 0.551662 0.000000
0.229224 0.550524 0.000000
0.263617 0.549385 0.000000
0.298011 0.548247 0.000000
0.332405 0.547109 0.000000
0.366798 0.545970 0.000000
0.401192 0.544832 0.000000
0.435586 0.543694 0.000000
0.469979 0.542555 0.000000
0.504373 0.541417 0.000000
0.538767 0.540279 0.000000
0.573161 0.539141 0.000000
0.607554 0.538002 0.000000
0.641948 0.536864 0.000000
0.676342 0.535726 0.000000
0.710735 0.534587 0.000000
0.745129 0.533449 0.000000
0.779523 0.532311 0.000000
0.813917 0.531173 0.000000
0.848310 0.530034 0.000000
0.882704 0.528896 0.000000
0.917098 0.527758 0.000000
0.951491 0.526619 0.000000
0.985885 0.525481 0.000000
1.000000 0.524343 0.000000
0.000000 0.598316 0.000000
0.000000 0.597178 0.000000
0.000000 0.596040 0.000000
0.020341 0.594901 0.000000
0.054735 0.593763 0.000000
0.089129 0.592625 0.000000
0.123522 0.591486 0.000000
0.157916 0.590348 0.000000
0.192310 0.589210 0.000000
0.226704 0.588072 0.000000
0.261097 0.586933 0.000000
0.295491 0.585795 0.000000
0.329885 0.584657 0.000000
0.364278 0.583518 0.000000
0.398672 0.582380 0.000000
0.433066 0.581242 0.000000
0.467459 0.580103 0.000000
0.501853 0.578965 0.000000
0.536247 0.577827 0.000000
0.570641 0.576689 0.000000
0.605034 0.575550 0.000000
0.639428 0.574412 0.000000
0.673822 0.573274 0.000000
0.708215 0.572135 0.000000
0.742609 0.570997 0.000000
0.777003 0.569859 0.000000
0.811397 0.568721 0.000000
0.845790 0.567582 0.000000
0.880184 0.566444 0.000000
0.914578 0.565306 0.000000
0.948971 0.564167 0.000000
0.983365 0.563029 0.000000
1.000000 0.561891 0.000000
0.000000 0.635864 0.000000
0.000000 0.634726 0.000000
0.000000 0.633588 0.000000
0.017821 0.632449 0.000000
0.052215 0.631311 0.000000
0.086609 0.630173 0.000000
0.121002 0.629034 0.000000
0.155396 0.627896 0.000000
0.189790 0.626758 0.000000
0.224184 0.625620 0.000000
0.258577 0.624481 0.000000
0.292971 0.623343 0.000000
0.327365 0.622205 0.000000
0.361758 0.621066 0.000000
0.396152 0.619928 0.000000
0.430546 0.618790 0.000000
0.464939 0.617651 0.000000
0.499333 0.616513 0.000000
0.533727 0.615375 0.000000
0.568121 0.614237 0.000000
0.602514 0.613098 0.000000
0.636908 0.611960 0.000000
0.671302 0.610822 0.000000
0.705695 0.609683 0.000000
0.740089 0.608545 0.000000
0.774483 0.607407 0.000000
0.808877 0.606269 0.000000
0.843270 0.605130 0.000000
0.877664 0.603992 0.000000
0.912058 0.602854 0.000000
0.946451 0.601715 0.000000
0.980845 0.600577 0.000000
1.000000 0.599439 0.000000
0.000000 0.673412 0.000000
0.000000 0.672274 0.000000
0.000000 0.671136 0.000000
0.015301 0.669997 0.000000
0.049695 0.668859 0.000000
0.084089 0.667721 0.000000
0.118482 0.666582 0.000000
0.152876 0.665444 0.000000
0.187270 0.664306 0.000000
0.221664 0.663168 0.000000
0.256057 0.662029 0.000000
0.290451 0.660891 0.000000
0.324845 0.659753 0.000000
0.359238 0.658614 0.000000
0.393632 0.657476 0.000000
0.428026 0.656338 0.000000
0.462419 0.655199 0.000000
0.496813 0.654061 0.000000
0.531207 0.652923 0.000000
0.565601 0.651785 0.000000
0.599994 0.650646 0.000000
0.634388 0.649508 0.000000
0.668782 0.648370 0.000000
0.703175 0.647231 0.000000
0.737569 0.646093 0.000000
0.771963 0.644955 0.000000
0.806357 0.643817 0.000000
0.840750 0.642678 0.000000
0.875144 0.641540 0.000000
0.909538 0.640402 0.000000
0.943931 0.639263 0.000000
0.978325 0.638125 0.000000
1.000000 0.636987 0.000000
0.000000 0.710960 0.000000
0.000000 0.709822 0.000000
0.000000 0.708684 0.000000
0.012781 0.707545 0.000000
0.047175 0.706407 0.000000
0.081569 0.705269 0.000000
0.115962 0.704130 0.000000
0.150356 0.702992 0.000000
0.184750 0.701854 0.000000
0.219144 0.700716 0.000000
0.253537 0.699577 0.000000
0.287931 0.698439 0.000000
0.322325 0.697301 0.000000
0.356718 0.696162 0.000000
0.391112 0.695024 0.000000
0.425506 0.693886 0.000000
0.459899 0.692747 0.000000
0.494293 0.691609 0.000000
0.528687 0.690471 0.000000
0.563081 0.689333 0.000000
0.597474 0.688194 0.000000
0.631868 0.687056 0.000000
0.666262 0.685918 0.000000
0.700655 0.684779 0.000000
0.735049 0.683641 0.000000
0.769443 0.682503 0.000000
0.803837 0.681365 0.000000
0.838230 0.680226 0.000000
0.872624 0.679088 0.000000
0.907018 0.677950 0.000000
0.941411 0.676811 0.000000
0.975805 0.675673 0.000000
1.000000 0.674535 0.000000
0.000000 0.748508 0.000000
0.000000 0.747370 0.000000
0.000000 0.746232 0.000000
0.010261 0.745093 0.000000
0.044655 0.743955 0.000000
0.079049 0.742817 0.000000
0.113442 0.741678 0.000000
0.147836 0.740540 0.000000
0.182230 0.739402 0.000000
0.216624 0.738264 0.000000
0.251017 0.737125 0.000000
0.285411 0.735987 0.000000
0.319805 0.734849 0.000000
0.354198 0.733710 0.000000
0.388592 0.732572 0.000000
0.422986 0.731434 0.000000
0.457380 0.730296 0.000000
0.491773 0.729157 0.000000
0.526167 0.728019 0.000000
0.560561 0.726881 0.000000
0.594954 0.725742 0.000000
0.629348 0.724604 0.000000
0.663742 0.723466 0.000000
0.698135 0.722327 0.000000
0.732529 0.721189 0.000000
0.766923 0.720051 0.000000
0.801317 0.718913 0.000000
0.835710 0.717774 0.000000
0.870104 0.716636 0.000000
0.904498 0.715498 0.000000
0.938891 0.714359 0.000000
0.973285 0.713221 0.000000
1.000000 0.712083 0.000000
0.000000 0.786056 0.000000
0.000000 0.784918 0.000000
0.000000 0.783780 0.000000
0.007741 0.782641 0.000000
0.042135 0.781503 0.000000
0.076529 0.780365 0.000000
0.110922 0.779226 0.000000
0.145316 0.778088 0.000000
0.179710 0.776950 0.000000
0.214104 0.775812 0.000000
0.248497 0.774673 0.000000
0.282891 0.773535 0.000000
0.317285 0.772397 0.000000
0.351678 0.771258 0.000000
0.386072 0.770120 0.000000
0.420466 0.768982 0.000000
0.454860 0.767844 0.000000
0.489253 0.766705 0.000000
0.523647 0.765567 0.000000
0.558041 0.764429 0.000000
0.592434 0.763290 0.000000
0.626828 0.762152 0.000000
0.661222 0.761014 0.000000
0.695615 0.759875 0.000000
0.730009 0.758737 0.000000
0.764403 0.757599 0.000000
0.798797 0.756461 0.000000
0.833190 0.755322 0.000000
0.867584 0.754184 0.000000
0.901978 0.753046 0.000000
0.936371 0.751907 0.000000
0.970765 0.750769 0.000000
1.000000 0.749631 0.000000
0.000000 0.823604 0.000000
0.000000 0.822466 0.000000
0.000000 0.821328 0.000000
0.005221 0.820189 0.000000
0.039615 0.819051 0.000000
0.074009 0.817913 0.000000
0.108402 0.816774 0.000000
0.142796 0.815636 0.000000
0.177190 0.814498 0.000000
0.211584 0.813360 0.000000
0.245977 0.812221 0.000000
0.280371 0.811083 0.000000
0.314765 0.809945 0.000000
0.349158 0.808806 0.000000
0.383552 0.807668 0.000000
0.417946 0.806530 0.000000
0.452340 0.805392 0.000000
0.486733 0.804253 0.000000
0.521127 0.803115 0.000000
0.555521 0.801977 0.000000
0.589914 0.800838 0.000000
0.624308 0.799700 0.000000
0.658702 0.798562 0.000000
0.693095 0.797423 0.000000
0.727489 0.796285 0.000000
0.761883 0.795147 0.000000
0.796277 0.794009 0.000000
0.830670 0.792870 0.000000
0.865064 0.791732 0.000000
0.899458 0.790594 0.000000
0.933851 0.789455 0.000000
0.968245 0.788317 0.000000
1.000000 0.787179 0.000000
0.000000 0.861152 0.000000
0.000000 0.860014 0.000000
0.000000 0.858876 0.000000
0.002701 0.857737 0.000000
0.037095 0.856599 0.000000
0.071489 0.855461 0.000000
0.105882 0.854322 0.000000
0.140276 0.853184 0.000000
0.174670 0.852046 0.000000
0.209064 0.850908 0.000000
0.243457 0.849769 0.000000
0.277851 0.848631 0.000000
0.312245 0.847493 0.000000
0.346638 0.846354 0.000000
0.381032 0.845216 0.000000
0.415426 0.844078 0.000000
0.449820 0.842940 0.000000
0.484213 0.841801 0.000000
0.518607 0.840663 0.000000
0.553001 0.839525 0.000000
0.587394 0.838386 0.000000
0.621788 0.837248 0.000000
0.656182 0.836110 0.000000
0.690575 0.834971 0.000000
0.724969 0.833833 0.000000
0.759363 0.832695 0.000000
0.793757 0.831557 0.000000
0.828150 0.830418 0.000000
0.862544 0.829280 0.000000
0.896938 0.828142 0.000000
0.931331 0.827003 0.000000
0.965725 0.825865 0.000000
1.000000 0.824727 0.000000
0.000000 0.898700 0.000000
0.000000 0.897562 0.000000
0.000000 0.896424 0.000000
0.000181 0.895285 0.000000
0.034575 0.894147 0.000000
0.068969 0.893009 0.000000
0.103362 0.891870 0.000000
0.137756 0.890732 0.000000
0.172150 0.889594 0.000000
0.206544 0.888456 0.000000
0.240937 0.887317 0.000000
0.275331 0.886179 0.000000
0.309725 0.885041 0.000000
0.344118 0.883902 0.000000
0.378512 0.882764 0.000000
0.412906 0.881626 0.000000
0.447300 0.880488 0.000000
0.481693 0.879349 0.000000
0.516087 0.878211 0.000000
0.550481 0.877073 0.000000
0.584874 0.875934 0.000000
0.619268 0.874796 0.000000
0.653662 0.873658 0.000000
0.688055 0.872519 0.000000
0.722449 0.871381 0.000000
0.756843 0.870243 0.000000
0.791237 0.869105 0.000000
0.825630 0.867966 0.000000
0.860024 0.866828 0.000000
0.894418 0.865690 0.000000
0.928811 0.864551 0.000000
0.963205 0.863413 0.000000
0.997599 0.862275 0.000000
0.000000 0.936248 0.000000
0.000000 0.935110 0.000000
0.000000 0.933972 0.000000
0.000000 0.932833 0.000000
0.032055 0.931695 0.000000
0.066449 0.930557 0.000000
0.100842 0.929418 0.000000
0.135236 0.928280 0.000000
0.169630 0.927142 0.000000
0.204024 0.926004 0.000000
0.238417 0.924865 0.000000
0.272811 0.923727 0.000000
0.307205 0.922589 0.000000
0.341598 0.921450 0.000000
0.375992 0.920312 0.000000
0.410386 0.919174 0.000000
0.444780 0.918036 0.000000
0.479173 0.916897 0.000000
0.513567 0.915759 0.000000
0.547961 0.914621 0.000000
0.582354 0.913482 0.000000
0.616748 0.912344 0.000000
0.651142 0.911206 0.000000
0.685535 0.910067 0.000000
